; generated by PrusaSlicer 2.1.1+ on 2020-04-06 at 01:45:25 UTC

; 

; external perimeters extrusion width = 0.45mm
; perimeters extrusion width = 0.45mm
; infill extrusion width = 0.45mm
; solid infill extrusion width = 0.45mm
; top infill extrusion width = 0.40mm
; first layer extrusion width = 0.70mm

M107
M190 S70 ; set bed temperature and wait for it to be reached
M104 S200 ; set temperature
G28 ; home all axes
G1 Z5 F5000 ; lift nozzle
M109 S200 ; set temperature and wait for it to be reached
G21 ; set units to millimeters
G90 ; use absolute coordinates
M82 ; use absolute distances for extrusion
G92 E0
; Filament gcode
G1 Z0.350 F7800.000
G1 E-2.00000 F2400.00000
G92 E0
G1 X79.532 Y83.276 F7800.000
G1 E2.00000 F2400.00000
G1 F1800
G1 X80.432 Y82.452 E2.11101
G1 X81.475 Y81.817 E2.22203
G1 X82.614 Y81.396 E2.33248
G1 X83.820 Y81.200 E2.44350
G1 X112.387 Y81.188 E5.04115
G1 X113.517 Y81.291 E5.14430
G1 X114.610 Y81.594 E5.24745
G1 X115.631 Y82.088 E5.35059
G1 X116.547 Y82.757 E5.45374
G1 X117.329 Y83.580 E5.55689
G1 X117.947 Y84.523 E5.65947
G1 X118.390 Y85.567 E5.76262
G1 X118.639 Y86.674 E5.86577
G1 X118.723 Y99.599 E7.04107
G1 X118.685 Y112.826 E8.24375
G1 X118.539 Y113.888 E8.34127
G1 X118.215 Y114.911 E8.43880
G1 X117.723 Y115.863 E8.53632
G1 X117.072 Y116.724 E8.63441
G1 X116.107 Y117.596 E8.75272
G1 X114.983 Y118.251 E8.87104
G1 X113.754 Y118.661 E8.98879
G1 X112.462 Y118.812 E9.10711
G1 X83.906 Y118.805 E11.70365
G1 X82.837 Y118.659 E11.80173
G1 X81.815 Y118.335 E11.89926
G1 X80.856 Y117.840 E11.99735
G1 X80.001 Y117.193 E12.09487
G1 X79.128 Y116.228 E12.21319
G1 X78.472 Y115.104 E12.33150
G1 X78.061 Y113.870 E12.44982
G1 X77.911 Y112.584 E12.56757
G1 X77.920 Y87.150 E14.88026
G1 X78.070 Y86.088 E14.97779
G1 X78.396 Y85.072 E15.07475
G1 X78.887 Y84.126 E15.17171
G1 X79.495 Y83.324 E15.26322
G1 E13.26322 F2400.00000
G92 E0
G1 X101.082 Y103.020 F7800.000
G1 E2.00000 F2400.00000
G1 F1800
G1 X100.547 Y103.437 E2.06165
G1 X99.951 Y103.759 E2.12330
G1 X99.310 Y103.980 E2.18496
G1 X98.641 Y104.091 E2.24661
G1 X97.963 Y104.091 E2.30826
G1 X97.294 Y103.980 E2.36991
G1 X96.697 Y103.775 E2.42731
G1 X96.065 Y103.443 E2.49221
G1 X95.521 Y103.020 E2.55483
G1 X95.062 Y102.522 E2.61648
G1 X94.717 Y101.993 E2.67388
G1 X94.422 Y101.343 E2.73878
G1 X94.253 Y100.676 E2.80140
G1 X94.197 Y100.000 E2.86305
G1 X94.253 Y99.324 E2.92470
G1 X94.419 Y98.667 E2.98635
G1 X94.691 Y98.046 E3.04801
G1 X95.062 Y97.478 E3.10966
G1 X95.521 Y96.980 E3.17131
G1 X96.056 Y96.563 E3.23296
G1 X96.653 Y96.241 E3.29461
G1 X97.294 Y96.020 E3.35627
G1 X97.963 Y95.909 E3.41792
G1 X98.641 Y95.909 E3.47957
G1 X99.310 Y96.020 E3.54122
G1 X99.951 Y96.241 E3.60287
G1 X100.547 Y96.563 E3.66453
G1 X101.082 Y96.980 E3.72618
G1 X101.541 Y97.478 E3.78783
G1 X101.887 Y98.007 E3.84523
G1 X102.182 Y98.657 E3.91012
G1 X102.351 Y99.324 E3.97275
G1 X102.407 Y100.000 E4.03440
G1 X102.351 Y100.676 E4.09605
G1 X102.185 Y101.333 E4.15770
G1 X101.912 Y101.954 E4.21936
G1 X101.541 Y102.522 E4.28101
G1 X101.123 Y102.976 E4.33720
G1 X100.658 Y102.559 F7800.000
G1 F1800
G1 X100.204 Y102.912 E4.38944
G1 X99.699 Y103.185 E4.44167
G1 X99.156 Y103.372 E4.49391
G1 X98.589 Y103.466 E4.54615
G1 X98.015 Y103.466 E4.59838
G1 X97.448 Y103.372 E4.65062
G1 X96.945 Y103.199 E4.69897
G1 X96.405 Y102.916 E4.75445
G1 X95.946 Y102.559 E4.80728
G1 X95.557 Y102.136 E4.85952
G1 X95.266 Y101.691 E4.90788
G1 X95.014 Y101.136 E4.96336
G1 X94.871 Y100.572 E5.01618
G1 X94.824 Y100.000 E5.06842
G1 X94.871 Y99.428 E5.12065
G1 X95.012 Y98.871 E5.17289
G1 X95.243 Y98.345 E5.22513
G1 X95.557 Y97.864 E5.27736
G1 X95.946 Y97.441 E5.32960
G1 X96.399 Y97.088 E5.38183
G1 X96.905 Y96.815 E5.43407
G1 X97.448 Y96.628 E5.48630
G1 X98.015 Y96.534 E5.53854
G1 X98.589 Y96.534 E5.59077
G1 X99.156 Y96.628 E5.64301
G1 X99.699 Y96.815 E5.69524
G1 X100.204 Y97.088 E5.74748
G1 X100.658 Y97.441 E5.79971
G1 X101.047 Y97.864 E5.85195
G1 X101.338 Y98.309 E5.90031
G1 X101.590 Y98.864 E5.95579
G1 X101.733 Y99.428 E6.00862
G1 X101.780 Y100.000 E6.06085
G1 X101.733 Y100.572 E6.11309
G1 X101.592 Y101.129 E6.16532
G1 X101.361 Y101.655 E6.21756
G1 X101.047 Y102.136 E6.26979
G1 X100.698 Y102.515 E6.31657
G1 X100.233 Y102.098 F7800.000
G1 F1800
G1 X99.861 Y102.387 E6.35939
G1 X99.447 Y102.611 E6.40221
G1 X99.002 Y102.764 E6.44503
G1 X98.537 Y102.841 E6.48785
G1 X98.066 Y102.841 E6.53067
G1 X97.602 Y102.764 E6.57349
G1 X97.193 Y102.624 E6.61281
G1 X96.744 Y102.388 E6.65887
G1 X96.371 Y102.098 E6.70190
G1 X96.052 Y101.751 E6.74472
G1 X95.815 Y101.389 E6.78404
G1 X95.606 Y100.928 E6.83010
G1 X95.490 Y100.469 E6.87314
G1 X95.451 Y100.000 E6.91595
G1 X95.490 Y99.531 E6.95877
G1 X95.605 Y99.074 E7.00159
G1 X95.794 Y98.643 E7.04441
G1 X96.052 Y98.249 E7.08723
G1 X96.371 Y97.902 E7.13005
G1 X96.742 Y97.613 E7.17287
G1 X97.157 Y97.389 E7.21569
G1 X97.602 Y97.236 E7.25850
G1 X98.066 Y97.159 E7.30132
G1 X98.537 Y97.159 E7.34414
G1 X99.002 Y97.236 E7.38696
G1 X99.447 Y97.389 E7.42978
G1 X99.861 Y97.613 E7.47260
G1 X100.233 Y97.902 E7.51542
G1 X100.552 Y98.249 E7.55824
G1 X100.788 Y98.611 E7.59756
G1 X100.998 Y99.072 E7.64362
G1 X101.114 Y99.531 E7.68665
G1 X101.153 Y100.000 E7.72947
G1 X101.114 Y100.469 E7.77229
G1 X100.999 Y100.926 E7.81511
G1 X100.809 Y101.357 E7.85793
G1 X100.552 Y101.751 E7.90074
G1 X100.274 Y102.054 E7.93811
G1 X100.320 Y102.488 F7800.000
G1 E5.93811 F2400.00000
G92 E0
G1 X110.785 Y110.900 F7800.000
G1 E2.00000 F2400.00000
G1 F1800
G1 X85.819 Y110.900 E4.27018
G1 X85.793 Y100.392 E5.22572
G1 X85.819 Y89.100 E6.25250
G1 X110.785 Y89.100 E8.52268
G1 X110.811 Y99.608 E9.47822
G1 X110.785 Y110.840 E10.49953
G1 X111.408 Y111.525 F7800.000
G1 F1800
G1 X85.195 Y111.525 E12.88309
G1 X85.168 Y100.392 E13.89545
G1 X85.195 Y88.475 E14.97905
G1 X111.409 Y88.475 E17.36261
G1 X111.436 Y99.608 E18.37496
G1 X111.409 Y111.465 E19.45310
G1 X112.032 Y112.150 F7800.000
G1 F1800
G1 X84.572 Y112.150 E21.95004
G1 X84.543 Y100.392 E23.01921
G1 X84.572 Y87.850 E24.15963
G1 X112.032 Y87.850 E26.65657
G1 X112.060 Y99.608 E27.72574
G1 X112.032 Y112.090 E28.86071
G1 X111.685 Y111.950 F7800.000
G1 E26.86071 F2400.00000
G92 E0
G1 X101.472 Y110.713 F7800.000
G1 E2.00000 F2400.00000
G1 F1800
G1 X86.273 Y95.514 E3.96257
G1 X86.271 Y96.399 E4.04340
G1 X100.303 Y110.432 E5.85534
G1 X99.416 Y110.432 E5.93636
G1 X86.269 Y97.284 E7.63398
G1 X86.267 Y98.170 E7.71482
G1 X98.529 Y110.432 E9.29812
G1 X97.641 Y110.432 E9.37914
G1 X86.265 Y99.055 E10.84812
G1 X86.263 Y99.940 E10.92896
G1 X96.754 Y110.432 E12.28362
G1 X95.867 Y110.432 E12.36464
G1 X86.263 Y100.828 E13.60472
G1 X86.265 Y101.717 E13.68594
G1 X94.979 Y110.432 E14.81116
G1 X94.092 Y110.432 E14.89218
G1 X86.267 Y102.607 E15.90254
G1 X86.269 Y103.496 E15.98376
G1 X93.204 Y110.432 E16.87927
G1 X92.317 Y110.432 E16.96029
G1 X86.271 Y104.386 E17.74093
G1 X86.274 Y105.275 E17.82215
G1 X91.430 Y110.432 E18.48794
G1 X90.542 Y110.432 E18.56896
G1 X86.276 Y106.165 E19.11989
G1 X86.278 Y107.054 E19.20111
G1 X89.655 Y110.432 E19.63718
G1 X88.768 Y110.432 E19.71820
G1 X86.280 Y107.944 E20.03941
G1 X86.282 Y108.833 E20.12063
G1 X87.880 Y110.432 E20.32699
G1 X86.993 Y110.432 E20.40801
G1 X86.002 Y109.441 E20.53590
G1 E18.53590 F2400.00000
G92 E0
G1 X93.357 Y89.287 F7800.000
G1 E2.00000 F2400.00000
G1 F1800
G1 X99.743 Y95.674 E2.82466
G1 X99.425 Y95.564 E2.85539
G1 X98.622 Y95.440 E2.92955
G1 X92.751 Y89.568 E3.68773
G1 X91.863 Y89.568 E3.76875
G1 X97.762 Y95.467 E4.53041
G1 X97.179 Y95.564 E4.58442
G1 X97.025 Y95.617 E4.59926
G1 X90.976 Y89.568 E5.38031
G1 X90.089 Y89.568 E5.46133
G1 X96.377 Y95.857 E6.27331
G1 X95.801 Y96.168 E6.33309
G1 X89.201 Y89.568 E7.18530
G1 X88.314 Y89.568 E7.26632
G1 X95.302 Y96.557 E8.16865
G1 X95.203 Y96.634 E8.18012
G1 X94.862 Y97.004 E8.22607
G1 X87.427 Y89.568 E9.18617
G1 X86.539 Y89.568 E9.26719
G1 X94.481 Y97.511 E10.29272
G1 X94.278 Y97.822 E10.32671
G1 X94.164 Y98.081 E10.35250
G1 X86.285 Y90.202 E11.36992
G1 X86.283 Y91.087 E11.45075
G1 X93.921 Y98.725 E12.43700
G1 X93.789 Y99.247 E12.48616
G1 X93.771 Y99.462 E12.50589
G1 X86.281 Y91.972 E13.47303
G1 X86.279 Y92.858 E13.55387
G1 X93.754 Y100.333 E14.51907
G1 X93.789 Y100.753 E14.55759
G1 X93.959 Y101.425 E14.62087
G1 X86.277 Y93.743 E15.61280
G1 X86.275 Y94.628 E15.69364
G1 X102.078 Y110.432 E17.73422
G1 X102.966 Y110.432 E17.81524
G1 X96.860 Y104.326 E18.60359
G1 X97.179 Y104.436 E18.63434
G1 X97.981 Y104.560 E18.70849
G1 X103.853 Y110.432 E19.46667
G1 X104.740 Y110.432 E19.54769
G1 X98.842 Y104.533 E20.30935
G1 X99.425 Y104.436 E20.36336
G1 X99.579 Y104.383 E20.37820
G1 X105.628 Y110.432 E21.15924
G1 X106.515 Y110.432 E21.24026
G1 X100.227 Y104.143 E22.05224
G1 X100.802 Y103.832 E22.11202
G1 X107.402 Y110.432 E22.96423
G1 X108.290 Y110.432 E23.04525
G1 X101.302 Y103.443 E23.94757
G1 X101.401 Y103.366 E23.95905
G1 X101.742 Y102.996 E24.00499
G1 X109.177 Y110.432 E24.96508
G1 X110.064 Y110.432 E25.04610
G1 X102.122 Y102.489 E26.07162
G1 X102.326 Y102.178 E26.10562
G1 X102.439 Y101.919 E26.13140
G1 X110.319 Y109.799 E27.14882
G1 X110.321 Y108.913 E27.22966
G1 X102.683 Y101.275 E28.21591
G1 X102.815 Y100.753 E28.26508
G1 X102.833 Y100.538 E28.28480
G1 X110.323 Y108.028 E29.25194
G1 X110.325 Y107.143 E29.33278
G1 X102.850 Y99.668 E30.29798
G1 X102.815 Y99.247 E30.33652
G1 X102.645 Y98.575 E30.39978
G1 X110.327 Y106.257 E31.39171
G1 X110.329 Y105.372 E31.47254
G1 X94.525 Y89.568 E33.51313
G1 X95.413 Y89.568 E33.59415
G1 X110.331 Y104.487 E35.52042
G1 X110.333 Y103.601 E35.60126
G1 X96.300 Y89.568 E37.41321
G1 X97.188 Y89.568 E37.49423
G1 X110.335 Y102.716 E39.19187
G1 X110.337 Y101.830 E39.27270
G1 X98.075 Y89.568 E40.85602
G1 X98.962 Y89.568 E40.93704
G1 X110.339 Y100.945 E42.40603
G1 X110.341 Y100.060 E42.48687
G1 X99.850 Y89.568 E43.84154
G1 X100.737 Y89.568 E43.92256
G1 X110.341 Y99.172 E45.16266
G1 X110.339 Y98.283 E45.24388
G1 X101.624 Y89.568 E46.36911
G1 X102.512 Y89.568 E46.45013
G1 X110.337 Y97.393 E47.46051
G1 X110.334 Y96.504 E47.54173
G1 X103.399 Y89.568 E48.43724
G1 X104.286 Y89.568 E48.51826
G1 X110.332 Y95.614 E49.29892
G1 X110.330 Y94.725 E49.38014
G1 X105.174 Y89.568 E50.04594
G1 X106.061 Y89.568 E50.12696
G1 X110.328 Y93.835 E50.67791
G1 X110.326 Y92.946 E50.75912
G1 X106.949 Y89.568 E51.19521
G1 X107.836 Y89.568 E51.27623
G1 X110.324 Y92.056 E51.59746
G1 X110.322 Y91.167 E51.67867
G1 X108.723 Y89.568 E51.88504
G1 X109.611 Y89.568 E51.96606
G1 X110.601 Y90.559 E52.09397
G1 Z0.650 F7800.000
G1 X101.064 Y102.150
G1 F900
G1 X100.672 Y102.575 E52.12177
G1 X100.216 Y102.930 E52.14957
G1 X99.708 Y103.205 E52.17737
G1 X99.161 Y103.393 E52.20517
G1 X98.591 Y103.488 E52.23297
G1 X98.013 Y103.488 E52.26077
G1 X97.443 Y103.393 E52.28857
G1 X97.072 Y103.265 E52.30744
G1 X96.896 Y103.205 E52.31637
G1 X96.388 Y102.930 E52.34417
G1 X95.932 Y102.575 E52.37197
G1 X95.540 Y102.150 E52.39977
G1 X95.224 Y101.666 E52.42757
G1 X94.992 Y101.136 E52.45537
G1 X94.850 Y100.576 E52.48317
G1 X94.802 Y100.000 E52.51097
G1 X94.850 Y99.424 E52.53877
G1 X94.992 Y98.864 E52.56657
G1 X95.224 Y98.334 E52.59437
G1 X95.540 Y97.850 E52.62217
G1 X95.932 Y97.425 E52.64997
G1 X96.388 Y97.070 E52.67777
G1 X96.896 Y96.795 E52.70557
G1 X97.443 Y96.607 E52.73337
G1 X98.013 Y96.512 E52.76117
G1 X98.591 Y96.512 E52.78897
G1 X99.161 Y96.607 E52.81677
G1 X99.708 Y96.795 E52.84457
G1 X100.216 Y97.070 E52.87236
G1 X100.672 Y97.425 E52.90016
G1 X101.064 Y97.850 E52.92796
G1 X101.380 Y98.334 E52.95576
G1 X101.612 Y98.864 E52.98356
G1 X101.754 Y99.424 E53.01136
G1 X101.802 Y100.000 E53.03916
G1 X101.754 Y100.576 E53.06696
G1 X101.612 Y101.136 E53.09476
G1 X101.380 Y101.666 E53.12256
G1 X101.096 Y102.099 E53.14748
G1 X100.758 Y101.912 F7800.000
G1 F900
G1 X100.410 Y102.290 E53.17220
G1 X100.004 Y102.606 E53.19693
G1 X99.552 Y102.851 E53.22165
G1 X99.066 Y103.017 E53.24638
G1 X98.559 Y103.102 E53.27111
G1 X98.045 Y103.102 E53.29583
G1 X97.538 Y103.017 E53.32056
G1 X97.051 Y102.851 E53.34528
G1 X96.599 Y102.606 E53.37001
G1 X96.194 Y102.290 E53.39474
G1 X95.845 Y101.912 E53.41946
G1 X95.564 Y101.481 E53.44419
G1 X95.358 Y101.011 E53.46891
G1 X95.232 Y100.512 E53.49364
G1 X95.189 Y100.000 E53.51837
G1 X95.232 Y99.488 E53.54309
G1 X95.358 Y98.989 E53.56782
G1 X95.564 Y98.519 E53.59255
G1 X95.845 Y98.088 E53.61727
G1 X96.194 Y97.710 E53.64200
G1 X96.599 Y97.394 E53.66672
G1 X97.051 Y97.149 E53.69145
G1 X97.538 Y96.983 E53.71618
G1 X98.045 Y96.898 E53.74090
G1 X98.559 Y96.898 E53.76563
G1 X99.066 Y96.983 E53.79035
G1 X99.552 Y97.149 E53.81508
G1 X100.004 Y97.394 E53.83981
G1 X100.410 Y97.710 E53.86453
G1 X100.758 Y98.088 E53.88926
G1 X101.039 Y98.519 E53.91398
G1 X101.246 Y98.989 E53.93871
G1 X101.372 Y99.488 E53.96344
G1 X101.415 Y100.000 E53.98816
G1 X101.372 Y100.512 E54.01289
G1 X101.246 Y101.011 E54.03761
G1 X101.039 Y101.481 E54.06234
G1 X100.791 Y101.862 E54.08418
G1 X100.453 Y101.674 F7800.000
G1 F900
G1 X100.148 Y102.005 E54.10583
G1 X99.793 Y102.282 E54.12748
G1 X99.397 Y102.496 E54.14914
G1 X98.971 Y102.642 E54.17079
G1 X98.527 Y102.716 E54.19244
G1 X98.077 Y102.716 E54.21409
G1 X97.633 Y102.642 E54.23575
G1 X97.322 Y102.536 E54.25154
G1 X97.207 Y102.496 E54.25740
G1 X96.811 Y102.282 E54.27905
G1 X96.456 Y102.005 E54.30070
G1 X96.151 Y101.674 E54.32236
G1 X95.905 Y101.297 E54.34401
G1 X95.724 Y100.885 E54.36566
G1 X95.613 Y100.449 E54.38731
G1 X95.576 Y100.000 E54.40897
G1 X95.613 Y99.551 E54.43062
G1 X95.724 Y99.115 E54.45227
G1 X95.905 Y98.703 E54.47392
G1 X96.151 Y98.326 E54.49557
G1 X96.456 Y97.995 E54.51723
G1 X96.811 Y97.718 E54.53888
G1 X97.207 Y97.504 E54.56053
G1 X97.633 Y97.358 E54.58218
G1 X98.077 Y97.284 E54.60384
G1 X98.527 Y97.284 E54.62549
G1 X98.971 Y97.358 E54.64714
G1 X99.397 Y97.504 E54.66879
G1 X99.793 Y97.718 E54.69045
G1 X100.148 Y97.995 E54.71210
G1 X100.453 Y98.326 E54.73375
G1 X100.699 Y98.703 E54.75540
G1 X100.880 Y99.115 E54.77706
G1 X100.990 Y99.551 E54.79871
G1 X101.028 Y100.000 E54.82036
G1 X100.990 Y100.449 E54.84201
G1 X100.880 Y100.885 E54.86366
G1 X100.699 Y101.297 E54.88532
G1 X100.486 Y101.624 E54.90408
G1 X100.603 Y102.045 F7800.000
G1 X100.453 Y111.504
G1 F3600
G1 X84.110 Y111.504 E55.69013
G1 X84.129 Y100.000 E56.24343
G1 X84.110 Y88.496 E56.79672
G1 X112.496 Y88.496 E58.16199
G1 X112.475 Y100.000 E58.71528
G1 X112.494 Y111.504 E59.26858
G1 X100.513 Y111.504 E59.84483
G1 X100.453 Y111.889 F7800.000
G1 F3600
G1 X84.021 Y111.889 E60.63514
G1 X83.723 Y111.889 E60.65069
G1 X83.743 Y100.000 E61.27186
G1 X83.723 Y88.111 E61.89302
G1 X84.021 Y88.111 E61.90857
G1 X112.583 Y88.111 E63.28228
G1 X112.882 Y88.111 E63.29793
G1 X112.861 Y100.000 E63.91908
G1 X112.880 Y111.889 E64.54025
G1 X112.583 Y111.889 E64.55580
G1 X100.513 Y111.889 E65.13631
G1 X100.453 Y112.275 F7800.000
G1 F1800
G1 X84.022 Y112.275 E65.92658
G1 F3600
G1 X83.337 Y112.275 E65.96236
G1 X83.357 Y100.000 E66.60367
G1 X83.337 Y87.725 E67.24497
G1 X84.022 Y87.725 E67.28076
G1 F1800
G1 X112.582 Y87.725 E68.65437
G1 F3600
G1 X113.267 Y87.725 E68.69020
G1 X113.268 Y88.037 E68.70650
G1 X113.246 Y100.000 E69.33150
G1 X113.267 Y112.275 E69.97281
G1 X112.582 Y112.275 E70.00859
G1 F1800
G1 X100.513 Y112.275 E70.58906
G1 X111.581 Y111.388 F7800.000
G1 F1200
G1 X112.192 Y110.776 E70.63088
G1 X112.194 Y110.227 E70.65745
G1 X111.206 Y111.215 E70.72498
G1 X110.658 Y111.215 E70.75148
G1 X112.195 Y109.677 E70.85657
G1 X112.196 Y109.128 E70.88314
G1 X110.110 Y111.215 E71.02580
G1 X109.562 Y111.215 E71.05230
G1 X112.198 Y108.578 E71.23253
G1 X112.199 Y108.029 E71.25910
G1 X109.013 Y111.215 E71.47689
G1 X108.465 Y111.215 E71.50339
G1 X112.198 Y107.482 E71.75860
G1 X112.197 Y106.934 E71.78506
G1 X107.917 Y111.215 E72.07769
G1 X107.369 Y111.215 E72.10419
G1 X112.196 Y106.387 E72.43423
G1 X112.195 Y105.840 E72.46069
G1 X106.821 Y111.215 E72.82814
G1 X106.273 Y111.215 E72.85464
G1 X112.195 Y105.293 E73.25951
G1 X112.194 Y104.745 E73.28597
G1 X105.725 Y111.215 E73.72826
G1 X105.176 Y111.215 E73.75476
G1 X112.193 Y104.198 E74.23446
G1 X112.192 Y103.651 E74.26091
G1 X104.628 Y111.215 E74.77803
G1 X104.080 Y111.215 E74.80453
G1 X112.191 Y103.104 E75.35906
