; generated by PrusaSlicer 2.1.1+ on 2021-06-27 at 12:26:01 UTC

; 

; external perimeters extrusion width = 0.45mm
; perimeters extrusion width = 0.45mm
; infill extrusion width = 0.45mm
; solid infill extrusion width = 0.45mm
; top infill extrusion width = 0.40mm
; first layer extrusion width = 0.80mm

M107
M190 S60 ; set bed temperature and wait for it to be reached
M104 S200 ; set temperature
G28 ; home all axes
G1 Z5 F5000 ; lift nozzle
M109 S200 ; set temperature and wait for it to be reached
G21 ; set units to millimeters
G90 ; use absolute coordinates
M82 ; use absolute distances for extrusion
G92 E0
; Filament gcode
G1 Z0.400 F7800.000
G1 E-2.00000 F2400.00000
G92 E0
G1 X61.032 Y76.926 F7800.000
G1 E2.00000 F2400.00000
G1 F1800
G1 X62.101 Y76.128 E2.15851
G1 X63.253 Y75.450 E2.31716
G1 X64.149 Y75.027 E2.43488
G1 X65.433 Y74.566 E2.59694
G1 X66.448 Y74.308 E2.72132
G1 X67.753 Y74.106 E2.87811
G1 X68.974 Y74.043 E3.02332
G1 X131.006 Y74.043 E10.39059
G1 X132.783 Y74.172 E10.60216
G1 X134.278 Y74.483 E10.78353
G1 X135.782 Y74.998 E10.97233
G1 X137.154 Y75.670 E11.15372
G1 X138.468 Y76.531 E11.34029
G1 X139.661 Y77.548 E11.52652
G1 X140.723 Y78.713 E11.71369
G1 X141.651 Y80.041 E11.90619
G1 X142.338 Y81.343 E12.08107
G1 X142.924 Y82.900 E12.27857
G1 X143.336 Y84.780 E12.50713
G1 X143.455 Y86.330 E12.69184
G1 X143.369 Y87.979 E12.88787
G1 X143.088 Y89.510 E13.07275
G1 X142.618 Y90.993 E13.25746
G1 X141.941 Y92.455 E13.44886
G1 X140.726 Y94.283 E13.70956
G1 X139.262 Y95.822 E13.96176
G1 X108.083 Y122.979 E18.87248
G1 X106.867 Y123.893 E19.05310
G1 X105.517 Y124.668 E19.23800
G1 X104.121 Y125.255 E19.41789
G1 X102.552 Y125.692 E19.61136
G1 X101.169 Y125.901 E19.77739
G1 X99.737 Y125.954 E19.94758
G1 X98.266 Y125.834 E20.12286
G1 X97.162 Y125.628 E20.25632
G1 X95.844 Y125.242 E20.41941
G1 X94.469 Y124.661 E20.59671
G1 X93.165 Y123.914 E20.77522
G1 X92.047 Y123.086 E20.94037
G1 X60.329 Y95.443 E25.93728
G1 X58.957 Y93.867 E26.18545
G1 X58.049 Y92.436 E26.38675
G1 X57.338 Y90.873 E26.59068
G1 X56.774 Y88.885 E26.83601
G1 X56.622 Y87.884 E26.95634
G1 X56.543 Y86.496 E27.12135
G1 X56.617 Y85.154 E27.28109
G1 X56.778 Y84.093 E27.40846
G1 X57.116 Y82.767 E27.57102
G1 X57.590 Y81.506 E27.73099
G1 X58.058 Y80.548 E27.85759
G1 X58.725 Y79.459 E28.00930
G1 X59.376 Y78.591 E28.13811
G1 X60.286 Y77.598 E28.29810
G1 X60.987 Y76.966 E28.41018
G1 E26.41018 F2400.00000
G92 E0
G1 X103.403 Y113.039 F7800.000
G1 E2.00000 F2400.00000
G1 F1800
G1 X102.901 Y113.233 E2.06385
G1 X102.389 Y113.396 E2.12771
G1 X101.865 Y113.528 E2.19192
G1 X101.312 Y113.629 E2.25859
G1 X100.805 Y113.692 E2.31926
G1 X100.269 Y113.725 E2.38311
G1 X99.731 Y113.725 E2.44697
G1 X99.195 Y113.692 E2.51082
G1 X98.658 Y113.626 E2.57503
G1 X98.106 Y113.521 E2.64171
G1 X97.611 Y113.396 E2.70237
G1 X97.099 Y113.233 E2.76623
G1 X96.597 Y113.039 E2.83008
G1 X96.109 Y112.814 E2.89393
G1 X95.635 Y112.560 E2.95779
G1 X95.178 Y112.277 E3.02164
G1 X94.737 Y111.964 E3.08585
G1 X94.301 Y111.611 E3.15253
G1 X93.923 Y111.267 E3.21320
G1 X93.549 Y110.881 E3.27705
G1 X93.199 Y110.473 E3.34090
G1 X92.875 Y110.044 E3.40475
G1 X92.578 Y109.595 E3.46861
G1 X92.309 Y109.130 E3.53246
G1 X92.070 Y108.649 E3.59631
G1 X91.860 Y108.153 E3.66017
G1 X91.681 Y107.646 E3.72402
G1 X91.534 Y107.129 E3.78787
G1 X91.419 Y106.604 E3.85173
G1 X91.337 Y106.073 E3.91558
G1 X91.287 Y105.537 E3.97943
G1 X91.271 Y105.000 E4.04329
G1 X91.287 Y104.463 E4.10714
G1 X91.337 Y103.927 E4.17099
G1 X91.419 Y103.396 E4.23485
G1 X91.534 Y102.871 E4.29870
G1 X91.681 Y102.354 E4.36255
G1 X91.860 Y101.847 E4.42640
G1 X92.070 Y101.351 E4.49026
G1 X92.309 Y100.870 E4.55411
G1 X92.578 Y100.405 E4.61796
G1 X92.875 Y99.956 E4.68182
G1 X93.199 Y99.527 E4.74567
G1 X93.549 Y99.119 E4.80952
G1 X93.923 Y98.733 E4.87338
G1 X94.321 Y98.371 E4.93723
G1 X94.739 Y98.034 E5.00108
G1 X95.178 Y97.723 E5.06494
G1 X95.635 Y97.440 E5.12879
G1 X96.109 Y97.186 E5.19264
G1 X96.597 Y96.961 E5.25649
G1 X97.099 Y96.767 E5.32035
G1 X97.611 Y96.604 E5.38420
G1 X98.135 Y96.472 E5.44841
G1 X98.688 Y96.371 E5.51509
G1 X99.195 Y96.308 E5.57576
G1 X99.731 Y96.275 E5.63961
G1 X100.269 Y96.275 E5.70346
G1 X100.805 Y96.308 E5.76732
G1 X101.339 Y96.374 E5.83117
G1 X101.867 Y96.473 E5.89502
G1 X102.389 Y96.604 E5.95887
G1 X102.901 Y96.767 E6.02273
G1 X103.403 Y96.961 E6.08658
G1 X103.891 Y97.186 E6.15043
G1 X104.365 Y97.440 E6.21429
G1 X104.822 Y97.723 E6.27814
G1 X105.263 Y98.036 E6.34235
G1 X105.699 Y98.389 E6.40903
G1 X106.077 Y98.733 E6.46970
G1 X106.451 Y99.119 E6.53355
G1 X106.801 Y99.527 E6.59740
G1 X107.125 Y99.956 E6.66125
G1 X107.422 Y100.405 E6.72511
G1 X107.691 Y100.870 E6.78896
G1 X107.930 Y101.351 E6.85281
G1 X108.140 Y101.847 E6.91667
G1 X108.319 Y102.354 E6.98052
G1 X108.466 Y102.871 E7.04437
G1 X108.581 Y103.396 E7.10822
G1 X108.663 Y103.927 E7.17208
G1 X108.713 Y104.463 E7.23593
G1 X108.729 Y105.000 E7.29978
G1 X108.713 Y105.537 E7.36364
G1 X108.663 Y106.073 E7.42749
G1 X108.581 Y106.604 E7.49134
G1 X108.466 Y107.129 E7.55520
G1 X108.319 Y107.646 E7.61905
G1 X108.140 Y108.153 E7.68290
G1 X107.930 Y108.649 E7.74676
G1 X107.691 Y109.130 E7.81061
G1 X107.422 Y109.595 E7.87446
G1 X107.125 Y110.044 E7.93832
G1 X106.801 Y110.473 E8.00217
G1 X106.451 Y110.881 E8.06602
G1 X106.077 Y111.267 E8.12987
G1 X105.679 Y111.629 E8.19373
G1 X105.261 Y111.966 E8.25758
G1 X104.822 Y112.277 E8.32143
G1 X104.365 Y112.560 E8.38529
G1 X103.891 Y112.814 E8.44914
G1 X103.457 Y113.014 E8.50587
G1 X103.124 Y112.381 F7800.000
G1 F1800
G1 X102.664 Y112.559 E8.56449
G1 X102.193 Y112.709 E8.62312
G1 X101.713 Y112.830 E8.68197
G1 X101.204 Y112.923 E8.74342
G1 X100.740 Y112.981 E8.79900
G1 X100.247 Y113.011 E8.85762
G1 X99.753 Y113.011 E8.91625
G1 X99.260 Y112.981 E8.97488
G1 X98.769 Y112.920 E9.03372
G1 X98.260 Y112.823 E9.09517
G1 X97.807 Y112.709 E9.15075
G1 X97.336 Y112.559 E9.20938
G1 X96.876 Y112.381 E9.26801
G1 X96.427 Y112.175 E9.32663
G1 X95.993 Y111.941 E9.38526
G1 X95.573 Y111.681 E9.44389
G1 X95.168 Y111.395 E9.50273
G1 X94.766 Y111.069 E9.56418
G1 X94.421 Y110.754 E9.61976
G1 X94.077 Y110.400 E9.67839
G1 X93.756 Y110.025 E9.73701
G1 X93.458 Y109.631 E9.79564
G1 X93.186 Y109.219 E9.85427
G1 X92.939 Y108.792 E9.91289
G1 X92.719 Y108.350 E9.97152
G1 X92.526 Y107.895 E10.03015
G1 X92.362 Y107.430 E10.08878
G1 X92.227 Y106.955 E10.14740
G1 X92.122 Y106.473 E10.20603
G1 X92.046 Y105.985 E10.26466
G1 X92.000 Y105.493 E10.32328
G1 X91.985 Y105.000 E10.38191
G1 X92.000 Y104.507 E10.44054
G1 X92.046 Y104.015 E10.49916
G1 X92.122 Y103.527 E10.55779
G1 X92.227 Y103.045 E10.61642
G1 X92.362 Y102.570 E10.67504
G1 X92.526 Y102.105 E10.73367
G1 X92.719 Y101.650 E10.79230
G1 X92.939 Y101.208 E10.85092
G1 X93.186 Y100.781 E10.90955
G1 X93.458 Y100.369 E10.96818
G1 X93.756 Y99.975 E11.02680
G1 X94.077 Y99.600 E11.08543
G1 X94.421 Y99.246 E11.14406
G1 X94.785 Y98.913 E11.20268
G1 X95.170 Y98.604 E11.26131
G1 X95.573 Y98.319 E11.31994
G1 X95.993 Y98.059 E11.37856
G1 X96.427 Y97.825 E11.43719
G1 X96.876 Y97.619 E11.49582
G1 X97.336 Y97.441 E11.55444
G1 X97.807 Y97.291 E11.61307
G1 X98.287 Y97.170 E11.67191
G1 X98.796 Y97.077 E11.73337
G1 X99.260 Y97.019 E11.78895
G1 X99.753 Y96.989 E11.84757
G1 X100.247 Y96.989 E11.90620
G1 X100.740 Y97.019 E11.96483
G1 X101.229 Y97.080 E12.02345
G1 X101.715 Y97.171 E12.08208
G1 X102.193 Y97.291 E12.14071
G1 X102.664 Y97.441 E12.19933
G1 X103.124 Y97.619 E12.25796
G1 X103.573 Y97.825 E12.31659
G1 X104.007 Y98.059 E12.37521
G1 X104.427 Y98.319 E12.43384
G1 X104.832 Y98.605 E12.49268
G1 X105.234 Y98.931 E12.55414
G1 X105.579 Y99.246 E12.60972
G1 X105.923 Y99.600 E12.66834
G1 X106.244 Y99.975 E12.72697
G1 X106.542 Y100.369 E12.78560
G1 X106.814 Y100.781 E12.84422
G1 X107.061 Y101.208 E12.90285
G1 X107.281 Y101.650 E12.96148
G1 X107.474 Y102.105 E13.02010
G1 X107.638 Y102.570 E13.07873
G1 X107.773 Y103.045 E13.13736
G1 X107.878 Y103.527 E13.19598
G1 X107.954 Y104.015 E13.25461
G1 X108.000 Y104.507 E13.31324
G1 X108.015 Y105.000 E13.37186
G1 X108.000 Y105.493 E13.43049
G1 X107.954 Y105.985 E13.48912
G1 X107.878 Y106.473 E13.54774
G1 X107.773 Y106.955 E13.60637
G1 X107.638 Y107.430 E13.66500
G1 X107.474 Y107.895 E13.72362
G1 X107.281 Y108.350 E13.78225
G1 X107.061 Y108.792 E13.84088
G1 X106.814 Y109.219 E13.89950
G1 X106.542 Y109.631 E13.95813
G1 X106.244 Y110.025 E14.01676
G1 X105.923 Y110.400 E14.07538
G1 X105.579 Y110.754 E14.13401
G1 X105.215 Y111.087 E14.19264
G1 X104.830 Y111.396 E14.25126
G1 X104.427 Y111.681 E14.30989
G1 X104.007 Y111.941 E14.36852
G1 X103.573 Y112.175 E14.42714
G1 X103.179 Y112.356 E14.47864
G1 X102.846 Y111.723 F7800.000
G1 F1800
G1 X102.426 Y111.885 E14.53204
G1 X101.998 Y112.022 E14.58545
G1 X101.561 Y112.131 E14.63892
G1 X101.096 Y112.217 E14.69515
G1 X100.674 Y112.269 E14.74564
G1 X100.225 Y112.297 E14.79904
G1 X99.775 Y112.297 E14.85244
G1 X99.326 Y112.269 E14.90584
G1 X98.880 Y112.214 E14.95932
G1 X98.414 Y112.125 E15.01555
G1 X98.002 Y112.022 E15.06604
G1 X97.574 Y111.885 E15.11944
G1 X97.154 Y111.723 E15.17284
G1 X96.746 Y111.535 E15.22624
G1 X96.350 Y111.322 E15.27964
G1 X95.968 Y111.086 E15.33304
G1 X95.600 Y110.825 E15.38652
G1 X95.232 Y110.527 E15.44275
G1 X94.918 Y110.241 E15.49324
G1 X94.605 Y109.918 E15.54664
G1 X94.312 Y109.577 E15.60004
G1 X94.041 Y109.218 E15.65344
G1 X93.793 Y108.843 E15.70684
G1 X93.568 Y108.454 E15.76024
G1 X93.368 Y108.051 E15.81364
G1 X93.193 Y107.637 E15.86704
G1 X93.043 Y107.213 E15.92044
G1 X92.920 Y106.781 E15.97384
G1 X92.824 Y106.341 E16.02724
G1 X92.755 Y105.897 E16.08064
G1 X92.713 Y105.449 E16.13404
G1 X92.700 Y105.000 E16.18744
G1 X92.713 Y104.551 E16.24084
G1 X92.755 Y104.103 E16.29424
G1 X92.824 Y103.659 E16.34764
G1 X92.920 Y103.219 E16.40104
G1 X93.043 Y102.787 E16.45444
G1 X93.193 Y102.363 E16.50784
G1 X93.368 Y101.949 E16.56124
G1 X93.568 Y101.546 E16.61464
G1 X93.793 Y101.157 E16.66804
G1 X94.041 Y100.782 E16.72144
G1 X94.312 Y100.423 E16.77484
G1 X94.605 Y100.082 E16.82825
G1 X94.918 Y99.759 E16.88165
G1 X95.250 Y99.456 E16.93505
G1 X95.601 Y99.174 E16.98845
G1 X95.968 Y98.914 E17.04185
G1 X96.350 Y98.678 E17.09525
G1 X96.746 Y98.465 E17.14865
G1 X97.154 Y98.277 E17.20205
G1 X97.574 Y98.115 E17.25545
G1 X98.002 Y97.978 E17.30885
G1 X98.439 Y97.868 E17.36233
G1 X98.904 Y97.783 E17.41855
G1 X99.326 Y97.731 E17.46904
G1 X99.775 Y97.703 E17.52244
G1 X100.225 Y97.703 E17.57585
G1 X100.674 Y97.731 E17.62925
G1 X101.120 Y97.786 E17.68265
G1 X101.562 Y97.869 E17.73605
G1 X101.998 Y97.978 E17.78945
G1 X102.426 Y98.115 E17.84285
G1 X102.846 Y98.277 E17.89625
G1 X103.254 Y98.465 E17.94965
G1 X103.650 Y98.678 E18.00305
G1 X104.032 Y98.914 E18.05645
G1 X104.400 Y99.175 E18.10993
G1 X104.768 Y99.473 E18.16615
G1 X105.082 Y99.759 E18.21664
G1 X105.395 Y100.082 E18.27004
G1 X105.688 Y100.423 E18.32345
G1 X105.959 Y100.782 E18.37685
G1 X106.207 Y101.157 E18.43025
G1 X106.432 Y101.546 E18.48365
G1 X106.632 Y101.949 E18.53705
G1 X106.807 Y102.363 E18.59045
G1 X106.957 Y102.787 E18.64385
G1 X107.080 Y103.219 E18.69725
G1 X107.176 Y103.659 E18.75065
G1 X107.245 Y104.103 E18.80405
G1 X107.287 Y104.551 E18.85745
G1 X107.300 Y105.000 E18.91085
G1 X107.287 Y105.449 E18.96425
G1 X107.245 Y105.897 E19.01765
G1 X107.176 Y106.341 E19.07105
G1 X107.080 Y106.781 E19.12445
G1 X106.957 Y107.213 E19.17785
G1 X106.807 Y107.637 E19.23125
G1 X106.632 Y108.051 E19.28465
G1 X106.432 Y108.454 E19.33805
G1 X106.207 Y108.843 E19.39145
G1 X105.959 Y109.218 E19.44485
G1 X105.688 Y109.577 E19.49825
G1 X105.395 Y109.918 E19.55165
G1 X105.082 Y110.241 E19.60505
G1 X104.750 Y110.544 E19.65845
G1 X104.399 Y110.826 E19.71185
G1 X104.032 Y111.086 E19.76525
G1 X103.650 Y111.322 E19.81866
G1 X103.254 Y111.535 E19.87206
G1 X102.900 Y111.698 E19.91833
G1 X102.796 Y112.120 F7800.000
G1 E17.91833 F2400.00000
G92 E0
G1 X102.846 Y89.728 F7800.000
G1 E2.00000 F2400.00000
G1 F1800
G1 X69.850 Y89.728 E5.91876
G1 X69.326 Y89.662 E5.98150
G1 X68.692 Y89.438 E6.06132
G1 X68.200 Y89.133 E6.13000
G1 X67.793 Y88.762 E6.19545
G1 X67.461 Y88.322 E6.26090
G1 X67.215 Y87.829 E6.32635
G1 X67.065 Y87.299 E6.39180
G1 X67.014 Y86.750 E6.45725
G1 X67.065 Y86.199 E6.52296
G1 X67.226 Y85.637 E6.59242
G1 X67.545 Y85.045 E6.67225
G1 X67.921 Y84.606 E6.74092
G1 X68.350 Y84.261 E6.80637
G1 X68.836 Y84.000 E6.87182
G1 X69.375 Y83.829 E6.93895
G1 X69.901 Y83.771 E7.00187
G1 X130.148 Y83.772 E14.15710
G1 X130.639 Y83.833 E14.21582
G1 X131.164 Y84.000 E14.28128
G1 X131.651 Y84.262 E14.34698
G1 X132.106 Y84.629 E14.41644
G1 X132.527 Y85.154 E14.49627
G1 X132.785 Y85.671 E14.56495
G1 X132.935 Y86.201 E14.63040
G1 X132.986 Y86.750 E14.69585
G1 X132.935 Y87.301 E14.76155
G1 X132.774 Y87.863 E14.83101
G1 X132.455 Y88.455 E14.91084
G1 X132.079 Y88.894 E14.97952
G1 X131.650 Y89.239 E15.04497
G1 X131.164 Y89.500 E15.11042
G1 X130.639 Y89.667 E15.17587
G1 X130.148 Y89.728 E15.23459
G1 X102.906 Y89.728 E18.47006
G1 X102.846 Y89.014 F7800.000
G1 F1800
G1 X69.895 Y89.014 E22.38350
G1 X69.491 Y88.963 E22.43176
G1 X69.003 Y88.790 E22.49333
G1 X68.633 Y88.561 E22.54503
G1 X68.323 Y88.279 E22.59476
G1 X68.071 Y87.945 E22.64449
G1 X67.884 Y87.570 E22.69422
G1 X67.770 Y87.167 E22.74395
G1 X67.731 Y86.750 E22.79368
G1 X67.770 Y86.332 E22.84357
G1 X67.891 Y85.908 E22.89593
G1 X68.137 Y85.452 E22.95750
G1 X68.420 Y85.121 E23.00920
G1 X68.747 Y84.858 E23.05893
G1 X69.116 Y84.660 E23.10866
G1 X69.523 Y84.531 E23.15942
G1 X69.940 Y84.486 E23.20924
G1 X130.104 Y84.486 E30.35466
G1 X130.485 Y84.533 E30.40029
G1 X130.884 Y84.660 E30.45003
G1 X131.255 Y84.859 E30.49991
G1 X131.597 Y85.136 E30.55228
G1 X131.922 Y85.541 E30.61384
G1 X132.116 Y85.930 E30.66554
G1 X132.230 Y86.333 E30.71527
G1 X132.269 Y86.750 E30.76501
G1 X132.230 Y87.168 E30.81489
G1 X132.109 Y87.592 E30.86725
G1 X131.863 Y88.048 E30.92883
G1 X131.580 Y88.379 E30.98052
G1 X131.253 Y88.642 E31.03026
G1 X130.884 Y88.840 E31.07998
G1 X130.485 Y88.967 E31.12972
G1 X130.104 Y89.014 E31.17535
G1 X102.906 Y89.014 E34.40559
G1 X102.846 Y88.300 F7800.000
G1 F1800
G1 X69.939 Y88.300 E38.31369
G1 X69.657 Y88.264 E38.34749
G1 X69.313 Y88.142 E38.39080
G1 X69.065 Y87.988 E38.42552
G1 X68.853 Y87.795 E38.45953
G1 X68.681 Y87.567 E38.49354
G1 X68.553 Y87.311 E38.52755
G1 X68.475 Y87.035 E38.56157
G1 X68.448 Y86.750 E38.59558
G1 X68.475 Y86.464 E38.62965
G1 X68.557 Y86.179 E38.66491
G1 X68.729 Y85.858 E38.70823
G1 X68.920 Y85.636 E38.74295
G1 X69.143 Y85.456 E38.77696
G1 X69.395 Y85.321 E38.81097
G1 X69.671 Y85.233 E38.84535
G1 X69.978 Y85.200 E38.88208
G1 X130.060 Y85.200 E46.01769
G1 X130.332 Y85.234 E46.05023
G1 X130.605 Y85.321 E46.08424
G1 X130.858 Y85.457 E46.11831
G1 X131.089 Y85.643 E46.15358
G1 X131.317 Y85.928 E46.19689
G1 X131.447 Y86.189 E46.23161
G1 X131.525 Y86.465 E46.26562
G1 X131.552 Y86.750 E46.29963
G1 X131.525 Y87.036 E46.33370
G1 X131.443 Y87.321 E46.36897
G1 X131.271 Y87.642 E46.41228
G1 X131.080 Y87.864 E46.44700
G1 X130.857 Y88.044 E46.48101
G1 X130.605 Y88.179 E46.51502
G1 X130.332 Y88.266 E46.54903
G1 X130.060 Y88.300 E46.58157
G1 X102.906 Y88.300 E49.80658
G1 X102.646 Y88.646 F7800.000
G1 E47.80658 F2400.00000
G92 E0
G1 X102.846 Y82.229 F7800.000
G1 E2.00000 F2400.00000
G1 F1800
G1 X131.066 Y82.230 E5.35161
G1 X131.627 Y82.276 E5.41845
G1 X132.196 Y82.401 E5.48757
G1 X132.392 Y82.464 E5.51211
G1 X132.902 Y82.679 E5.57787
G1 X133.382 Y82.956 E5.64363
G1 X133.551 Y83.076 E5.66827
G1 X133.958 Y83.424 E5.73184
G1 X134.326 Y83.826 E5.79661
G1 X134.629 Y84.253 E5.85875
G1 X134.877 Y84.716 E5.92116
G1 X135.067 Y85.206 E5.98357
G1 X135.195 Y85.716 E6.04598
G1 X135.260 Y86.237 E6.10839
G1 X135.260 Y86.791 E6.17415
G1 X135.241 Y86.997 E6.19869
G1 X135.134 Y87.569 E6.26781
G1 X135.077 Y87.768 E6.29245
G1 X134.884 Y88.268 E6.35602
G1 X134.627 Y88.749 E6.42079
G1 X134.309 Y89.199 E6.48628
G1 X134.172 Y89.359 E6.51126
G1 X133.766 Y89.756 E6.57872
G1 X102.795 Y116.730 E11.45654
G1 X102.595 Y116.891 E11.48699
G1 X102.125 Y117.203 E11.55399
G1 X101.690 Y117.421 E11.61175
G1 X101.167 Y117.605 E11.67761
G1 X100.644 Y117.720 E11.74126
G1 X100.419 Y117.749 E11.76817
G1 X99.869 Y117.766 E11.83358
