; generated by PrusaSlicer 2.1.1+ on 2021-06-21 at 22:31:18 UTC

; 

; external perimeters extrusion width = 0.45mm
; perimeters extrusion width = 0.45mm
; infill extrusion width = 0.45mm
; solid infill extrusion width = 0.45mm
; top infill extrusion width = 0.40mm
; first layer extrusion width = 0.80mm

M107
M190 S60 ; set bed temperature and wait for it to be reached
M104 S200 ; set temperature
G28 ; home all axes
G1 Z5 F5000 ; lift nozzle
M109 S200 ; set temperature and wait for it to be reached
G21 ; set units to millimeters
G90 ; use absolute coordinates
M82 ; use absolute distances for extrusion
G92 E0
; Filament gcode
G1 Z0.400 F7800.000
G1 E-2.00000 F2400.00000
G92 E0
G1 X43.273 Y10.344 F7800.000
G1 E2.00000 F2400.00000
G1 F1800
G1 X43.756 Y9.018 E2.16759
G1 X44.520 Y7.831 E2.33517
G1 X45.531 Y6.838 E2.50349
G1 X46.393 Y6.270 E2.62616
G1 X47.330 Y5.850 E2.74810
G1 X48.329 Y5.586 E2.87077
G1 X49.357 Y5.487 E2.99344
G1 X137.937 Y5.486 E13.51368
G1 X139.138 Y5.602 E13.65699
G1 X140.290 Y5.940 E13.79955
G1 X141.363 Y6.492 E13.94286
G1 X142.308 Y7.233 E14.08542
G1 X143.096 Y8.138 E14.22799
G1 X143.703 Y9.180 E14.37129
G1 X144.103 Y10.319 E14.51460
G1 X144.279 Y11.506 E14.65716
G1 X144.284 Y75.067 E22.20599
G1 X144.086 Y76.433 E22.36990
G1 X143.595 Y77.730 E22.53455
G1 X142.839 Y78.884 E22.69845
G1 X141.851 Y79.848 E22.86236
G1 X140.989 Y80.417 E22.98503
G1 X140.052 Y80.836 E23.10697
G1 X139.053 Y81.100 E23.22964
G1 X138.025 Y81.200 E23.35231
G1 X49.382 Y81.200 E33.87995
G1 X47.976 Y81.027 E34.04827
G1 X46.637 Y80.543 E34.21733
G1 X45.439 Y79.774 E34.38639
G1 X44.446 Y78.763 E34.55471
G1 X43.881 Y77.906 E34.67664
G1 X43.462 Y76.975 E34.79783
G1 X43.197 Y75.984 E34.91977
G1 X43.095 Y74.968 E35.04096
G1 X43.095 Y11.750 E42.54912
G1 X43.266 Y10.403 E42.71032
G1 E40.71032 F2400.00000
G92 E0
G1 X93.691 Y45.257 F7800.000
G1 E2.00000 F2400.00000
G1 F1800
G1 X95.340 Y45.408 E2.19665
G1 X96.931 Y45.855 E2.39290
G1 X98.406 Y46.586 E2.58839
G1 X99.709 Y47.577 E2.78293
G1 X100.790 Y48.797 E2.97646
G1 X101.600 Y50.202 E3.16911
G1 X102.103 Y51.739 E3.36109
G1 X102.273 Y53.343 E3.55273
G1 X102.103 Y54.948 E3.74437
G1 X101.600 Y56.484 E3.93635
G1 X100.790 Y57.889 E4.12900
G1 X99.709 Y59.109 E4.32253
G1 X98.406 Y60.101 E4.51707
G1 X96.931 Y60.831 E4.71256
G1 X95.340 Y61.279 E4.90881
G1 X93.691 Y61.429 E5.10546
G1 X92.042 Y61.279 E5.30211
G1 X90.451 Y60.831 E5.49835
G1 X88.976 Y60.101 E5.69384
G1 X87.673 Y59.109 E5.88838
G1 X86.592 Y57.889 E6.08192
G1 X85.782 Y56.484 E6.27456
G1 X85.279 Y54.948 E6.46655
G1 X85.108 Y53.343 E6.65818
G1 X85.279 Y51.739 E6.84982
G1 X85.782 Y50.202 E7.04181
G1 X86.592 Y48.797 E7.23445
G1 X87.673 Y47.577 E7.42799
G1 X88.976 Y46.586 E7.62253
G1 X90.457 Y45.852 E7.81871
G1 X92.095 Y45.403 E8.02045
G1 X93.631 Y45.263 E8.20370
G1 X93.691 Y45.974 F7800.000
G1 F1800
G1 X95.210 Y46.113 E8.38483
G1 X96.673 Y46.524 E8.56538
G1 X98.028 Y47.195 E8.74487
G1 X99.221 Y48.103 E8.92298
G1 X100.207 Y49.217 E9.09961
G1 X100.944 Y50.495 E9.27487
G1 X101.401 Y51.889 E9.44910
G1 X101.555 Y53.343 E9.62276
G1 X101.401 Y54.797 E9.79643
G1 X100.944 Y56.191 E9.97065
G1 X100.207 Y57.470 E10.14592
G1 X99.221 Y58.583 E10.32254
G1 X98.028 Y59.491 E10.50066
G1 X96.673 Y60.162 E10.68015
G1 X95.210 Y60.573 E10.86070
G1 X93.691 Y60.712 E11.04183
G1 X92.172 Y60.573 E11.22295
G1 X90.709 Y60.162 E11.40351
G1 X89.354 Y59.491 E11.58300
G1 X88.161 Y58.583 E11.76111
G1 X87.175 Y57.470 E11.93774
G1 X86.438 Y56.191 E12.11300
G1 X85.981 Y54.797 E12.28723
G1 X85.827 Y53.343 E12.46089
G1 X85.981 Y51.889 E12.63456
G1 X86.438 Y50.495 E12.80878
G1 X87.175 Y49.217 E12.98404
G1 X88.161 Y48.103 E13.16067
G1 X89.354 Y47.195 E13.33878
G1 X90.712 Y46.523 E13.51870
G1 X92.223 Y46.108 E13.70475
G1 X93.631 Y45.980 E13.87274
G1 X93.691 Y46.692 F7800.000
G1 F1800
G1 X95.080 Y46.818 E14.03834
G1 X96.416 Y47.194 E14.20321
G1 X97.649 Y47.805 E14.36670
G1 X98.733 Y48.629 E14.52839
G1 X99.625 Y49.636 E14.68810
G1 X100.289 Y50.788 E14.84599
G1 X100.699 Y52.040 E15.00245
G1 X100.837 Y53.343 E15.15814
G1 X100.699 Y54.647 E15.31384
G1 X100.289 Y55.899 E15.47030
G1 X99.625 Y57.050 E15.62818
G1 X98.733 Y58.057 E15.78790
G1 X97.649 Y58.881 E15.94959
G1 X96.416 Y59.492 E16.11308
G1 X95.080 Y59.868 E16.27794
G1 X93.691 Y59.995 E16.44354
G1 X92.302 Y59.868 E16.60914
G1 X90.966 Y59.492 E16.77401
G1 X89.733 Y58.881 E16.93750
G1 X88.649 Y58.057 E17.09919
G1 X87.757 Y57.050 E17.25890
G1 X87.093 Y55.899 E17.41679
G1 X86.683 Y54.647 E17.57325
G1 X86.545 Y53.343 E17.72894
G1 X86.683 Y52.040 E17.88464
G1 X87.093 Y50.788 E18.04110
G1 X87.757 Y49.636 E18.19898
G1 X88.649 Y48.629 E18.35870
G1 X89.733 Y47.805 E18.52039
G1 X90.967 Y47.193 E18.68403
G1 X92.351 Y46.814 E18.85439
G1 X93.631 Y46.697 E19.00713
G1 X93.891 Y46.345 F7800.000
G1 E17.00713 F2400.00000
G92 E0
G1 X51.279 Y73.015 F7800.000
G1 E2.00000 F2400.00000
G1 F1800
G1 X51.279 Y13.671 E9.04792
G1 X136.103 Y13.671 E19.12198
G1 X136.103 Y73.015 E26.16991
G1 X51.339 Y73.015 E36.23684
G1 X50.565 Y73.729 F7800.000
G1 F1800
G1 X50.565 Y12.957 E43.45440
G1 X136.817 Y12.957 E53.69809
G1 X136.817 Y73.729 E60.91565
G1 X50.625 Y73.729 E71.15222
G1 X49.851 Y74.443 F7800.000
G1 F1800
G1 X49.851 Y12.243 E78.53941
G1 X137.531 Y12.243 E88.95274
G1 X137.531 Y74.443 E96.33993
G1 X49.911 Y74.443 E106.74614
G1 X49.976 Y74.063 F7800.000
G1 E104.74614 F2400.00000
G92 E0
G1 X51.494 Y71.357 F7800.000
G1 E2.00000 F2400.00000
G1 F1800
G1 X52.616 Y72.479 E2.18859
G1 X53.626 Y72.479 E2.30860
G1 X51.815 Y70.668 E2.61292
G1 X51.815 Y69.658 E2.73293
G1 X54.637 Y72.479 E3.20697
G1 X55.647 Y72.479 E3.32698
G1 X51.815 Y68.647 E3.97074
G1 X51.815 Y67.637 E4.09075
G1 X56.657 Y72.479 E4.90424
G1 X57.667 Y72.479 E5.02425
G1 X51.815 Y66.627 E6.00745
G1 X51.815 Y65.617 E6.12746
G1 X58.677 Y72.479 E7.28038
G1 X59.688 Y72.479 E7.40039
G1 X51.815 Y64.606 E8.72303
G1 X51.815 Y63.596 E8.84304
G1 X60.698 Y72.479 E10.33540
G1 X61.708 Y72.479 E10.45542
G1 X51.815 Y62.586 E12.11750
G1 X51.815 Y61.576 E12.23751
G1 X62.718 Y72.479 E14.06931
G1 X63.729 Y72.479 E14.18932
G1 X51.815 Y60.566 E16.19085
G1 X51.815 Y59.555 E16.31086
G1 X64.739 Y72.479 E18.48210
G1 X65.749 Y72.479 E18.60211
G1 X51.815 Y58.545 E20.94308
G1 X51.815 Y57.535 E21.06309
G1 X66.759 Y72.479 E23.57377
G1 X67.770 Y72.479 E23.69378
G1 X51.815 Y56.525 E26.37419
G1 X51.815 Y55.514 E26.49420
G1 X68.780 Y72.479 E29.34432
G1 X69.790 Y72.479 E29.46433
G1 X51.815 Y54.504 E32.48418
G1 X51.815 Y53.494 E32.60419
G1 X70.800 Y72.479 E35.79375
G1 X71.810 Y72.479 E35.91377
G1 X51.815 Y52.484 E39.27305
G1 X51.815 Y51.473 E39.39306
G1 X72.821 Y72.479 E42.92207
G1 X73.831 Y72.479 E43.04208
G1 X51.815 Y50.463 E46.74081
G1 X51.815 Y49.453 E46.86082
G1 X74.841 Y72.479 E50.72926
G1 X75.851 Y72.479 E50.84927
G1 X51.815 Y48.443 E54.88744
G1 X51.815 Y47.433 E55.00745
G1 X76.862 Y72.479 E59.21534
G1 X77.872 Y72.479 E59.33535
G1 X51.815 Y46.422 E63.71296
G1 X51.815 Y45.412 E63.83297
G1 X78.882 Y72.479 E68.38030
G1 X79.892 Y72.479 E68.50031
G1 X51.815 Y44.402 E73.21736
G1 X51.815 Y43.392 E73.33737
G1 X80.902 Y72.479 E78.22414
G1 X81.913 Y72.479 E78.34415
G1 X51.815 Y42.381 E83.40064
G1 X51.815 Y41.371 E83.52065
G1 X82.923 Y72.479 E88.74686
G1 X83.933 Y72.479 E88.86687
G1 X51.815 Y40.361 E94.26280
G1 X51.815 Y39.351 E94.38281
G1 X84.943 Y72.479 E99.94846
G1 X85.954 Y72.479 E100.06847
G1 X51.815 Y38.340 E105.80385
G1 X51.815 Y37.330 E105.92386
G1 X86.964 Y72.479 E111.82895
G1 X87.974 Y72.479 E111.94896
G1 X51.815 Y36.320 E118.02377
G1 X51.815 Y35.310 E118.14378
G1 X88.984 Y72.479 E124.38831
G1 X89.995 Y72.479 E124.50832
G1 X51.815 Y34.300 E130.92258
G1 X51.815 Y33.289 E131.04259
G1 X91.005 Y72.479 E137.62656
G1 X92.015 Y72.479 E137.74657
G1 X51.815 Y32.279 E144.50027
G1 X51.815 Y31.269 E144.62028
G1 X93.025 Y72.479 E151.54369
G1 X94.035 Y72.479 E151.66370
G1 X51.815 Y30.259 E158.75683
G1 X51.815 Y29.248 E158.87685
G1 X95.046 Y72.479 E166.13970
G1 X96.056 Y72.479 E166.25971
G1 X51.815 Y28.238 E173.69229
G1 X51.815 Y27.228 E173.81230
G1 X97.066 Y72.479 E181.41459
G1 X98.076 Y72.479 E181.53460
G1 X51.815 Y26.218 E189.30662
G1 X51.815 Y25.208 E189.42663
G1 X99.408 Y72.801 E197.42236
G1 E195.42236 F2400.00000
G92 E0
G1 X65.749 Y13.886 F7800.000
G1 E2.00000 F2400.00000
G1 F1800
G1 X97.307 Y45.443 E7.30176
G1 X97.124 Y45.353 E7.32602
G1 X95.847 Y44.994 E7.48358
G1 X65.060 Y14.207 E12.65582
G1 X64.050 Y14.207 E12.77583
G1 X94.650 Y44.807 E17.91666
G1 X93.691 Y44.719 E18.03101
G1 X93.563 Y44.731 E18.04622
G1 X63.040 Y14.207 E23.17430
G1 X62.029 Y14.207 E23.29431
G1 X92.638 Y44.816 E28.43659
G1 X91.999 Y44.874 E28.51282
G1 X91.753 Y44.941 E28.54306
G1 X61.019 Y14.207 E33.70645
G1 X60.009 Y14.207 E33.82646
G1 X90.960 Y45.159 E39.02639
G1 X90.265 Y45.350 E39.11206
G1 X90.182 Y45.391 E39.12305
G1 X58.999 Y14.207 E44.36194
G1 X57.988 Y14.207 E44.48195
G1 X89.507 Y45.725 E49.77706
G1 X88.831 Y46.060 E49.86662
G1 X56.978 Y14.207 E55.21795
G1 X55.968 Y14.207 E55.33796
G1 X88.236 Y46.476 E60.75912
G1 X87.663 Y46.912 E60.84476
G1 X54.958 Y14.207 E66.33923
G1 X53.947 Y14.207 E66.45924
G1 X87.126 Y47.386 E72.03337
G1 X86.652 Y47.922 E72.11839
G1 X52.937 Y14.207 E77.78253
G1 X51.927 Y14.207 E77.90254
G1 X86.178 Y48.458 E83.65669
G1 X85.803 Y49.093 E83.74434
G1 X51.815 Y15.105 E89.45442
G1 X51.815 Y16.115 E89.57443
G1 X85.434 Y49.734 E95.22243
G1 X85.290 Y49.983 E95.25655
G1 X85.138 Y50.448 E95.31475
G1 X51.815 Y17.126 E100.91304
G1 X51.815 Y18.136 E101.03305
G1 X84.889 Y51.210 E106.58949
G1 X84.752 Y51.626 E106.64151
G1 X84.708 Y52.040 E106.69095
G1 X51.815 Y19.146 E112.21712
G1 X51.815 Y20.156 E112.33713
G1 X84.611 Y52.953 E117.84699
G1 X84.570 Y53.343 E117.89362
G1 X84.639 Y53.990 E117.97094
G1 X51.815 Y21.167 E123.48538
G1 X51.815 Y22.177 E123.60539
G1 X84.779 Y55.140 E129.14334
G1 X85.270 Y56.642 E129.33106
G1 X51.815 Y23.187 E134.95159
G1 X51.815 Y24.197 E135.07160
G1 X100.097 Y72.479 E143.18306
G1 X101.107 Y72.479 E143.30307
G1 X89.670 Y61.042 E145.22456
G1 X90.258 Y61.333 E145.30259
G1 X91.250 Y61.612 E145.42502
G1 X102.117 Y72.479 E147.25067
G1 X103.128 Y72.479 E147.37068
G1 X92.507 Y61.859 E149.15492
G1 X93.619 Y61.960 E149.28753
G1 X104.138 Y72.479 E151.05473
G1 X105.148 Y72.479 E151.17474
G1 X94.557 Y61.888 E152.95411
G1 X95.476 Y61.797 E153.06383
G1 X106.158 Y72.479 E154.85851
G1 X107.168 Y72.479 E154.97852
G1 X96.264 Y61.575 E156.81044
G1 X97.053 Y61.353 E156.90774
G1 X108.179 Y72.479 E158.77691
G1 X109.189 Y72.479 E158.89692
G1 X97.739 Y61.029 E160.82060
G1 X98.414 Y60.694 E160.91016
G1 X110.199 Y72.479 E162.89007
G1 X111.209 Y72.479 E163.01008
G1 X99.029 Y60.299 E165.05634
G1 X99.603 Y59.863 E165.14199
G1 X112.220 Y72.479 E167.26157
G1 X113.230 Y72.479 E167.38158
G1 X100.159 Y59.409 E169.57744
G1 X100.634 Y58.873 E169.66245
G1 X114.240 Y72.479 E171.94832
G1 X115.250 Y72.479 E172.06833
G1 X101.108 Y58.337 E174.44421
G1 X101.227 Y58.204 E174.46541
G1 X101.504 Y57.723 E174.53137
G1 X116.261 Y72.479 E177.01049
G1 X117.271 Y72.479 E177.13050
G1 X101.874 Y57.082 E179.71726
G1 X102.092 Y56.703 E179.76918
G1 X102.194 Y56.392 E179.80810
G1 X118.281 Y72.479 E182.51078
G1 X119.291 Y72.479 E182.63079
G1 X102.443 Y55.631 E185.46134
G1 X102.630 Y55.061 E185.53263
G1 X102.654 Y54.832 E185.55997
G1 X120.301 Y72.479 E188.52479
G1 X121.312 Y72.479 E188.64480
G1 X102.751 Y53.919 E191.76303
G1 X102.812 Y53.343 E191.83177
G1 X102.768 Y52.925 E191.88172
G1 X122.322 Y72.479 E195.16687
G1 X123.332 Y72.479 E195.28688
G1 X102.648 Y51.795 E198.76193
G1 X102.630 Y51.626 E198.78210
G1 X102.211 Y50.348 E198.94177
G1 X124.342 Y72.479 E202.65980
G1 X125.353 Y72.479 E202.77981
G1 X67.080 Y14.207 E212.56964
G1 X68.091 Y14.207 E212.68965
G1 X126.363 Y72.479 E222.47947
G1 X127.373 Y72.479 E222.59948
G1 X69.101 Y14.207 E232.38931
G1 X70.111 Y14.207 E232.50932
G1 X128.383 Y72.479 E242.29915
G1 X129.394 Y72.479 E242.41916
G1 X71.121 Y14.207 E252.20898
G1 X72.132 Y14.207 E252.32899
G1 X130.404 Y72.479 E262.11882
G1 X131.414 Y72.479 E262.23883
G1 X73.142 Y14.207 E272.02866
G1 X74.152 Y14.207 E272.14867
G1 X132.424 Y72.479 E281.93849
G1 X133.434 Y72.479 E282.05850
G1 X75.162 Y14.207 E291.84833
G1 X76.173 Y14.207 E291.96834
G1 X134.445 Y72.479 E301.75816
G1 X135.455 Y72.479 E301.87817
G1 X77.183 Y14.207 E311.66800
G1 X78.193 Y14.207 E311.78801
G1 X135.567 Y71.581 E321.42696
G1 X135.567 Y70.571 E321.54697
G1 X79.203 Y14.207 E331.01621
G1 X80.213 Y14.207 E331.13622
G1 X135.567 Y69.561 E340.43573
G1 X135.567 Y68.551 E340.55574
G1 X81.224 Y14.207 E349.68553
G1 X82.234 Y14.207 E349.80554
G1 X135.567 Y67.540 E358.76561
G1 X135.567 Y66.530 E358.88562
G1 X83.244 Y14.207 E367.67597
G1 X84.254 Y14.207 E367.79598
G1 X135.567 Y65.520 E376.41661
G1 X135.567 Y64.510 E376.53662
G1 X85.265 Y14.207 E384.98753
G1 X86.275 Y14.207 E385.10755
G1 X135.567 Y63.499 E393.38874
G1 X135.567 Y62.489 E393.50875
G1 X87.285 Y14.207 E401.62021
G1 X88.295 Y14.207 E401.74023
G1 X135.567 Y61.479 E409.68197
G1 X135.567 Y60.469 E409.80198
G1 X89.305 Y14.207 E417.57401
G1 X90.316 Y14.207 E417.69402
G1 X135.567 Y59.458 E425.29633
G1 X135.567 Y58.448 E425.41634
G1 X91.326 Y14.207 E432.84893
G1 X92.336 Y14.207 E432.96894
G1 X135.567 Y57.438 E440.23181
G1 X135.567 Y56.428 E440.35182
G1 X93.346 Y14.207 E447.44497
G1 X94.357 Y14.207 E447.56498
G1 X135.567 Y55.418 E454.48840
G1 X135.567 Y54.407 E454.60841
G1 X95.367 Y14.207 E461.36212
G1 X96.377 Y14.207 E461.48213
G1 X135.567 Y53.397 E468.06612
G1 X135.567 Y52.387 E468.18613
G1 X97.387 Y14.207 E474.60039
G1 X98.398 Y14.207 E474.72040
G1 X135.567 Y51.377 E480.96495
G1 X135.567 Y50.366 E481.08496
G1 X99.408 Y14.207 E487.15978
G1 X100.418 Y14.207 E487.27980
G1 X135.567 Y49.356 E493.18490
G1 X135.567 Y48.346 E493.30491
G1 X101.428 Y14.207 E499.04030
G1 X102.438 Y14.207 E499.16031
G1 X135.567 Y47.336 E504.72597
G1 X135.567 Y46.325 E504.84598
G1 X103.449 Y14.207 E510.24192
G1 X104.459 Y14.207 E510.36193
G1 X135.567 Y45.315 E515.58816
G1 X135.567 Y44.305 E515.70817
G1 X105.469 Y14.207 E520.76467
G1 X106.479 Y14.207 E520.88468
G1 X135.567 Y43.295 E525.77146
G1 X135.567 Y42.285 E525.89147
G1 X107.490 Y14.207 E530.60854
G1 X108.500 Y14.207 E530.72855
G1 X135.567 Y41.274 E535.27589
G1 X135.567 Y40.264 E535.39590
G1 X109.510 Y14.207 E539.77352
G1 X110.520 Y14.207 E539.89353
G1 X135.567 Y39.254 E544.10143
G1 X135.567 Y38.244 E544.22144
G1 X111.531 Y14.207 E548.25962
G1 X112.541 Y14.207 E548.37963
G1 X135.567 Y37.233 E552.24809
G1 X135.567 Y36.223 E552.36811
G1 X113.551 Y14.207 E556.06685
G1 X114.561 Y14.207 E556.18686
G1 X135.567 Y35.213 E559.71588
G1 X135.567 Y34.203 E559.83589
G1 X115.571 Y14.207 E563.19519
G1 X116.582 Y14.207 E563.31520
G1 X135.567 Y33.192 E566.50477
G1 X135.567 Y32.182 E566.62479
G1 X117.592 Y14.207 E569.64464
G1 X118.602 Y14.207 E569.76465
G1 X135.567 Y31.172 E572.61479
G1 X135.567 Y30.162 E572.73480
G1 X119.612 Y14.207 E575.41522
G1 X120.623 Y14.207 E575.53523
G1 X135.567 Y29.152 E578.04593
G1 X135.567 Y28.141 E578.16594
G1 X121.633 Y14.207 E580.50692
G1 X122.643 Y14.207 E580.62693
G1 X135.567 Y27.131 E582.79818
G1 X135.567 Y26.121 E582.91819
G1 X123.653 Y14.207 E584.91973
G1 X124.664 Y14.207 E585.03974
G1 X135.567 Y25.111 E586.87156
G1 X135.567 Y24.100 E586.99157
G1 X125.674 Y14.207 E588.65366
G1 X126.684 Y14.207 E588.77367
G1 X135.567 Y23.090 E590.26605
G1 X135.567 Y22.080 E590.38606
G1 X127.694 Y14.207 E591.70872
G1 X128.704 Y14.207 E591.82873
G1 X135.567 Y21.070 E592.98166
G1 X135.567 Y20.059 E593.10167
G1 X129.715 Y14.207 E594.08489
G1 X130.725 Y14.207 E594.20490
G1 X135.567 Y19.049 E595.01839
G1 X135.567 Y18.039 E595.13840
G1 X131.735 Y14.207 E595.78217
G1 X132.745 Y14.207 E595.90218
G1 X135.567 Y17.029 E596.37624
G1 X135.567 Y16.019 E596.49625
G1 X133.756 Y14.207 E596.80058
G1 X134.766 Y14.207 E596.92059
G1 X135.888 Y15.330 E597.10919
G1 Z0.550 F7800.000
M140 S55 ; set bed temperature
G1 E595.10919 F2400.00000
G92 E0
G1 X86.487 Y56.169 F7800.000
G1 E2.00000 F2400.00000
G1 F3600
G1 X86.034 Y54.786 E2.03793
G1 X85.880 Y53.343 E2.07574
G1 X86.034 Y51.900 E2.11354
G1 X86.487 Y50.517 E2.15147
G1 X87.218 Y49.248 E2.18964
G1 X88.197 Y48.143 E2.22811
