; generated by PrusaSlicer 2.3.0+win64 on 2021-06-19 at 18:18:10 UTC


;
;

;
;
; 

; external perimeters extrusion width = 0.40mm
; perimeters extrusion width = 0.40mm
; infill extrusion width = 0.45mm
; solid infill extrusion width = 0.45mm
; top infill extrusion width = 0.40mm
; support material extrusion width = 0.30mm
; first layer extrusion width = 0.42mm

M73 P0 R64
M201 X1250 Y1250 Z400 E5000 ; sets maximum accelerations, mm/sec^2
M203 X180 Y180 Z12 E80 ; sets maximum feedrates, mm/sec
M204 P1250 R1250 T1250 ; sets acceleration (P, T) and retract acceleration (R), mm/sec^2
M205 X8.00 Y8.00 Z2.00 E10.00 ; sets the jerk limits, mm/sec
M205 S0 T0 ; sets the minimum extruding and travel feed rate, mm/sec
M107
;TYPE:Custom
G90 ; use absolute coordinates
M83 ; extruder relative mode
M104 S170 ; set extruder temp for bed leveling
M140 S60 ; set bed temp
M109 R170 ; wait for bed leveling temp
M190 S60 ; wait for bed temp
G28 ; home all without mesh bed level
G29 ; mesh bed leveling 
M104 S215 ; set extruder temp
G92 E0.0
G1 Y-2.0 X179 F2400
G1 Z3 F720
M109 S215 ; wait for extruder temp

; intro line
G1 X170 F1000
G1 Z0.2 F720
G1 X110.0 E8.0 F900
G1 X40.0 E10.0 F700
G92 E0.0

M221 S95 ; set flow
G21 ; set units to millimeters
G90 ; use absolute coordinates
M83 ; use relative distances for extrusion
M900 K0.2 ; Filament gcode LA 1.5
; ; Filament gcode LA 1.0
;LAYER_CHANGE
;Z:0.2
;HEIGHT:0.2
;BEFORE_LAYER_CHANGE
G92 E0.0
;0.2


G1 Z0.200 F9000.000
;AFTER_LAYER_CHANGE
;0.2
G1 E-3.20000 F4200.000
G1 Z0.400 F9000.000
G1 X82.878 Y57.928
G1 Z0.200
G1 E3.20000 F2400.000
M204 S800
;TYPE:Skirt
;WIDTH:0.42
G1 F1200.000
G1 X83.313 Y57.325 E0.02331
G1 X83.913 Y56.886 E0.02331
G1 X84.616 Y56.654 E0.02319
G1 X95.004 Y56.623 E0.32571
G1 X95.892 Y56.797 E0.02837
G1 X96.653 Y57.292 E0.02849
G1 X97.172 Y58.034 E0.02837
G1 X97.376 Y58.915 E0.02837
G1 X97.349 Y121.364 E1.95805
G1 X97.120 Y122.075 E0.02343
G1 X96.681 Y122.680 E0.02343
G1 X96.076 Y123.119 E0.02343
G1 X95.365 Y123.349 E0.02343
G1 X84.636 Y123.349 E0.33642
G1 X83.860 Y123.086 E0.02567
G1 X83.220 Y122.576 E0.02567
G1 X82.790 Y121.875 E0.02579
G1 X82.624 Y121.073 E0.02567
G1 X82.651 Y58.636 E1.95769
G1 X82.860 Y57.985 E0.02143
M204 S1250
; printing object alohomoraBoxDandaUpdated2.stl id:0 copy 0
G1 E-2.24000 F4200.000
;WIPE_START
G1 F7200.000
G1 X83.313 Y57.325 E-0.44377
G1 X83.913 Y56.886 E-0.41202
G1 X84.010 Y56.854 E-0.05621
;WIPE_END
G1 E-0.04800 F4200.000
G1 Z0.400 F9000.000
G1 X86.164 Y60.164
G1 Z0.200
G1 E3.20000 F2400.000
M204 S800
;TYPE:Perimeter
G1 F1200.000
G1 X93.836 Y60.164 E0.24054
G1 X93.836 Y119.836 E1.87096
G1 X86.164 Y119.836 E0.24054
G1 X86.164 Y60.224 E1.86908
M204 S1250
G1 X85.787 Y59.787 F9000.000
M204 S800
G1 F1200.000
G1 X94.213 Y59.787 E0.26419
G1 X94.213 Y120.213 E1.89461
G1 X85.787 Y120.213 E0.26419
G1 X85.787 Y59.847 E1.89273
M204 S1250
G1 X85.410 Y59.410 F9000.000
M204 S800
;TYPE:External perimeter
G1 F1200.000
G1 X94.590 Y59.410 E0.28783
M73 P1 R64
G1 X94.590 Y120.590 E1.91826
G1 X85.410 Y120.590 E0.28783
G1 X85.410 Y59.470 E1.91637
M204 S1250
G1 X85.766 Y59.593 F9000.000
G1 E-2.24000 F4200.000
;WIPE_START
G1 F7200.000
G1 X87.056 Y59.459 E-0.91200
;WIPE_END
G1 E-0.04800 F4200.000
G1 Z0.400 F9000.000
G1 X92.957 Y60.277
G1 Z0.200
G1 E3.20000 F2400.000
M204 S800
;TYPE:Solid infill
;WIDTH:0.421738
G1 F1200.000
G1 X93.553 Y60.874 E0.02656
G1 X93.553 Y61.409 E0.01687
G1 X92.591 Y60.447 E0.04287
G1 X92.055 Y60.447 E0.01687
G1 X93.553 Y61.945 E0.06673
G1 X93.553 Y62.481 E0.01687
G1 X91.519 Y60.447 E0.09060
G1 X90.984 Y60.447 E0.01687
G1 X93.553 Y63.016 E0.11446
G1 X93.553 Y63.552 E0.01687
G1 X90.448 Y60.447 E0.13833
G1 X89.912 Y60.447 E0.01687
G1 X93.553 Y64.088 E0.16219
G1 X93.553 Y64.624 E0.01687
G1 X89.376 Y60.447 E0.18606
G1 X88.841 Y60.447 E0.01687
G1 X93.553 Y65.159 E0.20992
G1 X93.553 Y65.695 E0.01687
G1 X88.305 Y60.447 E0.23378
M73 P1 R63
G1 X87.769 Y60.447 E0.01687
G1 X93.553 Y66.231 E0.25765
G1 X93.553 Y66.767 E0.01687
G1 X87.233 Y60.447 E0.28151
G1 X86.698 Y60.447 E0.01687
G1 X93.553 Y67.302 E0.30538
G1 X93.553 Y67.838 E0.01687
G1 X86.447 Y60.732 E0.31655
G1 X86.447 Y61.268 E0.01687
G1 X93.553 Y68.374 E0.31655
G1 X93.553 Y68.909 E0.01687
G1 X86.447 Y61.803 E0.31655
G1 X86.447 Y62.339 E0.01687
G1 X93.553 Y69.445 E0.31655
G1 X93.553 Y69.981 E0.01687
G1 X86.447 Y62.875 E0.31655
G1 X86.447 Y63.411 E0.01687
G1 X93.553 Y70.517 E0.31655
G1 X93.553 Y71.052 E0.01687
G1 X86.447 Y63.946 E0.31655
G1 X86.447 Y64.482 E0.01687
G1 X93.553 Y71.588 E0.31655
G1 X93.553 Y72.124 E0.01687
G1 X86.447 Y65.018 E0.31655
G1 X86.447 Y65.554 E0.01687
G1 X93.553 Y72.660 E0.31655
G1 X93.553 Y73.195 E0.01687
G1 X86.447 Y66.089 E0.31655
G1 X86.447 Y66.625 E0.01687
G1 X93.553 Y73.731 E0.31655
G1 X93.553 Y74.267 E0.01687
G1 X86.447 Y67.161 E0.31655
G1 X86.447 Y67.696 E0.01687
G1 X93.553 Y74.803 E0.31655
G1 X93.553 Y75.338 E0.01687
G1 X86.447 Y68.232 E0.31655
G1 X86.447 Y68.768 E0.01687
G1 X93.553 Y75.874 E0.31655
G1 X93.553 Y76.410 E0.01687
G1 X86.447 Y69.304 E0.31655
G1 X86.447 Y69.839 E0.01687
G1 X93.553 Y76.945 E0.31655
G1 X93.553 Y77.481 E0.01687
G1 X86.447 Y70.375 E0.31655
G1 X86.447 Y70.911 E0.01687
G1 X93.553 Y78.017 E0.31655
G1 X93.553 Y78.553 E0.01687
G1 X86.447 Y71.447 E0.31655
G1 X86.447 Y71.982 E0.01687
G1 X93.553 Y79.088 E0.31655
G1 X93.553 Y79.624 E0.01687
G1 X86.447 Y72.518 E0.31655
G1 X86.447 Y73.054 E0.01687
G1 X93.553 Y80.160 E0.31655
G1 X93.553 Y80.696 E0.01687
G1 X86.447 Y73.589 E0.31655
G1 X86.447 Y74.125 E0.01687
G1 X93.553 Y81.231 E0.31655
G1 X93.553 Y81.767 E0.01687
G1 X86.447 Y74.661 E0.31655
G1 X86.447 Y75.197 E0.01687
G1 X93.553 Y82.303 E0.31655
G1 X93.553 Y82.838 E0.01687
G1 X86.447 Y75.732 E0.31655
G1 X86.447 Y76.268 E0.01687
G1 X93.553 Y83.374 E0.31655
G1 X93.553 Y83.910 E0.01687
G1 X86.447 Y76.804 E0.31655
G1 X86.447 Y77.340 E0.01687
G1 X93.553 Y84.446 E0.31655
G1 X93.553 Y84.981 E0.01687
G1 X86.447 Y77.875 E0.31655
G1 X86.447 Y78.411 E0.01687
G1 X93.553 Y85.517 E0.31655
G1 X93.553 Y86.053 E0.01687
G1 X86.447 Y78.947 E0.31655
G1 X86.447 Y79.482 E0.01687
G1 X93.553 Y86.589 E0.31655
G1 X93.553 Y87.124 E0.01687
G1 X86.447 Y80.018 E0.31655
G1 X86.447 Y80.554 E0.01687
G1 X93.553 Y87.660 E0.31655
G1 X93.553 Y88.196 E0.01687
G1 X86.447 Y81.090 E0.31655
G1 X86.447 Y81.625 E0.01687
G1 X93.553 Y88.731 E0.31655
G1 X93.553 Y89.267 E0.01687
G1 X86.447 Y82.161 E0.31655
G1 X86.447 Y82.697 E0.01687
G1 X93.553 Y89.803 E0.31655
G1 X93.553 Y90.339 E0.01687
G1 X86.447 Y83.233 E0.31655
G1 X86.447 Y83.768 E0.01687
G1 X93.553 Y90.874 E0.31655
G1 X93.553 Y91.410 E0.01687
G1 X86.447 Y84.304 E0.31655
G1 X86.447 Y84.840 E0.01687
G1 X93.553 Y91.946 E0.31655
G1 X93.553 Y92.482 E0.01687
G1 X86.447 Y85.375 E0.31655
G1 X86.447 Y85.911 E0.01687
G1 X93.553 Y93.017 E0.31655
G1 X93.553 Y93.553 E0.01687
G1 X86.447 Y86.447 E0.31655
G1 X86.447 Y86.983 E0.01687
G1 X93.553 Y94.089 E0.31655
G1 X93.553 Y94.625 E0.01687
G1 X86.447 Y87.518 E0.31655
M73 P2 R63
G1 X86.447 Y88.054 E0.01687
G1 X93.553 Y95.160 E0.31655
G1 X93.553 Y95.696 E0.01687
G1 X86.447 Y88.590 E0.31655
G1 X86.447 Y89.126 E0.01687
G1 X93.553 Y96.232 E0.31655
G1 X93.553 Y96.767 E0.01687
G1 X86.447 Y89.661 E0.31655
G1 X86.447 Y90.197 E0.01687
G1 X93.553 Y97.303 E0.31655
G1 X93.553 Y97.839 E0.01687
G1 X86.447 Y90.733 E0.31655
G1 X86.447 Y91.269 E0.01687
G1 X93.553 Y98.375 E0.31655
G1 X93.553 Y98.910 E0.01687
G1 X86.447 Y91.804 E0.31655
G1 X86.447 Y92.340 E0.01687
G1 X93.553 Y99.446 E0.31655
G1 X93.553 Y99.982 E0.01687
G1 X86.447 Y92.876 E0.31655
G1 X86.447 Y93.411 E0.01687
G1 X93.553 Y100.518 E0.31655
G1 X93.553 Y101.053 E0.01687
G1 X86.447 Y93.947 E0.31655
G1 X86.447 Y94.483 E0.01687
G1 X93.553 Y101.589 E0.31655
G1 X93.553 Y102.125 E0.01687
G1 X86.447 Y95.019 E0.31655
G1 X86.447 Y95.554 E0.01687
G1 X93.553 Y102.660 E0.31655
G1 X93.553 Y103.196 E0.01687
G1 X86.447 Y96.090 E0.31655
G1 X86.447 Y96.626 E0.01687
G1 X93.553 Y103.732 E0.31655
G1 X93.553 Y104.268 E0.01687
G1 X86.447 Y97.162 E0.31655
G1 X86.447 Y97.697 E0.01687
G1 X93.553 Y104.803 E0.31655
G1 X93.553 Y105.339 E0.01687
G1 X86.447 Y98.233 E0.31655
G1 X86.447 Y98.769 E0.01687
G1 X93.553 Y105.875 E0.31655
G1 X93.553 Y106.411 E0.01687
G1 X86.447 Y99.304 E0.31655
G1 X86.447 Y99.840 E0.01687
G1 X93.553 Y106.946 E0.31655
G1 X93.553 Y107.482 E0.01687
G1 X86.447 Y100.376 E0.31655
G1 X86.447 Y100.912 E0.01687
G1 X93.553 Y108.018 E0.31655
G1 X93.553 Y108.553 E0.01687
G1 X86.447 Y101.447 E0.31655
G1 X86.447 Y101.983 E0.01687
G1 X93.553 Y109.089 E0.31655
G1 X93.553 Y109.625 E0.01687
G1 X86.447 Y102.519 E0.31655
G1 X86.447 Y103.055 E0.01687
G1 X93.553 Y110.161 E0.31655
G1 X93.553 Y110.696 E0.01687
G1 X86.447 Y103.590 E0.31655
G1 X86.447 Y104.126 E0.01687
G1 X93.553 Y111.232 E0.31655
G1 X93.553 Y111.768 E0.01687
G1 X86.447 Y104.662 E0.31655
G1 X86.447 Y105.197 E0.01687
G1 X93.553 Y112.304 E0.31655
G1 X93.553 Y112.839 E0.01687
G1 X86.447 Y105.733 E0.31655
G1 X86.447 Y106.269 E0.01687
G1 X93.553 Y113.375 E0.31655
G1 X93.553 Y113.911 E0.01687
G1 X86.447 Y106.805 E0.31655
G1 X86.447 Y107.340 E0.01687
G1 X93.553 Y114.446 E0.31655
G1 X93.553 Y114.982 E0.01687
G1 X86.447 Y107.876 E0.31655
G1 X86.447 Y108.412 E0.01687
G1 X93.553 Y115.518 E0.31655
G1 X93.553 Y116.054 E0.01687
G1 X86.447 Y108.948 E0.31655
G1 X86.447 Y109.483 E0.01687
G1 X93.553 Y116.589 E0.31655
G1 X93.553 Y117.125 E0.01687
G1 X86.447 Y110.019 E0.31655
G1 X86.447 Y110.555 E0.01687
G1 X93.553 Y117.661 E0.31655
G1 X93.553 Y118.197 E0.01687
G1 X86.447 Y111.091 E0.31655
G1 X86.447 Y111.626 E0.01687
G1 X93.553 Y118.732 E0.31655
G1 X93.553 Y119.268 E0.01687
G1 X86.447 Y112.162 E0.31655
G1 X86.447 Y112.698 E0.01687
G1 X93.302 Y119.553 E0.30538
G1 X92.767 Y119.553 E0.01687
G1 X86.447 Y113.233 E0.28151
G1 X86.447 Y113.769 E0.01687
G1 X92.231 Y119.553 E0.25765
G1 X91.695 Y119.553 E0.01687
G1 X86.447 Y114.305 E0.23378
G1 X86.447 Y114.841 E0.01687
G1 X91.159 Y119.553 E0.20992
G1 X90.624 Y119.553 E0.01687
G1 X86.447 Y115.376 E0.18606
G1 X86.447 Y115.912 E0.01687
G1 X90.088 Y119.553 E0.16219
G1 X89.552 Y119.553 E0.01687
G1 X86.447 Y116.448 E0.13833
G1 X86.447 Y116.984 E0.01687
G1 X89.016 Y119.553 E0.11446
G1 X88.481 Y119.553 E0.01687
G1 X86.447 Y117.519 E0.09060
G1 X86.447 Y118.055 E0.01687
G1 X87.945 Y119.553 E0.06673
G1 X87.409 Y119.553 E0.01687
G1 X86.447 Y118.591 E0.04287
G1 X86.447 Y119.126 E0.01687
G1 X87.043 Y119.723 E0.02656
M204 S1250
; stop printing object alohomoraBoxDandaUpdated2.stl id:0 copy 0
M106 S84.15
;LAYER_CHANGE
;Z:0.25
;HEIGHT:0.05
;BEFORE_LAYER_CHANGE
G92 E0.0
;0.25


G1 Z0.250 F9000.000
;AFTER_LAYER_CHANGE
;0.25
G1 E-3.20000 F4200.000
G1 Z0.450 F9000.000
G1 X83.860 Y123.086
G1 Z0.250
G1 E3.20000 F2400.000
;TYPE:Skirt
;WIDTH:0.42
G1 X83.220 Y122.576 E0.00696
G1 X82.790 Y121.875 E0.00700
G1 X82.624 Y121.073 E0.00696
G1 X82.651 Y58.636 E0.53120
M73 P2 R62
G1 X82.878 Y57.928 E0.00633
G1 X83.313 Y57.325 E0.00633
G1 X83.913 Y56.886 E0.00633
G1 X84.616 Y56.654 E0.00629
G1 X95.004 Y56.623 E0.08838
G1 X95.892 Y56.797 E0.00770
G1 X96.653 Y57.292 E0.00773
G1 X97.172 Y58.034 E0.00770
G1 X97.376 Y58.915 E0.00770
G1 X97.349 Y121.364 E0.53130
G1 X97.120 Y122.075 E0.00636
G1 X96.681 Y122.680 E0.00636
G1 X96.076 Y123.119 E0.00636
G1 X95.365 Y123.349 E0.00636
G1 X84.636 Y123.349 E0.09128
G1 X83.917 Y123.105 E0.00645
; printing object alohomoraBoxDandaUpdated2.stl id:0 copy 0
G1 E-2.24000 F4200.000
;WIPE_START
G1 F7200.000
G1 X83.220 Y122.576 E-0.48507
G1 X82.817 Y121.919 E-0.42693
;WIPE_END
G1 E-0.04800 F4200.000
G1 Z0.450 F9000.000
G1 X85.979 Y120.021
G1 Z0.250
G1 E3.20000 F2400.000
M204 S300
;TYPE:Perimeter
;WIDTH:0.4
G1 F1800.000
G1 X85.979 Y59.979 E0.48587
G1 X94.021 Y59.979 E0.06508
G1 X94.021 Y120.021 E0.48587
G1 X86.039 Y120.021 E0.06460
M204 S1250
M73 P3 R62
G1 X85.589 Y120.411 F9000.000
M204 S300
G1 F1800.000
G1 X85.589 Y59.589 E0.49217
G1 X94.411 Y59.589 E0.07138
G1 X94.411 Y120.411 E0.49217
G1 X85.649 Y120.411 E0.07090
M204 S1250
G1 X85.200 Y120.800 F9000.000
M204 S300
;TYPE:External perimeter
G1 F1200.000
G1 X85.200 Y59.200 E0.49847
G1 X94.800 Y59.200 E0.07768
G1 X94.800 Y120.800 E0.49847
G1 X85.260 Y120.800 E0.07720
M204 S1250
G1 X85.221 Y120.401 F9000.000
G1 E-2.24000 F4200.000
;WIPE_START
G1 F7200.000
G1 X85.258 Y119.154 E-0.91200
;WIPE_END
G1 E-0.04800 F4200.000
G1 Z0.450 F9000.000
G1 X86.980 Y60.092
G1 Z0.250
G1 E3.20000 F2400.000
M204 S1000
;TYPE:Solid infill
;WIDTH:0.450054
G1 F1800.000
G1 X86.289 Y60.782 E0.00892
G1 X86.289 Y61.403 E0.00567
G1 X87.403 Y60.289 E0.01439
G1 X88.025 Y60.289 E0.00567
G1 X86.289 Y62.025 E0.02241
G1 X86.289 Y62.646 E0.00567
G1 X88.646 Y60.289 E0.03044
G1 X89.267 Y60.289 E0.00567
G1 X86.289 Y63.267 E0.03846
G1 X86.289 Y63.888 E0.00567
G1 X89.888 Y60.289 E0.04648
G1 X90.510 Y60.289 E0.00567
G1 X86.289 Y64.510 E0.05451
G1 X86.289 Y65.131 E0.00567
G1 X91.131 Y60.289 E0.06253
G1 X91.752 Y60.289 E0.00567
G1 X86.289 Y65.752 E0.07056
G1 X86.289 Y66.374 E0.00567
G1 X92.374 Y60.289 E0.07858
G1 X92.995 Y60.289 E0.00567
G1 X86.289 Y66.995 E0.08661
G1 X86.289 Y67.616 E0.00567
G1 X93.616 Y60.289 E0.09463
G1 X93.711 Y60.289 E0.00086
G1 X93.711 Y60.816 E0.00481
G1 X86.289 Y68.238 E0.09585
G1 X86.289 Y68.859 E0.00567
G1 X93.711 Y61.437 E0.09585
G1 X93.711 Y62.059 E0.00567
G1 X86.289 Y69.480 E0.09585
G1 X86.289 Y70.101 E0.00567
G1 X93.711 Y62.680 E0.09585
G1 X93.711 Y63.301 E0.00567
G1 X86.289 Y70.723 E0.09585
G1 X86.289 Y71.344 E0.00567
G1 X93.711 Y63.923 E0.09585
G1 X93.711 Y64.544 E0.00567
G1 X86.289 Y71.965 E0.09585
G1 X86.289 Y72.587 E0.00567
G1 X93.711 Y65.165 E0.09585
G1 X93.711 Y65.786 E0.00567
G1 X86.289 Y73.208 E0.09585
G1 X86.289 Y73.829 E0.00567
G1 X93.711 Y66.408 E0.09585
G1 X93.711 Y67.029 E0.00567
G1 X86.289 Y74.451 E0.09585
G1 X86.289 Y75.072 E0.00567
G1 X93.711 Y67.650 E0.09585
G1 X93.711 Y68.272 E0.00567
G1 X86.289 Y75.693 E0.09585
G1 X86.289 Y76.314 E0.00567
G1 X93.711 Y68.893 E0.09585
G1 X93.711 Y69.514 E0.00567
G1 X86.289 Y76.936 E0.09585
G1 X86.289 Y77.557 E0.00567
G1 X93.711 Y70.135 E0.09585
G1 X93.711 Y70.757 E0.00567
G1 X86.289 Y78.178 E0.09585
G1 X86.289 Y78.800 E0.00567
G1 X93.711 Y71.378 E0.09585
G1 X93.711 Y71.999 E0.00567
G1 X86.289 Y79.421 E0.09585
G1 X86.289 Y80.042 E0.00567
G1 X93.711 Y72.621 E0.09585
G1 X93.711 Y73.242 E0.00567
G1 X86.289 Y80.663 E0.09585
G1 X86.289 Y81.285 E0.00567
G1 X93.711 Y73.863 E0.09585
G1 X93.711 Y74.485 E0.00567
G1 X86.289 Y81.906 E0.09585
G1 X86.289 Y82.527 E0.00567
G1 X93.711 Y75.106 E0.09585
G1 X93.711 Y75.727 E0.00567
G1 X86.289 Y83.149 E0.09585
G1 X86.289 Y83.770 E0.00567
G1 X93.711 Y76.348 E0.09585
G1 X93.711 Y76.970 E0.00567
G1 X86.289 Y84.391 E0.09585
G1 X86.289 Y85.013 E0.00567
G1 X93.711 Y77.591 E0.09585
G1 X93.711 Y78.212 E0.00567
G1 X86.289 Y85.634 E0.09585
G1 X86.289 Y86.255 E0.00567
G1 X93.711 Y78.834 E0.09585
G1 X93.711 Y79.455 E0.00567
G1 X86.289 Y86.876 E0.09585
G1 X86.289 Y87.498 E0.00567
G1 X93.711 Y80.076 E0.09585
G1 X93.711 Y80.698 E0.00567
G1 X86.289 Y88.119 E0.09585
G1 X86.289 Y88.740 E0.00567
G1 X93.711 Y81.319 E0.09585
G1 X93.711 Y81.940 E0.00567
G1 X86.289 Y89.362 E0.09585
G1 X86.289 Y89.983 E0.00567
G1 X93.711 Y82.561 E0.09585
G1 X93.711 Y83.183 E0.00567
G1 X86.289 Y90.604 E0.09585
G1 X86.289 Y91.226 E0.00567
G1 X93.711 Y83.804 E0.09585
G1 X93.711 Y84.425 E0.00567
G1 X86.289 Y91.847 E0.09585
G1 X86.289 Y92.468 E0.00567
G1 X93.711 Y85.047 E0.09585
G1 X93.711 Y85.668 E0.00567
G1 X86.289 Y93.089 E0.09585
G1 X86.289 Y93.711 E0.00567
G1 X93.711 Y86.289 E0.09585
G1 X93.711 Y86.911 E0.00567
G1 X86.289 Y94.332 E0.09585
G1 X86.289 Y94.953 E0.00567
G1 X93.711 Y87.532 E0.09585
G1 X93.711 Y88.153 E0.00567
G1 X86.289 Y95.575 E0.09585
G1 X86.289 Y96.196 E0.00567
G1 X93.711 Y88.774 E0.09585
G1 X93.711 Y89.396 E0.00567
G1 X86.289 Y96.817 E0.09585
G1 X86.289 Y97.439 E0.00567
G1 X93.711 Y90.017 E0.09585
G1 X93.711 Y90.638 E0.00567
G1 X86.289 Y98.060 E0.09585
G1 X86.289 Y98.681 E0.00567
G1 X93.711 Y91.260 E0.09585
G1 X93.711 Y91.881 E0.00567
G1 X86.289 Y99.302 E0.09585
G1 X86.289 Y99.924 E0.00567
G1 X93.711 Y92.502 E0.09585
G1 X93.711 Y93.124 E0.00567
G1 X86.289 Y100.545 E0.09585
G1 X86.289 Y101.166 E0.00567
