; generated by PrusaSlicer 2.1.1+ on 2021-06-05 at 22:25:14 UTC

; 

; external perimeters extrusion width = 0.45mm
; perimeters extrusion width = 0.45mm
; infill extrusion width = 0.45mm
; solid infill extrusion width = 0.45mm
; top infill extrusion width = 0.40mm
; support material extrusion width = 0.40mm
; first layer extrusion width = 0.80mm

M107
M190 S60 ; set bed temperature and wait for it to be reached
M104 S200 ; set temperature
G28 ; home all axes
G1 Z5 F5000 ; lift nozzle
M109 S200 ; set temperature and wait for it to be reached
G21 ; set units to millimeters
G90 ; use absolute coordinates
M82 ; use absolute distances for extrusion
G92 E0
; Filament gcode
G1 Z0.400 F7800.000
G1 E-2.00000 F2400.00000
G92 E0
G1 X54.897 Y63.645 F7800.000
G1 E2.00000 F2400.00000
G1 F1800
G1 X55.785 Y63.016 E2.12930
G1 X56.762 Y62.550 E2.25787
G1 X57.804 Y62.256 E2.38644
G1 X58.887 Y62.144 E2.51574
G1 X141.006 Y62.143 E12.26861
G1 X142.201 Y62.257 E12.41118
G1 X143.353 Y62.595 E12.55375
G1 X144.421 Y63.142 E12.69631
G1 X145.372 Y63.885 E12.83962
G1 X146.165 Y64.794 E12.98292
G1 X146.770 Y65.832 E13.12549
G1 X147.169 Y66.964 E13.26805
G1 X147.347 Y68.151 E13.41062
G1 X147.354 Y131.706 E20.95871
G1 X147.173 Y133.018 E21.11600
G1 X146.722 Y134.269 E21.27402
G1 X146.024 Y135.395 E21.43131
G1 X145.103 Y136.355 E21.58934
G1 X144.215 Y136.984 E21.71864
G1 X143.238 Y137.450 E21.84721
G1 X142.196 Y137.744 E21.97578
G1 X141.113 Y137.856 E22.10508
G1 X58.950 Y137.857 E31.86313
G1 X57.592 Y137.699 E32.02557
G1 X56.298 Y137.254 E32.18801
G1 X55.130 Y136.543 E32.35045
G1 X54.145 Y135.603 E32.51215
G1 X53.522 Y134.726 E32.63998
G1 X53.054 Y133.749 E32.76855
G1 X52.760 Y132.714 E32.89638
G1 X52.645 Y131.644 E33.02421
G1 X52.643 Y68.431 E40.53163
G1 X52.804 Y67.079 E40.69334
G1 X53.248 Y65.793 E40.85504
G1 X53.957 Y64.630 E41.01674
G1 X54.855 Y63.688 E41.17132
G1 E39.17132 F2400.00000
G92 E0
G1 X104.493 Y116.724 F7800.000
G1 E2.00000 F2400.00000
G1 F1800
G1 X103.095 Y117.472 E2.18829
G1 X101.578 Y117.932 E2.37657
G1 X100.000 Y118.087 E2.56486
G1 X98.422 Y117.932 E2.75314
G1 X96.905 Y117.472 E2.94143
G1 X95.507 Y116.724 E3.12971
G1 X94.282 Y115.718 E3.31800
G1 X93.276 Y114.493 E3.50629
G1 X92.528 Y113.095 E3.69457
G1 X92.068 Y111.578 E3.88286
G1 X91.913 Y110.000 E4.07114
G1 X92.068 Y108.422 E4.25943
G1 X92.528 Y106.905 E4.44771
G1 X93.276 Y105.507 E4.63600
G1 X94.282 Y104.282 E4.82429
G1 X95.507 Y103.276 E5.01257
G1 X96.911 Y102.526 E5.20159
G1 X98.472 Y102.063 E5.39497
G1 X100.000 Y101.913 E5.57733
G1 X101.578 Y102.068 E5.76562
G1 X103.095 Y102.528 E5.95390
G1 X104.493 Y103.276 E6.14219
G1 X105.718 Y104.282 E6.33048
G1 X106.724 Y105.507 E6.51876
G1 X107.472 Y106.905 E6.70705
G1 X107.932 Y108.422 E6.89533
G1 X108.087 Y110.000 E7.08362
G1 X107.932 Y111.578 E7.27191
G1 X107.472 Y113.095 E7.46019
G1 X106.724 Y114.493 E7.64848
G1 X105.718 Y115.718 E7.83676
G1 X104.539 Y116.686 E8.01792
G1 X104.094 Y116.128 F7800.000
G1 F1800
G1 X102.820 Y116.809 E8.18950
G1 X101.438 Y117.228 E8.36108
G1 X100.000 Y117.370 E8.53266
G1 X98.562 Y117.228 E8.70423
G1 X97.180 Y116.809 E8.87581
G1 X95.906 Y116.128 E9.04739
G1 X94.789 Y115.211 E9.21897
G1 X93.872 Y114.094 E9.39055
G1 X93.191 Y112.820 E9.56213
G1 X92.772 Y111.438 E9.73370
G1 X92.630 Y110.000 E9.90528
G1 X92.772 Y108.562 E10.07686
G1 X93.191 Y107.180 E10.24844
G1 X93.872 Y105.906 E10.42002
G1 X94.789 Y104.789 E10.59160
G1 X95.906 Y103.872 E10.76317
G1 X97.183 Y103.190 E10.93520
G1 X98.609 Y102.767 E11.11187
G1 X100.000 Y102.630 E11.27781
G1 X101.438 Y102.772 E11.44939
G1 X102.820 Y103.191 E11.62097
G1 X104.094 Y103.872 E11.79255
G1 X105.211 Y104.789 E11.96413
G1 X106.128 Y105.906 E12.13570
G1 X106.809 Y107.180 E12.30728
G1 X107.228 Y108.562 E12.47886
G1 X107.370 Y110.000 E12.65044
G1 X107.228 Y111.438 E12.82202
G1 X106.809 Y112.820 E12.99359
G1 X106.128 Y114.094 E13.16517
G1 X105.211 Y115.211 E13.33675
G1 X104.141 Y116.089 E13.50120
G1 X103.696 Y115.531 F7800.000
G1 F1800
G1 X102.546 Y116.146 E13.65607
G1 X101.298 Y116.524 E13.81094
G1 X100.000 Y116.652 E13.96582
G1 X98.702 Y116.524 E14.12069
G1 X97.454 Y116.146 E14.27556
G1 X96.304 Y115.531 E14.43043
G1 X95.296 Y114.704 E14.58530
G1 X94.469 Y113.696 E14.74017
G1 X93.854 Y112.546 E14.89504
G1 X93.476 Y111.298 E15.04991
G1 X93.348 Y110.000 E15.20478
G1 X93.476 Y108.702 E15.35965
G1 X93.854 Y107.454 E15.51452
G1 X94.469 Y106.304 E15.66939
G1 X95.296 Y105.296 E15.82426
G1 X96.304 Y104.469 E15.97913
G1 X97.456 Y103.854 E16.13417
G1 X98.747 Y103.471 E16.29412
G1 X100.000 Y103.348 E16.44365
G1 X101.298 Y103.476 E16.59852
G1 X102.546 Y103.854 E16.75339
G1 X103.696 Y104.469 E16.90826
G1 X104.704 Y105.296 E17.06313
G1 X105.531 Y106.304 E17.21800
G1 X106.146 Y107.454 E17.37287
G1 X106.524 Y108.702 E17.52774
G1 X106.652 Y110.000 E17.68262
G1 X106.524 Y111.298 E17.83749
G1 X106.146 Y112.546 E17.99236
G1 X105.531 Y113.696 E18.14723
G1 X104.704 Y114.704 E18.30210
G1 X103.742 Y115.493 E18.44984
G1 X103.722 Y115.930 F7800.000
G1 E16.44984 F2400.00000
G92 E0
G1 X139.172 Y129.672 F7800.000
G1 E2.00000 F2400.00000
G1 F1800
G1 X60.828 Y129.672 E11.30446
G1 X60.828 Y70.328 E18.35239
G1 X139.172 Y70.328 E27.65685
G1 X139.172 Y129.612 E34.69765
G1 X139.886 Y130.386 F7800.000
G1 F1800
G1 X60.114 Y130.386 E44.17175
G1 X60.114 Y69.614 E51.38931
G1 X139.886 Y69.614 E60.86341
G1 X139.886 Y130.326 E68.07384
G1 X140.600 Y131.100 F7800.000
G1 F1800
G1 X59.400 Y131.100 E77.71758
G1 X59.400 Y68.900 E85.10477
G1 X140.600 Y68.900 E94.74850
G1 X140.600 Y131.040 E102.12857
G1 X140.209 Y131.014 F7800.000
G1 E100.12857 F2400.00000
G92 E0
G1 X130.472 Y129.457 F7800.000
G1 E2.00000 F2400.00000
G1 F1800
G1 X108.080 Y107.065 E5.77825
G1 X108.460 Y108.317 E5.93435
G1 X108.475 Y108.475 E5.95328
G1 X129.136 Y129.136 E9.43940
G1 X128.121 Y129.136 E9.56046
G1 X108.586 Y109.601 E12.85668
G1 X108.625 Y110.000 E12.90455
G1 X108.567 Y110.596 E12.97600
G1 X127.107 Y129.136 E16.10429
G1 X126.092 Y129.136 E16.22534
G1 X108.476 Y111.520 E19.19779
G1 X108.460 Y111.683 E19.21735
G1 X108.265 Y112.324 E19.29726
G1 X125.078 Y129.136 E22.13403
G1 X124.063 Y129.136 E22.25509
G1 X108.029 Y113.102 E24.96050
G1 X107.969 Y113.301 E24.98527
G1 X107.706 Y113.793 E25.05189
G1 X123.048 Y129.136 E27.64070
G1 X122.034 Y129.136 E27.76175
G1 X107.352 Y114.454 E30.23899
G1 X107.172 Y114.792 E30.28465
G1 X106.948 Y115.065 E30.32676
G1 X121.019 Y129.136 E32.70102
G1 X120.005 Y129.136 E32.82207
G1 X106.491 Y115.622 E35.10230
G1 X106.099 Y116.099 E35.17592
G1 X106.019 Y116.165 E35.18831
G1 X118.990 Y129.136 E37.37694
G1 X117.975 Y129.136 E37.49800
G1 X105.461 Y116.622 E39.60946
G1 X104.904 Y117.080 E39.69547
G1 X116.961 Y129.136 E41.72977
G1 X115.946 Y129.136 E41.85082
G1 X104.264 Y117.454 E43.82196
G1 X103.603 Y117.807 E43.91141
G1 X114.931 Y129.136 E45.82291
G1 X113.917 Y129.136 E45.94396
G1 X102.878 Y118.097 E47.80658
G1 X102.099 Y118.333 E47.90364
G1 X112.902 Y129.136 E49.72641
G1 X111.888 Y129.136 E49.84746
G1 X101.253 Y118.502 E51.64178
G1 X100.330 Y118.593 E51.75251
G1 X110.873 Y129.136 E53.53147
G1 X109.858 Y129.136 E53.65253
G1 X99.276 Y118.554 E55.43803
G1 X98.317 Y118.460 E55.55302
G1 X98.102 Y118.394 E55.57986
G1 X108.844 Y129.136 E57.39232
G1 X107.829 Y129.136 E57.51338
G1 X96.619 Y117.926 E59.40487
G1 E57.40487 F2400.00000
G92 E0
G1 X92.074 Y113.381 F7800.000
G1 E2.00000 F2400.00000
G1 F1800
G1 X61.364 Y82.671 E7.18175
G1 X61.364 Y81.656 E7.30280
G1 X91.606 Y111.898 E12.40551
G1 X91.540 Y111.683 E12.43235
G1 X91.446 Y110.724 E12.54734
G1 X61.364 Y80.642 E17.62309
G1 X61.364 Y79.627 E17.74415
G1 X91.407 Y109.670 E22.81336
G1 X91.498 Y108.747 E22.92409
G1 X61.364 Y78.612 E28.00865
G1 X61.364 Y77.598 E28.12971
G1 X91.667 Y107.901 E33.24273
G1 X91.903 Y107.122 E33.33979
G1 X61.364 Y76.583 E38.49266
G1 X61.364 Y75.569 E38.61371
G1 X92.193 Y106.397 E43.81546
G1 X92.546 Y105.736 E43.90491
G1 X61.364 Y74.554 E49.16629
G1 X61.364 Y73.539 E49.28734
G1 X92.920 Y105.096 E54.61189
G1 X93.378 Y104.539 E54.69790
G1 X61.364 Y72.525 E60.09961
G1 X61.364 Y71.510 E60.22067
G1 X93.835 Y103.981 E65.69955
G1 X93.901 Y103.901 E65.71194
G1 X94.378 Y103.509 E65.78556
G1 X61.732 Y70.864 E71.29387
G1 X62.747 Y70.864 E71.41492
G1 X94.935 Y103.052 E76.84607
G1 X95.208 Y102.828 E76.88817
G1 X95.546 Y102.648 E76.93383
G1 X63.762 Y70.864 E82.29676
G1 X64.776 Y70.864 E82.41782
G1 X96.207 Y102.294 E87.72111
G1 X96.706 Y102.027 E87.78869
G1 X96.898 Y101.971 E87.81251
G1 X65.791 Y70.864 E93.06119
G1 X66.805 Y70.864 E93.18224
G1 X97.681 Y101.739 E98.39182
G1 X98.369 Y101.535 E98.47745
G1 X98.480 Y101.524 E98.49084
G1 X67.820 Y70.864 E103.66419
G1 X68.835 Y70.864 E103.78525
G1 X99.404 Y101.433 E108.94325
G1 X100.000 Y101.375 E109.01469
G1 X100.399 Y101.414 E109.06256
G1 X69.849 Y70.864 E114.21730
G1 X70.864 Y70.864 E114.33835
G1 X101.525 Y101.525 E119.51179
G1 X101.683 Y101.540 E119.53072
G1 X102.935 Y101.920 E119.68682
G1 X71.878 Y70.864 E124.92696
G1 X72.893 Y70.864 E125.04802
G1 X131.165 Y129.136 E134.88032
G1 X132.180 Y129.136 E135.00137
G1 X73.908 Y70.864 E144.83368
G1 X74.922 Y70.864 E144.95473
G1 X133.194 Y129.136 E154.78703
G1 X134.209 Y129.136 E154.90809
G1 X75.937 Y70.864 E164.74039
G1 X76.952 Y70.864 E164.86144
G1 X135.224 Y129.136 E174.69374
G1 X136.238 Y129.136 E174.81480
G1 X77.966 Y70.864 E184.64710
G1 X78.981 Y70.864 E184.76815
G1 X137.253 Y129.136 E194.60045
G1 X138.268 Y129.136 E194.72151
G1 X79.995 Y70.864 E204.55381
G1 X81.010 Y70.864 E204.67486
G1 X138.636 Y128.490 E214.39815
G1 X138.636 Y127.475 E214.51921
G1 X82.025 Y70.864 E224.07130
G1 X83.039 Y70.864 E224.19236
G1 X138.636 Y126.461 E233.57326
G1 X138.636 Y125.446 E233.69431
G1 X84.054 Y70.864 E242.90401
G1 X85.068 Y70.864 E243.02507
G1 X138.636 Y124.432 E252.06357
G1 X138.636 Y123.417 E252.18463
G1 X86.083 Y70.864 E261.05193
G1 X87.098 Y70.864 E261.17299
G1 X138.636 Y122.402 E269.86910
G1 X138.636 Y121.388 E269.99016
G1 X88.112 Y70.864 E278.51507
G1 X89.127 Y70.864 E278.63613
G1 X138.636 Y120.373 E286.98985
G1 X138.636 Y119.359 E287.11090
G1 X90.141 Y70.864 E295.29343
G1 X91.156 Y70.864 E295.41448
G1 X138.636 Y118.344 E303.42581
G1 X138.636 Y117.329 E303.54687
G1 X92.171 Y70.864 E311.38700
G1 X93.185 Y70.864 E311.50805
G1 X138.636 Y116.315 E319.17699
G1 X138.636 Y115.300 E319.29804
G1 X94.200 Y70.864 E326.79578
G1 X95.215 Y70.864 E326.91684
G1 X138.636 Y114.285 E334.24338
G1 X138.636 Y113.271 E334.36444
G1 X96.229 Y70.864 E341.51978
G1 X97.244 Y70.864 E341.64084
G1 X138.636 Y112.256 E348.62499
G1 X138.636 Y111.242 E348.74604
G1 X98.258 Y70.864 E355.55900
G1 X99.273 Y70.864 E355.68005
G1 X138.636 Y110.227 E362.32181
G1 X138.636 Y109.212 E362.44287
G1 X100.288 Y70.864 E368.91343
G1 X101.302 Y70.864 E369.03448
G1 X138.636 Y108.198 E375.33385
G1 X138.636 Y107.183 E375.45491
G1 X102.317 Y70.864 E381.58308
G1 X103.331 Y70.864 E381.70413
G1 X138.636 Y106.169 E387.66111
G1 X138.636 Y105.154 E387.78216
G1 X104.346 Y70.864 E393.56794
G1 X105.361 Y70.864 E393.68899
G1 X138.636 Y104.139 E399.30358
G1 X138.636 Y103.125 E399.42463
G1 X106.375 Y70.864 E404.86802
G1 X107.390 Y70.864 E404.98907
G1 X138.636 Y102.110 E410.26126
G1 X138.636 Y101.095 E410.38232
G1 X108.405 Y70.864 E415.48331
G1 X109.419 Y70.864 E415.60436
G1 X138.636 Y100.081 E420.53416
G1 X138.636 Y99.066 E420.65522
G1 X110.434 Y70.864 E425.41382
G1 X111.448 Y70.864 E425.53487
G1 X138.636 Y98.052 E430.12228
G1 X138.636 Y97.037 E430.24333
G1 X112.463 Y70.864 E434.65954
G1 X113.478 Y70.864 E434.78060
G1 X138.636 Y96.022 E439.02561
G1 X138.636 Y95.008 E439.14666
G1 X114.492 Y70.864 E443.22048
G1 X115.507 Y70.864 E443.34154
G1 X138.636 Y93.993 E447.24416
G1 X138.636 Y92.979 E447.36521
G1 X116.521 Y70.864 E451.09664
G1 X117.536 Y70.864 E451.21769
G1 X138.636 Y91.964 E454.77792
G1 X138.636 Y90.949 E454.89897
G1 X118.551 Y70.864 E458.28801
G1 X119.565 Y70.864 E458.40906
G1 X138.636 Y89.935 E461.62690
G1 X138.636 Y88.920 E461.74795
G1 X120.580 Y70.864 E464.79459
G1 X121.594 Y70.864 E464.91564
G1 X138.636 Y87.906 E467.79109
G1 X138.636 Y86.891 E467.91214
G1 X122.609 Y70.864 E470.61639
G1 X123.624 Y70.864 E470.73745
G1 X138.636 Y85.876 E473.27050
G1 X138.636 Y84.862 E473.39155
G1 X124.638 Y70.864 E475.75341
G1 X125.653 Y70.864 E475.87446
G1 X138.636 Y83.847 E478.06512
G1 X138.636 Y82.832 E478.18617
G1 X126.668 Y70.864 E480.20564
G1 X127.682 Y70.864 E480.32669
G1 X138.636 Y81.818 E482.17496
G1 X138.636 Y80.803 E482.29601
G1 X128.697 Y70.864 E483.97309
G1 X129.711 Y70.864 E484.09414
G1 X138.636 Y79.789 E485.60001
G1 X138.636 Y78.774 E485.72107
G1 X130.726 Y70.864 E487.05575
G1 X131.741 Y70.864 E487.17680
G1 X138.636 Y77.759 E488.34028
G1 X138.636 Y76.745 E488.46134
G1 X132.755 Y70.864 E489.45362
G1 X133.770 Y70.864 E489.57468
G1 X138.636 Y75.730 E490.39577
G1 X138.636 Y74.716 E490.51682
G1 X134.784 Y70.864 E491.16672
G1 X135.799 Y70.864 E491.28777
G1 X138.636 Y73.701 E491.76647
G1 X138.636 Y72.686 E491.88752
G1 X136.814 Y70.864 E492.19503
G1 X137.828 Y70.864 E492.31608
G1 X138.957 Y71.993 E492.50661
G1 E490.50661 F2400.00000
G92 E0
G1 X107.136 Y129.457 F7800.000
G1 E2.00000 F2400.00000
G1 F1800
G1 X61.364 Y83.685 E9.72315
G1 X61.364 Y84.700 E9.84420
G1 X105.800 Y129.136 E17.34192
G1 X104.785 Y129.136 E17.46298
G1 X61.364 Y85.715 E24.78951
G1 X61.364 Y86.729 E24.91056
G1 X103.771 Y129.136 E32.06589
G1 X102.756 Y129.136 E32.18695
G1 X61.364 Y87.744 E39.17108
G1 X61.364 Y88.758 E39.29213
G1 X101.742 Y129.136 E46.10507
G1 X100.727 Y129.136 E46.22613
G1 X61.364 Y89.773 E52.86787
G1 X61.364 Y90.788 E52.98893
G1 X99.712 Y129.136 E59.45947
G1 X98.698 Y129.136 E59.58053
G1 X61.364 Y91.802 E65.87988
G1 X61.364 Y92.817 E66.00093
G1 X97.683 Y129.136 E72.12909
G1 X96.668 Y129.136 E72.25014
G1 X61.364 Y93.832 E78.20710
G1 X61.364 Y94.846 E78.32815
G1 X95.654 Y129.136 E84.11392
G1 X94.639 Y129.136 E84.23497
G1 X61.364 Y95.861 E89.84954
G1 X61.364 Y96.875 E89.97059
G1 X93.625 Y129.136 E95.41396
G1 X92.610 Y129.136 E95.53501
G1 X61.364 Y97.890 E100.80719
G1 X61.364 Y98.905 E100.92824
G1 X91.595 Y129.136 E106.02922
G1 X90.581 Y129.136 E106.15027
G1 X61.364 Y99.919 E111.08006
G1 X61.364 Y100.934 E111.20111
G1 X89.566 Y129.136 E115.95970
G1 X88.552 Y129.136 E116.08075
G1 X61.364 Y101.948 E120.66814
G1 X61.364 Y102.963 E120.78919
G1 X87.537 Y129.136 E125.20539
G1 X86.522 Y129.136 E125.32644
G1 X61.364 Y103.978 E129.57144
G1 X61.364 Y104.992 E129.69249
G1 X85.508 Y129.136 E133.76629
G1 X84.493 Y129.136 E133.88735
G1 X61.364 Y106.007 E137.78995
G1 X61.364 Y107.021 E137.91100
G1 X83.478 Y129.136 E141.64241
G1 X82.464 Y129.136 E141.76347
G1 X61.364 Y108.036 E145.32368
G1 X61.364 Y109.051 E145.44473
G1 X81.449 Y129.136 E148.83375
G1 X80.435 Y129.136 E148.95480
G1 X61.364 Y110.065 E152.17262
G1 X61.364 Y111.080 E152.29368
G1 X79.420 Y129.136 E155.34030
G1 X78.405 Y129.136 E155.46136
G1 X61.364 Y112.095 E158.33678
G1 X61.364 Y113.109 E158.45784
G1 X77.391 Y129.136 E161.16207
G1 X76.376 Y129.136 E161.28312
G1 X61.364 Y114.124 E163.81616
G1 X61.364 Y115.138 E163.93721
G1 X75.362 Y129.136 E166.29905
G1 X74.347 Y129.136 E166.42011
G1 X61.364 Y116.153 E168.61075
G1 X61.364 Y117.168 E168.73180
G1 X73.332 Y129.136 E170.75125
G1 X72.318 Y129.136 E170.87230
G1 X61.364 Y118.182 E172.72056
G1 X61.364 Y119.197 E172.84161
G1 X71.303 Y129.136 E174.51866
G1 X70.289 Y129.136 E174.63972
G1 X61.364 Y120.211 E176.14558
G1 X61.364 Y121.226 E176.26663
G1 X69.274 Y129.136 E177.60129
G1 X68.259 Y129.136 E177.72235
G1 X61.364 Y122.241 E178.88581
G1 X61.364 Y123.255 E179.00687
G1 X67.245 Y129.136 E179.99914
G1 X66.230 Y129.136 E180.12019
G1 X61.364 Y124.270 E180.94127
G1 X61.364 Y125.285 E181.06232
G1 X65.215 Y129.136 E181.71220
G1 X64.201 Y129.136 E181.83325
G1 X61.364 Y126.299 E182.31193
G1 X61.364 Y127.314 E182.43299
G1 X63.186 Y129.136 E182.74047
G1 X62.172 Y129.136 E182.86153
G1 X61.043 Y128.007 E183.05204
G1 Z0.550 F7800.000
M140 S55 ; set bed temperature
G1 E181.05204 F2400.00000
G92 E0
G1 X106.759 Y112.800 F7800.000
G1 E2.00000 F2400.00000
G1 F3600
G1 X106.083 Y114.064 E2.03737
G1 X105.173 Y115.173 E2.07474
G1 X104.064 Y116.083 E2.11210
G1 X102.800 Y116.759 E2.14947
