; generated by PrusaSlicer 2.1.1+ on 2021-06-27 at 15:45:19 UTC

; 

; external perimeters extrusion width = 0.45mm
; perimeters extrusion width = 0.45mm
; infill extrusion width = 0.45mm
; solid infill extrusion width = 0.45mm
; top infill extrusion width = 0.40mm
; first layer extrusion width = 0.80mm

M107
M190 S60 ; set bed temperature and wait for it to be reached
M104 S200 ; set temperature
G28 ; home all axes
G1 Z5 F5000 ; lift nozzle
M109 S200 ; set temperature and wait for it to be reached
G21 ; set units to millimeters
G90 ; use absolute coordinates
M82 ; use absolute distances for extrusion
G92 E0
; Filament gcode
G1 Z0.400 F7800.000
G1 E-2.00000 F2400.00000
G92 E0
G1 X89.803 Y90.157 F7800.000
G1 E2.00000 F2400.00000
G1 F1800
G1 X90.808 Y89.363 E2.15214
G1 X91.957 Y88.783 E2.30501
G1 X93.194 Y88.448 E2.45715
G1 X94.186 Y88.363 E2.57540
G1 X105.776 Y88.363 E3.95193
G1 X106.818 Y88.450 E4.07608
G1 X107.831 Y88.706 E4.20022
G1 X108.794 Y89.128 E4.32510
G1 X109.670 Y89.700 E4.44925
G1 X110.444 Y90.411 E4.57413
G1 X111.087 Y91.235 E4.69827
G1 X111.586 Y92.154 E4.82242
G1 X111.928 Y93.141 E4.94656
G1 X112.126 Y94.626 E5.12444
G1 X112.116 Y105.647 E6.43339
G1 X112.009 Y106.500 E6.53540
G1 X111.788 Y107.329 E6.63741
G1 X111.456 Y108.122 E6.73942
G1 X111.021 Y108.863 E6.84144
G1 X110.097 Y109.937 E7.00976
G1 X108.963 Y110.777 E7.17735
G1 X107.672 Y111.346 E7.34493
G1 X106.287 Y111.616 E7.51252
G1 X93.788 Y111.622 E8.99695
G1 X92.956 Y111.508 E9.09675
G1 X92.145 Y111.286 E9.19655
G1 X91.371 Y110.958 E9.29635
G1 X90.647 Y110.531 E9.39615
G1 X89.581 Y109.616 E9.56300
G1 X88.743 Y108.489 E9.72985
G1 X88.172 Y107.206 E9.89670
G1 X87.897 Y105.828 E10.06355
G1 X87.890 Y94.253 E11.43824
G1 X88.006 Y93.427 E11.53730
G1 X88.229 Y92.623 E11.63636
G1 X88.555 Y91.856 E11.73542
G1 X88.979 Y91.137 E11.83448
G1 X89.765 Y90.203 E11.97949
G1 E9.97949 F2400.00000
G92 E0
G1 X102.029 Y102.029 F7800.000
G1 E2.00000 F2400.00000
G1 F1800
G1 X101.594 Y102.386 E2.06678
G1 X101.098 Y102.651 E2.13361
G1 X100.560 Y102.814 E2.20041
G1 X100.000 Y102.870 E2.26720
G1 X99.440 Y102.814 E2.33404
G1 X98.902 Y102.651 E2.40086
G1 X98.406 Y102.386 E2.46764
G1 X97.971 Y102.029 E2.53446
G1 X97.614 Y101.594 E2.60125
G1 X97.349 Y101.098 E2.66807
G1 X97.186 Y100.560 E2.73487
G1 X97.130 Y100.000 E2.80167
G1 X97.186 Y99.440 E2.86850
G1 X97.349 Y98.902 E2.93532
G1 X97.614 Y98.406 E3.00211
G1 X97.971 Y97.971 E3.06894
G1 X98.406 Y97.614 E3.13572
G1 X98.904 Y97.348 E3.20281
G1 X99.450 Y97.185 E3.27045
G1 X100.000 Y97.130 E3.33613
G1 X100.560 Y97.186 E3.40296
G1 X101.098 Y97.349 E3.46978
G1 X101.594 Y97.614 E3.53657
G1 X102.029 Y97.971 E3.60339
G1 X102.386 Y98.406 E3.67016
G1 X102.651 Y98.902 E3.73700
G1 X102.814 Y99.440 E3.80381
G1 X102.870 Y100.000 E3.87060
G1 X102.814 Y100.560 E3.93744
G1 X102.651 Y101.098 E4.00424
G1 X102.386 Y101.594 E4.07103
G1 X102.067 Y101.983 E4.13074
G1 X101.521 Y101.522 F7800.000
G1 F1800
G1 X101.196 Y101.789 E4.18081
G1 X100.823 Y101.988 E4.23093
G1 X100.420 Y102.111 E4.28103
G1 X100.000 Y102.152 E4.33111
G1 X99.580 Y102.111 E4.38124
G1 X99.176 Y101.988 E4.43135
G1 X98.804 Y101.789 E4.48142
G1 X98.478 Y101.521 E4.53154
G1 X98.211 Y101.196 E4.58162
G1 X98.012 Y100.823 E4.63173
G1 X97.889 Y100.420 E4.68183
G1 X97.848 Y100.000 E4.73192
G1 X97.889 Y99.580 E4.78204
G1 X98.012 Y99.176 E4.83215
G1 X98.211 Y98.804 E4.88223
G1 X98.479 Y98.478 E4.93236
G1 X98.804 Y98.211 E4.98243
G1 X99.177 Y98.011 E5.03264
G1 X99.588 Y97.889 E5.08358
G1 X100.000 Y97.848 E5.13272
G1 X100.420 Y97.889 E5.18283
G1 X100.824 Y98.012 E5.23295
G1 X101.196 Y98.211 E5.28303
G1 X101.522 Y98.479 E5.33315
G1 X101.789 Y98.804 E5.38322
G1 X101.988 Y99.177 E5.43334
G1 X102.111 Y99.580 E5.48344
G1 X102.152 Y100.000 E5.53353
G1 X102.111 Y100.420 E5.58365
G1 X101.988 Y100.824 E5.63375
G1 X101.789 Y101.196 E5.68384
G1 X101.560 Y101.475 E5.72683
G1 X101.625 Y101.908 F7800.000
G1 E3.72683 F2400.00000
G92 E0
G1 X96.424 Y99.491 F7800.000
G1 E2.00000 F2400.00000
G1 F1800
G1 X96.058 Y99.437 E2.04390
G1 X96.058 Y96.548 E2.38691
G1 X98.197 Y96.548 E2.64086
G1 X98.278 Y96.873 E2.68057
G1 X98.007 Y97.017 E2.71701
G1 X97.464 Y97.463 E2.80050
G1 X97.017 Y98.007 E2.88403
G1 X96.686 Y98.627 E2.96753
G1 X96.441 Y99.433 E3.06762
G1 X96.424 Y100.509 F7800.000
G1 F1800
G1 X96.686 Y101.373 E3.17478
G1 X97.017 Y101.993 E3.25831
G1 X97.463 Y102.536 E3.34180
G1 X98.007 Y102.983 E3.42533
G1 X98.278 Y103.127 E3.46181
G1 X98.197 Y103.452 E3.50152
G1 X96.058 Y103.452 E3.75547
G1 X96.058 Y100.563 E4.09851
G1 X96.365 Y100.518 E4.13528
G1 E2.13528 F2400.00000
G92 E0
G1 X101.722 Y103.127 F7800.000
G1 E2.00000 F2400.00000
G1 F1800
G1 X101.993 Y102.983 E2.03643
G1 X102.536 Y102.537 E2.11992
G1 X102.983 Y101.993 E2.20346
G1 X103.314 Y101.373 E2.28696
G1 X103.576 Y100.509 E2.39416
G1 X103.942 Y100.564 E2.43806
G1 X103.942 Y103.452 E2.78107
G1 X101.803 Y103.452 E3.03501
G1 X101.737 Y103.185 E3.06760
G1 E1.06760 F2400.00000
G92 E0
G1 X103.576 Y99.491 F7800.000
G1 E2.00000 F2400.00000
G1 F1800
G1 X103.314 Y98.627 E2.10716
G1 X102.983 Y98.007 E2.19071
G1 X102.537 Y97.464 E2.27418
G1 X101.993 Y97.018 E2.35771
G1 X101.722 Y96.873 E2.39420
G1 X101.803 Y96.548 E2.43391
G1 X103.942 Y96.548 E2.68786
G1 X103.942 Y99.437 E3.03090
G1 X103.635 Y99.482 E3.06768
G1 E1.06768 F2400.00000
G92 E0
G1 X104.656 Y95.834 F7800.000
G1 E2.00000 F2400.00000
G1 F1800
G1 X104.656 Y104.166 E2.98951
G1 X95.344 Y104.166 E4.09542
G1 X95.344 Y95.834 E5.08493
G1 X104.596 Y95.834 E6.18371
G1 X105.370 Y95.120 F7800.000
G1 F1800
G1 X105.370 Y104.880 E7.34286
G1 X94.630 Y104.880 E8.61839
G1 X94.630 Y95.120 E9.77754
G1 X105.310 Y95.120 E11.04595
G1 X105.260 Y95.505 F7800.000
G1 E9.04595 F2400.00000
G92 E0
G1 X103.172 Y96.905 F7800.000
G1 E2.00000 F2400.00000
G1 F1800
G1 X103.573 Y98.225 E2.07854
G1 X103.585 Y97.362 F7800.000
G1 F1800
G1 X102.486 Y96.905 E2.15231
G1 X101.417 Y96.622 F7800.000
G1 F1800
G1 X101.071 Y96.571 E2.19596
G1 X100.725 Y96.520 E2.23687
G1 X100.662 Y96.513 E2.24387
G1 X100.345 Y96.498 E2.27781
G1 X100.029 Y96.482 E2.31012
G1 X99.972 Y96.482 E2.31564
G1 X99.660 Y96.497 E2.34738
G1 X99.349 Y96.513 E2.38070
G1 X98.583 Y96.622 E2.46500
G1 X97.514 Y96.905 F7800.000
G1 F1800
G1 X96.415 Y97.362 E2.53863
G1 X96.828 Y96.905 F7800.000
G1 F1800
G1 X96.427 Y98.225 E2.61721
G1 X96.660 Y100.000 F7800.000
G1 F1800
G1 X95.893 Y100.000 E2.65129
G1 X95.701 Y100.000 E2.66533
G1 X96.427 Y101.775 F7800.000
G1 F1800
G1 X96.828 Y103.095 E2.74386
G1 X96.415 Y102.638 F7800.000
G1 F1800
G1 X97.514 Y103.095 E2.81762
G1 X98.583 Y103.378 F7800.000
G1 F1800
G1 X99.338 Y103.487 E2.90093
G1 X99.655 Y103.502 E2.93489
G1 X99.971 Y103.518 E2.96720
G1 X100.029 Y103.518 E2.97272
G1 X100.345 Y103.502 E3.00499
G1 X100.661 Y103.487 E3.03891
G1 X100.725 Y103.480 E3.04590
G1 X101.071 Y103.429 E3.08684
G1 X101.417 Y103.378 E3.13053
G1 X102.486 Y103.095 F7800.000
G1 F1800
G1 X103.585 Y102.638 E3.20417
G1 X103.172 Y103.095 F7800.000
G1 F1800
G1 X103.573 Y101.775 E3.28274
G1 X103.532 Y100.000 F7800.000
G1 F1800
G1 X103.340 Y100.000 E3.29126
G1 X103.532 Y100.000 F7800.000
G1 F1800
G1 X103.724 Y100.000 E3.30116
G1 X103.915 Y100.000 E3.31244
G1 X104.107 Y100.000 E3.32511
G1 X104.299 Y100.000 E3.33915
G1 Z0.550 F7800.000
M140 S55 ; set bed temperature
G1 X101.991 Y98.009
G1 F900
G1 X102.341 Y98.436 E3.35353
G1 X102.601 Y98.922 E3.36791
G1 X102.762 Y99.451 E3.38229
G1 X102.816 Y100.000 E3.39667
G1 X102.762 Y100.549 E3.41106
G1 X102.601 Y101.078 E3.42544
G1 X102.341 Y101.565 E3.43983
G1 X101.991 Y101.991 E3.45421
G1 X101.564 Y102.341 E3.46859
G1 X101.078 Y102.601 E3.48297
G1 X100.549 Y102.762 E3.49735
G1 X100.000 Y102.816 E3.51173
G1 X99.451 Y102.762 E3.52612
G1 X98.922 Y102.601 E3.54050
G1 X98.435 Y102.341 E3.55488
G1 X98.009 Y101.991 E3.56927
G1 X97.659 Y101.564 E3.58364
G1 X97.399 Y101.078 E3.59803
G1 X97.238 Y100.549 E3.61241
G1 X97.184 Y100.000 E3.62679
G1 X97.238 Y99.451 E3.64117
G1 X97.399 Y98.922 E3.65556
G1 X97.659 Y98.435 E3.66994
G1 X98.009 Y98.009 E3.68433
G1 X98.436 Y97.659 E3.69870
G1 X98.927 Y97.396 E3.71322
G1 X99.473 Y97.236 E3.72804
G1 X100.000 Y97.184 E3.74184
G1 X100.549 Y97.238 E3.75622
G1 X101.078 Y97.399 E3.77061
G1 X101.565 Y97.659 E3.78499
G1 X101.945 Y97.971 E3.79781
G1 X101.694 Y98.306 F7800.000
G1 F900
G1 X101.992 Y98.669 E3.81004
G1 X102.214 Y99.083 E3.82228
G1 X102.350 Y99.533 E3.83452
G1 X102.396 Y100.000 E3.84676
G1 X102.350 Y100.467 E3.85900
G1 X102.214 Y100.917 E3.87123
G1 X101.992 Y101.331 E3.88348
G1 X101.694 Y101.694 E3.89572
G1 X101.331 Y101.992 E3.90795
G1 X100.917 Y102.214 E3.92019
G1 X100.467 Y102.350 E3.93242
G1 X100.000 Y102.396 E3.94466
G1 X99.533 Y102.350 E3.95690
G1 X99.083 Y102.214 E3.96914
G1 X98.669 Y101.992 E3.98138
G1 X98.306 Y101.694 E3.99362
G1 X98.008 Y101.331 E4.00585
G1 X97.786 Y100.917 E4.01809
G1 X97.650 Y100.467 E4.03033
G1 X97.604 Y100.000 E4.04257
G1 X97.650 Y99.533 E4.05480
G1 X97.786 Y99.083 E4.06704
G1 X98.008 Y98.669 E4.07928
G1 X98.306 Y98.306 E4.09152
G1 X98.669 Y98.008 E4.10375
G1 X99.086 Y97.785 E4.11607
G1 X99.553 Y97.648 E4.12876
G1 X100.000 Y97.604 E4.14046
G1 X100.467 Y97.650 E4.15270
G1 X100.917 Y97.786 E4.16494
G1 X101.331 Y98.008 E4.17718
G1 X101.648 Y98.268 E4.18785
G1 X101.397 Y98.603 F7800.000
G1 F900
G1 X101.643 Y98.902 E4.19794
G1 X101.826 Y99.244 E4.20804
G1 X101.938 Y99.614 E4.21813
G1 X101.976 Y100.000 E4.22822
G1 X101.938 Y100.386 E4.23832
G1 X101.826 Y100.756 E4.24841
G1 X101.643 Y101.098 E4.25851
G1 X101.397 Y101.397 E4.26860
G1 X101.098 Y101.643 E4.27869
G1 X100.756 Y101.826 E4.28878
G1 X100.386 Y101.938 E4.29888
G1 X100.000 Y101.976 E4.30897
G1 X99.614 Y101.938 E4.31907
G1 X99.244 Y101.826 E4.32916
G1 X98.902 Y101.643 E4.33926
G1 X98.603 Y101.397 E4.34935
G1 X98.357 Y101.098 E4.35944
G1 X98.174 Y100.756 E4.36953
G1 X98.062 Y100.386 E4.37963
G1 X98.024 Y100.000 E4.38972
G1 X98.062 Y99.614 E4.39981
G1 X98.174 Y99.244 E4.40991
G1 X98.357 Y98.902 E4.42000
G1 X98.603 Y98.603 E4.43010
G1 X98.902 Y98.357 E4.44019
G1 X99.245 Y98.174 E4.45031
G1 X99.633 Y98.060 E4.46085
G1 X100.000 Y98.024 E4.47046
G1 X100.386 Y98.062 E4.48055
G1 X100.756 Y98.174 E4.49065
G1 X101.098 Y98.357 E4.50074
G1 X101.351 Y98.565 E4.50927
G1 X101.771 Y98.503 F7800.000
G1 X104.709 Y95.781
G1 F900
G1 X104.709 Y104.219 E4.72915
G1 X95.291 Y104.219 E4.97457
G1 X95.291 Y95.781 E5.19444
G1 X104.649 Y95.781 E5.43829
G1 X105.127 Y95.363 F7800.000
G1 F900
G1 X105.127 Y104.637 E5.67995
G1 X94.873 Y104.637 E5.94713
G1 X94.873 Y95.363 E6.18878
G1 X105.067 Y95.363 E6.45441
G1 X105.545 Y94.945 F7800.000
G1 F1800
G1 X105.545 Y105.055 E6.71783
G1 X94.455 Y105.055 E7.00679
G1 X94.455 Y94.945 E7.27021
G1 X105.485 Y94.945 E7.55761
G1 X105.436 Y95.330 F7800.000
G1 X99.209 Y97.183
G1 F1200
G1 X100.298 Y96.094 E7.59845
G1 X100.899 Y96.094 E7.61440
G1 X100.113 Y96.880 E7.64390
G1 X100.652 Y96.942 E7.65830
G1 X101.501 Y96.094 E7.69011
G1 X102.102 Y96.094 E7.70606
G1 X101.114 Y97.082 E7.74312
G1 X101.198 Y97.108 E7.74546
G1 X101.518 Y97.279 E7.75509
G1 X102.703 Y96.094 E7.79953
G1 X103.305 Y96.094 E7.81547
G1 X101.883 Y97.515 E7.86878
G1 X102.214 Y97.786 E7.88011
G1 X103.906 Y96.094 E7.94358
G1 X104.396 Y96.094 E7.95657
G1 X104.396 Y96.205 E7.95952
G1 X102.485 Y98.117 E8.03121
G1 X102.603 Y98.261 E8.03615
G1 X102.721 Y98.482 E8.04279
G1 X104.396 Y96.807 E8.10561
G1 X104.396 Y97.408 E8.12156
G1 X102.918 Y98.886 E8.17699
G1 X103.058 Y99.348 E8.18978
G1 X104.396 Y98.009 E8.23997
G1 X104.396 Y98.611 E8.25592
G1 X103.120 Y99.887 E8.30379
G1 X103.131 Y100.000 E8.30679
G1 X103.078 Y100.530 E8.32091
G1 X104.396 Y99.212 E8.37033
G1 X104.396 Y99.813 E8.38627
G1 X100.303 Y103.906 E8.53976
G1 X100.905 Y103.906 E8.55570
G1 X104.396 Y100.415 E8.68664
G1 X104.396 Y101.016 E8.70258
G1 X101.506 Y103.906 E8.81096
G1 X102.108 Y103.906 E8.82691
G1 X104.396 Y101.618 E8.91273
G1 X104.396 Y102.219 E8.92868
G1 X102.709 Y103.906 E8.99195
G1 X103.310 Y103.906 E9.00790
G1 X104.396 Y102.820 E9.04861
G1 X104.396 Y103.422 E9.06456
G1 X103.724 Y104.094 E9.08978
G1 X99.514 Y104.094 F7800.000
G1 F1200
G1 X100.530 Y103.078 E9.12787
G1 X100.000 Y103.131 E9.14198
G1 X99.887 Y103.120 E9.14498
G1 X99.101 Y103.906 E9.17448
G1 X98.499 Y103.906 E9.19043
G1 X99.348 Y103.058 E9.22224
G1 X98.886 Y102.918 E9.23503
G1 X97.898 Y103.906 E9.27209
G1 X97.297 Y103.906 E9.28804
G1 X98.482 Y102.721 E9.33248
G1 X98.261 Y102.603 E9.33913
G1 X98.117 Y102.485 E9.34406
G1 X96.695 Y103.906 E9.39737
G1 X96.094 Y103.906 E9.41332
G1 X97.786 Y102.214 E9.47679
G1 X97.515 Y101.883 E9.48812
G1 X95.604 Y103.795 E9.55980
G1 X95.604 Y103.193 E9.57575
G1 X97.279 Y101.518 E9.63856
G1 X97.108 Y101.198 E9.64819
G1 X97.082 Y101.114 E9.65053
G1 X95.604 Y102.592 E9.70596
G1 X95.604 Y101.990 E9.72191
G1 X96.942 Y100.652 E9.77210
G1 X96.880 Y100.113 E9.78650
G1 X95.604 Y101.389 E9.83438
G1 X95.604 Y100.788 E9.85033
G1 X97.180 Y99.212 E9.90943
G1 X95.416 Y100.374 F7800.000
G1 F1200
G1 X99.696 Y96.094 E10.06996
G1 X99.095 Y96.094 E10.08591
G1 X95.604 Y99.585 E10.21683
G1 X95.604 Y98.984 E10.23278
G1 X98.494 Y96.094 E10.34115
G1 X97.892 Y96.094 E10.35710
G1 X95.604 Y98.382 E10.44292
G1 X95.604 Y97.781 E10.45887
G1 X97.291 Y96.094 E10.52213
G1 X96.690 Y96.094 E10.53808
G1 X95.604 Y97.180 E10.57879
G1 X95.604 Y96.578 E10.59474
G1 X96.276 Y95.906 E10.61995
G1 Z0.700 F7800.000
G1 X101.991 Y98.009
G1 F900
G1 X102.341 Y98.436 E10.63433
G1 X102.601 Y98.922 E10.64871
G1 X102.762 Y99.451 E10.66310
G1 X102.816 Y100.000 E10.67748
G1 X102.762 Y100.550 E10.69187
G1 X102.601 Y101.078 E10.70624
G1 X102.341 Y101.565 E10.72063
G1 X101.991 Y101.991 E10.73501
G1 X101.564 Y102.341 E10.74939
G1 X101.078 Y102.601 E10.76377
G1 X100.549 Y102.762 E10.77816
G1 X100.000 Y102.816 E10.79254
G1 X99.451 Y102.762 E10.80692
G1 X98.922 Y102.601 E10.82130
G1 X98.435 Y102.341 E10.83569
G1 X98.009 Y101.991 E10.85007
G1 X97.659 Y101.564 E10.86445
G1 X97.399 Y101.078 E10.87883
G1 X97.238 Y100.549 E10.89321
G1 X97.184 Y100.000 E10.90760
G1 X97.238 Y99.451 E10.92198
G1 X97.399 Y98.922 E10.93636
G1 X97.659 Y98.435 E10.95075
G1 X98.009 Y98.009 E10.96513
G1 X98.436 Y97.659 E10.97951
G1 X98.928 Y97.396 E10.99406
G1 X99.480 Y97.235 E11.00903
G1 X100.000 Y97.184 E11.02265
G1 X100.549 Y97.238 E11.03703
G1 X101.078 Y97.399 E11.05141
G1 X101.565 Y97.659 E11.06580
G1 X101.945 Y97.971 E11.07861
G1 X101.694 Y98.306 F7800.000
G1 F900
G1 X101.992 Y98.669 E11.09085
G1 X102.214 Y99.083 E11.10309
G1 X102.350 Y99.533 E11.11532
G1 X102.396 Y100.000 E11.12756
G1 X102.350 Y100.468 E11.13980
G1 X102.214 Y100.917 E11.15204
G1 X101.992 Y101.331 E11.16428
G1 X101.694 Y101.694 E11.17651
G1 X101.331 Y101.992 E11.18875
G1 X100.917 Y102.214 E11.20099
G1 X100.467 Y102.350 E11.21323
G1 X100.000 Y102.396 E11.22547
G1 X99.532 Y102.350 E11.23771
G1 X99.083 Y102.214 E11.24994
G1 X98.669 Y101.992 E11.26218
G1 X98.306 Y101.694 E11.27442
G1 X98.008 Y101.331 E11.28666
G1 X97.786 Y100.917 E11.29889
G1 X97.650 Y100.467 E11.31113
G1 X97.604 Y100.000 E11.32337
G1 X97.650 Y99.532 E11.33561
G1 X97.786 Y99.083 E11.34785
G1 X98.008 Y98.669 E11.36009
G1 X98.306 Y98.306 E11.37232
G1 X98.669 Y98.008 E11.38456
G1 X99.087 Y97.785 E11.39690
G1 X99.559 Y97.647 E11.40972
G1 X100.000 Y97.604 E11.42126
G1 X100.468 Y97.650 E11.43350
G1 X100.917 Y97.786 E11.44574
G1 X101.331 Y98.008 E11.45798
G1 X101.648 Y98.268 E11.46865
G1 X101.397 Y98.603 F7800.000
G1 F900
G1 X101.643 Y98.902 E11.47874
G1 X101.826 Y99.244 E11.48884
G1 X101.938 Y99.614 E11.49893
G1 X101.976 Y100.000 E11.50902
G1 X101.938 Y100.386 E11.51912
G1 X101.826 Y100.756 E11.52921
G1 X101.643 Y101.098 E11.53931
G1 X101.397 Y101.397 E11.54940
G1 X101.098 Y101.643 E11.55949
G1 X100.756 Y101.826 E11.56959
G1 X100.386 Y101.938 E11.57968
G1 X100.000 Y101.976 E11.58977
G1 X99.614 Y101.938 E11.59987
G1 X99.244 Y101.826 E11.60996
G1 X98.902 Y101.643 E11.62006
G1 X98.603 Y101.397 E11.63015
G1 X98.357 Y101.098 E11.64024
G1 X98.174 Y100.756 E11.65033
G1 X98.062 Y100.386 E11.66043
G1 X98.024 Y100.000 E11.67052
G1 X98.062 Y99.614 E11.68062
G1 X98.174 Y99.244 E11.69071
G1 X98.357 Y98.902 E11.70081
G1 X98.603 Y98.603 E11.71089
G1 X98.902 Y98.357 E11.72099
