; generated by PrusaSlicer 2.1.1+ on 2021-06-27 at 15:14:30 UTC

; 

; external perimeters extrusion width = 0.45mm
; perimeters extrusion width = 0.45mm
; infill extrusion width = 0.45mm
; solid infill extrusion width = 0.45mm
; top infill extrusion width = 0.40mm
; first layer extrusion width = 0.80mm

M107
M190 S60 ; set bed temperature and wait for it to be reached
M104 S200 ; set temperature
G28 ; home all axes
G1 Z5 F5000 ; lift nozzle
M109 S200 ; set temperature and wait for it to be reached
G21 ; set units to millimeters
G90 ; use absolute coordinates
M82 ; use absolute distances for extrusion
G92 E0
; Filament gcode
G1 Z0.400 F7800.000
G1 E-2.00000 F2400.00000
G92 E0
G1 X90.613 Y90.334 F7800.000
G1 E2.00000 F2400.00000
G1 F1800
G1 X91.617 Y89.479 E2.15655
G1 X92.775 Y88.850 E2.31311
G1 X94.032 Y88.474 E2.46892
G1 X95.152 Y88.363 E2.60265
G1 X105.672 Y88.363 E3.85200
G1 X106.707 Y88.449 E3.97541
G1 X107.715 Y88.702 E4.09881
G1 X108.668 Y89.117 E4.22222
G1 X109.541 Y89.681 E4.34563
G1 X110.310 Y90.379 E4.46904
G1 X110.955 Y91.194 E4.59244
G1 X111.459 Y92.103 E4.71585
G1 X111.808 Y93.081 E4.83926
G1 X112.022 Y94.614 E5.02301
G1 X112.016 Y105.579 E6.32531
G1 X111.927 Y106.377 E6.42068
G1 X111.739 Y107.158 E6.51605
G1 X111.451 Y107.914 E6.61216
G1 X111.073 Y108.622 E6.70752
G1 X110.176 Y109.759 E6.87952
G1 X109.051 Y110.661 E7.05078
G1 X107.751 Y111.285 E7.22204
G1 X106.344 Y111.601 E7.39331
G1 X94.817 Y111.625 E8.76232
G1 X93.284 Y111.337 E8.94754
G1 X91.873 Y110.688 E9.13203
G1 X90.736 Y109.791 E9.30402
G1 X89.834 Y108.665 E9.47528
G1 X89.210 Y107.365 E9.64655
G1 X88.894 Y105.958 E9.81781
G1 X88.871 Y94.322 E11.19984
G1 X89.159 Y92.789 E11.38506
G1 X89.808 Y91.378 E11.56954
G1 X90.577 Y90.382 E11.71897
G1 E9.71897 F2400.00000
G92 E0
G1 X101.924 Y102.029 F7800.000
G1 E2.00000 F2400.00000
G1 F1800
G1 X101.489 Y102.386 E2.06682
G1 X100.993 Y102.651 E2.13360
G1 X100.454 Y102.814 E2.20043
G1 X99.894 Y102.870 E2.26722
G1 X99.335 Y102.814 E2.33405
G1 X98.796 Y102.651 E2.40086
G1 X98.300 Y102.386 E2.46766
G1 X97.865 Y102.029 E2.53451
G1 X97.508 Y101.594 E2.60130
G1 X97.243 Y101.098 E2.66810
G1 X97.080 Y100.560 E2.73492
G1 X97.025 Y100.000 E2.80172
G1 X97.080 Y99.440 E2.86856
G1 X97.243 Y98.902 E2.93536
G1 X97.508 Y98.406 E3.00216
G1 X97.865 Y97.971 E3.06898
G1 X98.300 Y97.614 E3.13578
G1 X98.796 Y97.349 E3.20261
G1 X99.335 Y97.186 E3.26943
G1 X99.895 Y97.130 E3.33625
G1 X100.454 Y97.186 E3.40304
G1 X100.993 Y97.349 E3.46987
G1 X101.489 Y97.614 E3.53666
G1 X101.924 Y97.971 E3.60350
G1 X102.281 Y98.406 E3.67032
G1 X102.546 Y98.902 E3.73711
G1 X102.709 Y99.440 E3.80393
G1 X102.764 Y100.000 E3.87072
G1 X102.709 Y100.560 E3.93756
G1 X102.546 Y101.098 E4.00438
G1 X102.281 Y101.594 E4.07117
G1 X101.962 Y101.983 E4.13087
G1 X101.416 Y101.522 F7800.000
G1 F1800
G1 X101.090 Y101.789 E4.18099
G1 X100.718 Y101.988 E4.23107
G1 X100.314 Y102.111 E4.28119
G1 X99.895 Y102.152 E4.33128
G1 X99.475 Y102.111 E4.38140
G1 X99.071 Y101.988 E4.43151
G1 X98.699 Y101.789 E4.48160
G1 X98.372 Y101.521 E4.53173
G1 X98.105 Y101.195 E4.58182
G1 X97.906 Y100.823 E4.63192
G1 X97.784 Y100.420 E4.68203
G1 X97.742 Y100.000 E4.73212
G1 X97.784 Y99.580 E4.78225
G1 X97.906 Y99.176 E4.83234
G1 X98.105 Y98.804 E4.88243
G1 X98.373 Y98.478 E4.93254
G1 X98.699 Y98.211 E4.98264
G1 X99.071 Y98.012 E5.03275
G1 X99.475 Y97.889 E5.08287
G1 X99.895 Y97.848 E5.13298
G1 X100.314 Y97.889 E5.18307
G1 X100.718 Y98.012 E5.23320
G1 X101.090 Y98.211 E5.28328
G1 X101.416 Y98.478 E5.33340
G1 X101.684 Y98.805 E5.38352
G1 X101.883 Y99.177 E5.43360
G1 X102.005 Y99.580 E5.48372
G1 X102.047 Y100.000 E5.53380
G1 X102.005 Y100.420 E5.58392
G1 X101.883 Y100.824 E5.63403
G1 X101.684 Y101.196 E5.68411
G1 X101.454 Y101.475 E5.72711
G1 X101.520 Y101.908 F7800.000
G1 E3.72711 F2400.00000
G92 E0
G1 X98.172 Y96.873 F7800.000
G1 E2.00000 F2400.00000
G1 F1800
G1 X97.902 Y97.017 E2.03643
G1 X97.044 Y97.721 E2.16825
G1 X97.044 Y96.548 E2.30757
G1 X98.091 Y96.548 E2.43196
G1 X98.158 Y96.815 E2.46455
G1 E0.46455 F2400.00000
G92 E0
G1 X97.044 Y102.278 F7800.000
G1 E2.00000 F2400.00000
G1 F1800
G1 X97.901 Y102.983 E2.13181
G1 X98.172 Y103.127 E2.16827
G1 X98.091 Y103.452 E2.20798
G1 X97.044 Y103.452 E2.33237
G1 X97.044 Y102.338 E2.46458
G1 E0.46458 F2400.00000
G92 E0
G1 X101.617 Y103.127 F7800.000
G1 E2.00000 F2400.00000
G1 F1800
G1 X101.887 Y102.983 E2.03639
G1 X102.431 Y102.537 E2.11991
G1 X102.877 Y101.993 E2.20346
G1 X103.209 Y101.373 E2.28695
G1 X103.472 Y100.507 E2.39448
G1 X103.837 Y100.561 E2.43837
G1 X103.837 Y103.452 E2.78167
G1 X101.698 Y103.452 E3.03572
G1 X101.632 Y103.185 E3.06831
G1 E1.06831 F2400.00000
G92 E0
G1 X103.472 Y99.493 F7800.000
G1 E2.00000 F2400.00000
G1 F1800
G1 X103.209 Y98.627 E2.10749
G1 X102.878 Y98.007 E2.19098
G1 X102.431 Y97.464 E2.27451
G1 X101.888 Y97.017 E2.35806
G1 X101.617 Y96.873 E2.39451
G1 X101.698 Y96.548 E2.43422
G1 X103.837 Y96.548 E2.68827
G1 X103.837 Y99.439 E3.03161
G1 X103.531 Y99.485 E3.06838
G1 E1.06838 F2400.00000
G92 E0
G1 X104.551 Y95.834 F7800.000
G1 E2.00000 F2400.00000
G1 F1800
G1 X104.551 Y104.166 E2.98951
G1 X96.329 Y104.166 E3.96601
G1 X96.329 Y95.834 E4.95552
G1 X104.491 Y95.834 E5.92489
G1 X105.266 Y95.120 F7800.000
G1 F1800
G1 X105.266 Y104.880 E7.08404
G1 X95.615 Y104.880 E8.23017
G1 X95.615 Y95.120 E9.38932
G1 X105.206 Y95.120 E10.52833
G1 X105.163 Y95.507 F7800.000
G1 E8.52833 F2400.00000
G92 E0
G1 X103.067 Y96.905 F7800.000
G1 E2.00000 F2400.00000
G1 F1800
G1 X103.469 Y98.226 E2.07880
G1 X103.480 Y97.362 F7800.000
G1 F1800
G1 X102.381 Y96.905 E2.15258
G1 X101.312 Y96.622 F7800.000
G1 F1800
G1 X100.966 Y96.571 E2.19626
G1 X100.620 Y96.520 E2.23719
G1 X100.556 Y96.513 E2.24419
G1 X100.240 Y96.498 E2.27811
G1 X99.923 Y96.482 E2.31039
G1 X99.866 Y96.482 E2.31590
G1 X99.550 Y96.498 E2.34819
G1 X99.233 Y96.513 E2.38212
G1 X98.477 Y96.622 E2.46551
G1 X97.299 Y98.029 F7800.000
G1 F1800
G1 X97.162 Y98.167 E2.46954
G1 X96.686 Y98.692 E2.48465
G1 X96.802 Y98.731 F7800.000
G1 F1800
G1 X96.777 Y98.898 E2.49110
G1 X96.752 Y99.064 E2.49630
G1 X96.727 Y99.231 E2.50024
G1 X96.802 Y98.731 F7800.000
G1 F1800
G1 X96.885 Y98.313 E2.51719
G1 E0.51719 F2400.00000
G92 E0
G1 X96.727 Y100.769 F7800.000
G1 E2.00000 F2400.00000
G1 F1800
G1 X96.752 Y100.936 E2.00394
G1 X96.777 Y101.102 E2.00913
G1 X96.801 Y101.269 E2.01558
G1 X96.885 Y101.686 E2.03251
G1 X96.920 Y101.539 F7800.000
G1 F1800
G1 X96.686 Y101.255 E2.04906
G1 X96.920 Y101.539 F7800.000
G1 F1800
G1 X97.162 Y101.833 E2.05718
G1 X97.299 Y101.970 E2.06119
G1 X98.477 Y103.378 F7800.000
G1 F1800
G1 X99.233 Y103.487 E2.14454
G1 X99.549 Y103.502 E2.17848
G1 X99.866 Y103.518 E2.21078
G1 X99.923 Y103.518 E2.21630
G1 X100.239 Y103.502 E2.24858
G1 X100.556 Y103.487 E2.28250
G1 X100.619 Y103.480 E2.28949
G1 X100.965 Y103.429 E2.33044
G1 X101.312 Y103.378 E2.37414
G1 X102.380 Y103.095 F7800.000
G1 F1800
G1 X103.480 Y102.638 E2.44780
G1 X103.067 Y103.095 F7800.000
G1 F1800
G1 X103.469 Y101.774 E2.52668
G1 X103.427 Y100.000 F7800.000
G1 F1800
G1 X103.236 Y100.000 E2.53505
G1 X103.235 Y100.000 E2.53505
G1 X103.232 Y100.000 E2.53517
G1 X103.427 Y100.000 F7800.000
G1 F1800
G1 X103.619 Y100.000 E2.54492
G1 X103.811 Y100.000 E2.55607
G1 X104.003 Y100.000 E2.56860
G1 X104.194 Y100.000 E2.58251
G1 Z0.550 F7800.000
M140 S55 ; set bed temperature
G1 X101.891 Y98.009
G1 F900
G1 X102.241 Y98.436 E2.59689
G1 X102.502 Y98.923 E2.61128
G1 X102.662 Y99.451 E2.62566
G1 X102.716 Y100.000 E2.64004
G1 X102.662 Y100.549 E2.65442
G1 X102.501 Y101.078 E2.66881
G1 X102.241 Y101.565 E2.68319
G1 X101.891 Y101.991 E2.69758
G1 X101.464 Y102.341 E2.71196
G1 X100.977 Y102.602 E2.72635
G1 X100.449 Y102.762 E2.74072
G1 X99.900 Y102.816 E2.75510
G1 X99.350 Y102.762 E2.76949
G1 X98.822 Y102.601 E2.78387
G1 X98.335 Y102.341 E2.79826
G1 X97.909 Y101.991 E2.81264
G1 X97.558 Y101.564 E2.82702
G1 X97.298 Y101.077 E2.84141
G1 X97.138 Y100.549 E2.85579
G1 X97.084 Y100.000 E2.87017
G1 X97.138 Y99.451 E2.88455
G1 X97.298 Y98.922 E2.89894
G1 X97.558 Y98.435 E2.91332
G1 X97.909 Y98.009 E2.92770
G1 X98.335 Y97.659 E2.94209
G1 X98.826 Y97.397 E2.95658
G1 X99.367 Y97.237 E2.97129
G1 X99.900 Y97.184 E2.98523
G1 X100.449 Y97.238 E2.99961
G1 X100.977 Y97.399 E3.01399
G1 X101.464 Y97.659 E3.02838
G1 X101.845 Y97.971 E3.04120
G1 X101.594 Y98.306 F7800.000
G1 F900
G1 X101.892 Y98.669 E3.05344
G1 X102.114 Y99.083 E3.06568
G1 X102.250 Y99.533 E3.07791
G1 X102.296 Y100.000 E3.09015
G1 X102.250 Y100.467 E3.10239
G1 X102.114 Y100.917 E3.11463
G1 X101.892 Y101.331 E3.12687
G1 X101.594 Y101.694 E3.13911
G1 X101.231 Y101.992 E3.15135
G1 X100.816 Y102.214 E3.16359
G1 X100.367 Y102.350 E3.17583
G1 X99.900 Y102.396 E3.18806
G1 X99.432 Y102.350 E3.20030
G1 X98.983 Y102.214 E3.21254
G1 X98.568 Y101.992 E3.22478
G1 X98.205 Y101.694 E3.23702
G1 X97.907 Y101.331 E3.24926
G1 X97.686 Y100.917 E3.26150
G1 X97.550 Y100.467 E3.27373
G1 X97.504 Y100.000 E3.28597
G1 X97.550 Y99.533 E3.29821
G1 X97.686 Y99.083 E3.31045
G1 X97.907 Y98.669 E3.32269
G1 X98.205 Y98.306 E3.33493
G1 X98.569 Y98.008 E3.34717
G1 X98.985 Y97.785 E3.35947
G1 X99.448 Y97.649 E3.37204
G1 X99.900 Y97.604 E3.38387
G1 X100.367 Y97.650 E3.39611
G1 X100.817 Y97.786 E3.40835
G1 X101.231 Y98.008 E3.42060
G1 X101.548 Y98.268 E3.43127
G1 X101.297 Y98.603 F7800.000
G1 F900
G1 X101.543 Y98.902 E3.44136
G1 X101.726 Y99.244 E3.45146
G1 X101.838 Y99.614 E3.46155
G1 X101.876 Y100.000 E3.47164
G1 X101.838 Y100.386 E3.48174
G1 X101.726 Y100.756 E3.49183
G1 X101.543 Y101.098 E3.50193
G1 X101.297 Y101.397 E3.51202
G1 X100.998 Y101.643 E3.52211
G1 X100.656 Y101.826 E3.53221
G1 X100.285 Y101.938 E3.54231
G1 X99.900 Y101.976 E3.55240
G1 X99.514 Y101.938 E3.56249
G1 X99.143 Y101.826 E3.57259
G1 X98.802 Y101.643 E3.58269
G1 X98.502 Y101.397 E3.59278
G1 X98.256 Y101.098 E3.60287
G1 X98.074 Y100.756 E3.61297
G1 X97.961 Y100.386 E3.62306
G1 X97.923 Y100.000 E3.63315
G1 X97.961 Y99.614 E3.64325
G1 X98.074 Y99.244 E3.65334
G1 X98.257 Y98.902 E3.66344
G1 X98.502 Y98.603 E3.67353
G1 X98.802 Y98.357 E3.68362
G1 X99.144 Y98.174 E3.69374
G1 X99.528 Y98.061 E3.70417
G1 X99.900 Y98.024 E3.71390
G1 X100.285 Y98.062 E3.72399
G1 X100.656 Y98.174 E3.73409
G1 X100.998 Y98.357 E3.74419
G1 X101.251 Y98.565 E3.75272
G1 X101.671 Y98.503 F7800.000
G1 X104.610 Y95.781
G1 F900
G1 X104.610 Y104.219 E3.97260
G1 X95.189 Y104.219 E4.21807
G1 X95.189 Y95.781 E4.43795
G1 X104.550 Y95.781 E4.68185
G1 X105.028 Y95.363 F7800.000
G1 F900
G1 X105.028 Y104.637 E4.92350
G1 X95.015 Y104.637 E5.18439
G1 X94.772 Y104.637 E5.19712
G1 X94.772 Y95.363 E5.68166
G1 X95.015 Y95.363 E5.69439
G1 X104.968 Y95.363 E5.95372
G1 X105.446 Y94.945 F7800.000
G1 F1800
G1 X105.446 Y105.055 E6.21715
G1 X95.015 Y105.055 E6.48892
G1 F3600
G1 X94.354 Y105.055 E6.52348
G1 X94.354 Y94.945 E7.05168
G1 X95.015 Y94.945 E7.08624
G1 F1800
G1 X105.386 Y94.945 E7.35645
G1 X99.109 Y97.182 F7800.000
G1 F1200
G1 X100.197 Y96.094 E7.39728
G1 X100.799 Y96.094 E7.41323
G1 X100.012 Y96.880 E7.44273
G1 X100.552 Y96.942 E7.45714
G1 X101.400 Y96.094 E7.48895
G1 X102.001 Y96.094 E7.50490
G1 X101.013 Y97.082 E7.54196
G1 X101.098 Y97.108 E7.54431
G1 X101.418 Y97.279 E7.55393
G1 X102.603 Y96.094 E7.59838
G1 X103.204 Y96.094 E7.61433
G1 X101.783 Y97.515 E7.66763
G1 X102.113 Y97.786 E7.67897
G1 X103.806 Y96.094 E7.74244
G1 X104.297 Y96.094 E7.75546
G1 X104.297 Y96.204 E7.75839
G1 X102.385 Y98.116 E7.83011
G1 X102.503 Y98.261 E7.83506
G1 X102.621 Y98.482 E7.84170
G1 X104.297 Y96.806 E7.90456
G1 X104.297 Y97.407 E7.92051
G1 X102.818 Y98.886 E7.97598
G1 X102.958 Y99.348 E7.98877
G1 X104.297 Y98.009 E8.03900
G1 X104.297 Y98.610 E8.05495
G1 X103.020 Y99.887 E8.10286
G1 X103.031 Y100.000 E8.10586
G1 X102.979 Y100.530 E8.11998
G1 X104.297 Y99.212 E8.16943
G1 X104.297 Y99.813 E8.18538
G1 X100.204 Y103.906 E8.33890
G1 X100.805 Y103.906 E8.35486
G1 X104.297 Y100.414 E8.48582
G1 X104.297 Y101.016 E8.50177
G1 X101.407 Y103.906 E8.61018
G1 X102.008 Y103.906 E8.62613
G1 X104.297 Y101.617 E8.71197
G1 X104.297 Y102.219 E8.72793
G1 X102.610 Y103.906 E8.79121
G1 X103.211 Y103.906 E8.80716
G1 X104.297 Y102.820 E8.84789
G1 X104.297 Y103.422 E8.86385
G1 X103.624 Y104.094 E8.88907
G1 X99.414 Y104.094 F7800.000
G1 F1200
G1 X100.430 Y103.078 E8.92716
G1 X99.900 Y103.131 E8.94129
G1 X99.787 Y103.120 E8.94429
G1 X99.001 Y103.906 E8.97379
G1 X98.399 Y103.906 E8.98974
G1 X99.248 Y103.058 E9.02155
G1 X98.786 Y102.918 E9.03434
G1 X97.798 Y103.906 E9.07140
G1 X97.197 Y103.906 E9.08736
G1 X98.381 Y102.721 E9.13180
G1 X98.160 Y102.603 E9.13845
G1 X98.016 Y102.485 E9.14339
G1 X96.595 Y103.906 E9.19669
G1 X95.994 Y103.906 E9.21265
G1 X97.686 Y102.214 E9.27612
G1 X97.415 Y101.883 E9.28745
G1 X95.503 Y103.796 E9.35918
G1 X95.503 Y103.194 E9.37513
G1 X97.178 Y101.518 E9.43798
G1 X97.007 Y101.198 E9.44762
G1 X96.982 Y101.114 E9.44995
G1 X95.503 Y102.593 E9.50542
G1 X95.503 Y101.991 E9.52137
G1 X96.842 Y100.652 E9.57160
G1 X96.780 Y100.113 E9.58600
G1 X95.503 Y101.390 E9.63391
G1 X95.503 Y100.788 E9.64986
G1 X97.079 Y99.212 E9.70900
G1 X95.315 Y100.375 F7800.000
G1 F1200
G1 X99.596 Y96.094 E9.86957
G1 X98.994 Y96.094 E9.88552
G1 X95.503 Y99.585 E10.01648
G1 X95.503 Y98.984 E10.03243
G1 X98.393 Y96.094 E10.14083
G1 X97.791 Y96.094 E10.15679
G1 X95.503 Y98.383 E10.24263
G1 X95.503 Y97.781 E10.25858
G1 X97.190 Y96.094 E10.32186
G1 X96.588 Y96.094 E10.33781
G1 X95.503 Y97.180 E10.37854
G1 X95.503 Y96.578 E10.39449
G1 X96.175 Y95.906 E10.41971
G1 Z0.700 F7800.000
G1 X101.894 Y98.009
G1 F900
G1 X102.244 Y98.436 E10.43409
G1 X102.504 Y98.922 E10.44847
G1 X102.665 Y99.451 E10.46285
G1 X102.719 Y100.000 E10.47724
G1 X102.665 Y100.549 E10.49162
G1 X102.504 Y101.078 E10.50600
G1 X102.244 Y101.565 E10.52039
G1 X101.894 Y101.991 E10.53477
G1 X101.467 Y102.341 E10.54916
G1 X100.980 Y102.601 E10.56354
G1 X100.452 Y102.762 E10.57792
G1 X99.903 Y102.816 E10.59230
G1 X99.353 Y102.762 E10.60669
G1 X98.825 Y102.601 E10.62107
G1 X98.338 Y102.341 E10.63546
G1 X97.911 Y101.991 E10.64983
G1 X97.561 Y101.564 E10.66422
G1 X97.301 Y101.078 E10.67860
G1 X97.141 Y100.549 E10.69298
G1 X97.087 Y100.000 E10.70737
G1 X97.141 Y99.450 E10.72176
G1 X97.301 Y98.922 E10.73614
G1 X97.561 Y98.435 E10.75052
G1 X97.911 Y98.009 E10.76490
G1 X98.338 Y97.659 E10.77929
G1 X98.830 Y97.396 E10.79381
G1 X99.377 Y97.236 E10.80867
G1 X99.903 Y97.184 E10.82243
G1 X100.452 Y97.238 E10.83681
G1 X100.980 Y97.399 E10.85119
G1 X101.467 Y97.659 E10.86559
G1 X101.848 Y97.971 E10.87839
G1 X101.597 Y98.306 F7800.000
G1 F900
G1 X101.895 Y98.669 E10.89064
G1 X102.116 Y99.083 E10.90287
G1 X102.253 Y99.533 E10.91511
G1 X102.299 Y100.000 E10.92735
G1 X102.253 Y100.467 E10.93959
G1 X102.116 Y100.917 E10.95183
G1 X101.895 Y101.331 E10.96407
G1 X101.597 Y101.694 E10.97630
G1 X101.234 Y101.992 E10.98854
G1 X100.820 Y102.214 E11.00078
G1 X100.370 Y102.350 E11.01302
G1 X99.903 Y102.396 E11.02526
G1 X99.435 Y102.350 E11.03750
G1 X98.986 Y102.214 E11.04974
G1 X98.571 Y101.992 E11.06198
G1 X98.208 Y101.694 E11.07421
G1 X97.910 Y101.331 E11.08645
G1 X97.689 Y100.917 E11.09869
G1 X97.552 Y100.467 E11.11093
G1 X97.506 Y100.000 E11.12317
G1 X97.553 Y99.532 E11.13541
G1 X97.689 Y99.083 E11.14765
G1 X97.910 Y98.669 E11.15989
G1 X98.208 Y98.306 E11.17212
G1 X98.571 Y98.008 E11.18436
G1 X98.989 Y97.785 E11.19669
G1 X99.457 Y97.648 E11.20940
G1 X99.903 Y97.604 E11.22107
G1 X100.370 Y97.650 E11.23331
G1 X100.820 Y97.786 E11.24555
G1 X101.234 Y98.008 E11.25780
G1 X101.551 Y98.268 E11.26846
G1 X101.300 Y98.603 F7800.000
G1 F900
G1 X101.546 Y98.902 E11.27856
G1 X101.729 Y99.244 E11.28865
G1 X101.841 Y99.614 E11.29874
G1 X101.879 Y100.000 E11.30884
G1 X101.841 Y100.386 E11.31893
G1 X101.729 Y100.756 E11.32902
G1 X101.546 Y101.098 E11.33912
G1 X101.300 Y101.397 E11.34921
G1 X101.001 Y101.643 E11.35931
G1 X100.659 Y101.826 E11.36940
G1 X100.288 Y101.938 E11.37950
G1 X99.903 Y101.976 E11.38959
G1 X99.517 Y101.938 E11.39969
G1 X99.146 Y101.826 E11.40978
G1 X98.805 Y101.643 E11.41988
G1 X98.505 Y101.397 E11.42997
G1 X98.259 Y101.098 E11.44006
G1 X98.077 Y100.756 E11.45016
G1 X97.964 Y100.386 E11.46025
G1 X97.926 Y100.000 E11.47035
