; generated by PrusaSlicer 2.1.1+ on 2021-06-27 at 14:03:59 UTC

; 

; external perimeters extrusion width = 0.45mm
; perimeters extrusion width = 0.45mm
; infill extrusion width = 0.45mm
; solid infill extrusion width = 0.45mm
; top infill extrusion width = 0.40mm
; first layer extrusion width = 0.80mm

M107
M190 S60 ; set bed temperature and wait for it to be reached
M104 S200 ; set temperature
G28 ; home all axes
G1 Z5 F5000 ; lift nozzle
M109 S200 ; set temperature and wait for it to be reached
G21 ; set units to millimeters
G90 ; use absolute coordinates
M82 ; use absolute distances for extrusion
G92 E0
; Filament gcode
G1 Z0.400 F7800.000
G1 E-2.00000 F2400.00000
G92 E0
G1 X92.441 Y89.573 F7800.000
G1 E2.00000 F2400.00000
G1 F1800
G1 X93.574 Y88.711 E2.16906
G1 X94.870 Y88.123 E2.33811
G1 X95.728 Y87.909 E2.44308
G1 X96.607 Y87.817 E2.54804
G1 X103.599 Y87.813 E3.37844
G1 X104.616 Y87.896 E3.49963
G1 X105.606 Y88.140 E3.62083
G1 X106.545 Y88.540 E3.74202
G1 X107.408 Y89.085 E3.86322
G1 X108.168 Y89.757 E3.98368
G1 X108.815 Y90.546 E4.10487
G1 X109.328 Y91.428 E4.22607
G1 X109.693 Y92.381 E4.34726
G1 X109.876 Y93.208 E4.44780
G1 X109.948 Y94.051 E4.54833
G1 X109.949 Y105.892 E5.95466
G1 X109.842 Y106.994 E6.08617
G1 X109.543 Y108.067 E6.21843
G1 X108.833 Y109.428 E6.40071
G1 X107.818 Y110.579 E6.58299
G1 X106.557 Y111.454 E6.76527
G1 X105.123 Y112.000 E6.94755
G1 X103.730 Y112.186 E7.11441
G1 X96.701 Y112.186 E7.94924
G1 X95.630 Y112.073 E8.07707
G1 X94.594 Y111.780 E8.20490
G1 X93.857 Y111.448 E8.30101
G1 X93.162 Y111.021 E8.39786
G1 X92.528 Y110.509 E8.49470
G1 X91.964 Y109.919 E8.59155
G1 X91.481 Y109.262 E8.68839
G1 X91.085 Y108.549 E8.78524
G1 X90.784 Y107.791 E8.88209
G1 X90.583 Y107.001 E8.97893
G1 X90.475 Y105.880 E9.11266
G1 X90.476 Y94.045 E10.51824
G1 X90.588 Y92.975 E10.64607
G1 X90.881 Y91.933 E10.77464
G1 X91.528 Y90.665 E10.94370
G1 X92.402 Y89.619 E11.10563
G1 E9.10563 F2400.00000
G92 E0
G1 X101.764 Y104.002 F7800.000
G1 E2.00000 F2400.00000
G1 F1800
G1 X98.660 Y104.002 E2.36868
G1 X98.660 Y95.998 E3.31920
G1 X101.764 Y95.998 E3.68788
G1 X101.764 Y103.942 E4.63127
G1 X102.478 Y104.716 F7800.000
G1 F1800
G1 X97.946 Y104.716 E5.16958
G1 X97.946 Y95.284 E6.28974
G1 X102.478 Y95.284 E6.82805
G1 X102.478 Y104.656 E7.94108
G1 X103.192 Y105.430 F7800.000
G1 F1800
G1 X97.231 Y105.430 E8.64903
G1 X97.231 Y94.570 E9.93882
G1 X103.192 Y94.570 E10.64676
G1 X103.192 Y105.370 E11.92943
G1 X102.817 Y105.290 F7800.000
G1 E9.92943 F2400.00000
G92 E0
G1 X100.362 Y103.787 F7800.000
G1 E2.00000 F2400.00000
G1 F1800
G1 X99.195 Y102.621 E2.20157
G1 X99.195 Y101.582 E2.32860
G1 X101.080 Y103.466 E2.65427
G1 X101.228 Y103.466 E2.67247
G1 X101.228 Y102.576 E2.78130
G1 X99.195 Y100.543 E3.13270
G1 X99.195 Y99.503 E3.25973
G1 X101.228 Y101.536 E3.61114
G1 X101.228 Y100.497 E3.73817
G1 X99.195 Y98.464 E4.08957
G1 X99.195 Y97.425 E4.21660
G1 X101.228 Y99.458 E4.56801
G1 X101.228 Y98.418 E4.69504
G1 X99.344 Y96.534 E5.02073
G1 X100.383 Y96.534 E5.14776
G1 X101.550 Y97.700 E5.34935
G1 Z0.550 F7800.000
M140 S55 ; set bed temperature
G1 X102.527 Y104.769
G1 F900
G1 X97.888 Y104.769 E5.47024
G1 X97.888 Y95.231 E5.71878
G1 X102.527 Y95.231 E5.83967
G1 X102.527 Y104.709 E6.08665
G1 X102.945 Y105.187 F7800.000
G1 F900
G1 X97.470 Y105.187 E6.22931
G1 X97.470 Y94.813 E6.49962
G1 X102.945 Y94.813 E6.64229
G1 X102.945 Y105.127 E6.91103
G1 X103.363 Y105.605 F7800.000
G1 F900
G1 X97.052 Y105.605 E7.07547
G1 X97.052 Y94.395 E7.36755
G1 X103.363 Y94.395 E7.53199
G1 X103.363 Y105.545 E7.82251
G1 X102.987 Y105.467 F7800.000
G1 X101.546 Y104.644
G1 F1200
G1 X102.214 Y103.976 E7.84742
G1 X102.214 Y103.378 E7.86321
G1 X101.136 Y104.456 E7.90343
G1 X100.538 Y104.456 E7.91921
G1 X102.214 Y102.780 E7.98176
G1 X102.214 Y102.181 E7.99754
G1 X99.939 Y104.456 E8.08241
G1 X99.341 Y104.456 E8.09819
G1 X102.214 Y101.583 E8.20538
G1 X102.214 Y100.985 E8.22117
G1 X98.743 Y104.456 E8.35068
G1 X98.201 Y104.456 E8.36498
G1 X98.201 Y104.400 E8.36646
G1 X102.214 Y100.387 E8.51619
G1 X102.214 Y99.788 E8.53198
G1 X98.201 Y103.801 E8.68171
G1 X98.201 Y103.203 E8.69749
G1 X102.214 Y99.190 E8.84722
G1 X102.214 Y98.592 E8.86300
G1 X98.201 Y102.605 E9.01273
G1 X98.201 Y102.006 E9.02852
G1 X102.214 Y97.993 E9.17825
G1 X102.214 Y97.395 E9.19403
G1 X98.201 Y101.408 E9.34376
G1 X98.201 Y100.810 E9.35954
G1 X102.214 Y96.797 E9.50927
G1 X102.214 Y96.199 E9.52506
G1 X98.201 Y100.212 E9.67479
G1 X98.201 Y99.613 E9.69057
G1 X102.214 Y95.600 E9.84030
G1 X102.214 Y95.544 E9.84179
G1 X101.672 Y95.544 E9.85608
G1 X98.201 Y99.015 E9.98559
G1 X98.201 Y98.417 E10.00138
G1 X101.074 Y95.544 E10.10856
G1 X100.475 Y95.544 E10.12435
G1 X98.201 Y97.818 E10.20921
G1 X98.201 Y97.220 E10.22499
G1 X99.877 Y95.544 E10.28753
G1 X99.279 Y95.544 E10.30332
G1 X98.201 Y96.622 E10.34353
G1 X98.201 Y96.024 E10.35932
G1 X98.868 Y95.356 E10.38423
G1 Z0.700 F7800.000
G1 X102.525 Y104.769
G1 F900
G1 X97.885 Y104.769 E10.50512
G1 X97.885 Y95.231 E10.75366
G1 X102.525 Y95.231 E10.87455
G1 X102.525 Y104.709 E11.12152
G1 X102.943 Y105.187 F7800.000
G1 F900
G1 X97.467 Y105.187 E11.26419
G1 X97.467 Y94.813 E11.53450
G1 X102.943 Y94.813 E11.67716
G1 X102.943 Y105.127 E11.94591
G1 X103.360 Y105.605 F7800.000
G1 F900
G1 X97.050 Y105.605 E12.11034
G1 X97.050 Y94.395 E12.40243
G1 X103.360 Y94.395 E12.56687
G1 X103.360 Y105.545 E12.85739
G1 X102.985 Y105.467 F7800.000
G1 X98.010 Y103.788
G1 F1200
G1 X98.678 Y104.456 E12.88230
G1 X99.276 Y104.456 E12.89808
G1 X98.198 Y103.378 E12.93830
G1 X98.198 Y102.780 E12.95408
G1 X99.875 Y104.456 E13.01662
G1 X100.473 Y104.456 E13.03240
G1 X98.198 Y102.182 E13.11727
G1 X98.198 Y101.583 E13.13305
G1 X101.071 Y104.456 E13.24024
G1 X101.669 Y104.456 E13.25602
G1 X98.198 Y100.985 E13.38553
G1 X98.198 Y100.387 E13.40131
G1 X102.211 Y104.400 E13.55104
G1 X102.211 Y103.801 E13.56682
G1 X98.198 Y99.788 E13.71655
G1 X98.198 Y99.190 E13.73234
G1 X102.211 Y103.203 E13.88207
G1 X102.211 Y102.605 E13.89785
G1 X98.198 Y98.592 E14.04758
G1 X98.198 Y97.994 E14.06336
G1 X102.211 Y102.007 E14.21309
G1 X102.211 Y101.408 E14.22888
G1 X98.198 Y97.395 E14.37860
G1 X98.198 Y96.797 E14.39439
G1 X102.211 Y100.810 E14.54412
G1 X102.211 Y100.212 E14.55990
G1 X98.198 Y96.199 E14.70963
G1 X98.198 Y95.600 E14.72542
G1 X102.211 Y99.613 E14.87514
G1 X102.211 Y99.015 E14.89093
G1 X98.740 Y95.544 E15.02044
G1 X99.339 Y95.544 E15.03622
G1 X102.211 Y98.417 E15.14341
G1 X102.211 Y97.819 E15.15920
G1 X99.937 Y95.544 E15.24406
G1 X100.535 Y95.544 E15.25985
G1 X102.211 Y97.220 E15.32239
G1 X102.211 Y96.622 E15.33818
G1 X101.133 Y95.544 E15.37840
G1 X101.732 Y95.544 E15.39418
G1 X102.399 Y96.212 E15.41910
M106 S234.6
G1 Z0.850 F7800.000
G1 X102.522 Y104.769
G1 F900
G1 X97.883 Y104.769 E15.53999
G1 X97.883 Y95.231 E15.78853
G1 X102.522 Y95.231 E15.90941
G1 X102.522 Y104.709 E16.15639
G1 X102.940 Y105.187 F7800.000
G1 F900
G1 X97.465 Y105.187 E16.29905
G1 X97.465 Y94.813 E16.56937
G1 X102.940 Y94.813 E16.71203
G1 X102.940 Y105.127 E16.98078
G1 X103.358 Y105.605 F7800.000
G1 F900
G1 X97.047 Y105.605 E17.14521
G1 X97.047 Y94.395 E17.43730
G1 X103.358 Y94.395 E17.60173
G1 X103.358 Y105.545 E17.89226
G1 X102.983 Y105.467 F7800.000
G1 X101.541 Y104.644
G1 F1200
G1 X102.209 Y103.976 E17.91717
G1 X102.209 Y103.378 E17.93295
G1 X101.131 Y104.456 E17.97317
G1 X100.533 Y104.456 E17.98896
G1 X102.209 Y102.780 E18.05150
G1 X102.209 Y102.181 E18.06729
G1 X99.934 Y104.456 E18.15215
G1 X99.336 Y104.456 E18.16794
G1 X102.209 Y101.583 E18.27513
G1 X102.209 Y100.985 E18.29091
G1 X98.738 Y104.456 E18.42042
G1 X98.196 Y104.456 E18.43472
G1 X98.196 Y104.400 E18.43621
G1 X102.209 Y100.387 E18.58594
G1 X102.209 Y99.788 E18.60172
G1 X98.196 Y103.801 E18.75145
G1 X98.196 Y103.203 E18.76723
G1 X102.209 Y99.190 E18.91696
G1 X102.209 Y98.592 E18.93275
G1 X98.196 Y102.605 E19.08248
G1 X98.196 Y102.006 E19.09826
G1 X102.209 Y97.993 E19.24799
G1 X102.209 Y97.395 E19.26377
G1 X98.196 Y101.408 E19.41350
G1 X98.196 Y100.810 E19.42929
G1 X102.209 Y96.797 E19.57901
G1 X102.209 Y96.199 E19.59480
G1 X98.196 Y100.212 E19.74453
G1 X98.196 Y99.613 E19.76031
G1 X102.209 Y95.600 E19.91004
G1 X102.209 Y95.544 E19.91153
G1 X101.667 Y95.544 E19.92582
G1 X98.196 Y99.015 E20.05533
G1 X98.196 Y98.417 E20.07112
G1 X101.069 Y95.544 E20.17830
G1 X100.470 Y95.544 E20.19409
G1 X98.196 Y97.818 E20.27895
G1 X98.196 Y97.220 E20.29473
G1 X99.872 Y95.544 E20.35727
G1 X99.274 Y95.544 E20.37306
G1 X98.196 Y96.622 E20.41327
G1 X98.196 Y96.024 E20.42906
G1 X98.864 Y95.356 E20.45396
G1 Z1.000 F7800.000
G1 X102.520 Y104.769
G1 F900
G1 X97.880 Y104.769 E20.57485
G1 X97.880 Y95.231 E20.82339
G1 X102.520 Y95.231 E20.94428
G1 X102.520 Y104.709 E21.19126
G1 X102.938 Y105.187 F7800.000
G1 F900
G1 X97.462 Y105.187 E21.33392
G1 X97.462 Y94.813 E21.60424
G1 X102.938 Y94.813 E21.74690
G1 X102.938 Y105.127 E22.01565
G1 X103.356 Y105.605 F7800.000
G1 F900
G1 X97.045 Y105.605 E22.18008
G1 X97.045 Y94.395 E22.47217
G1 X103.356 Y94.395 E22.63660
G1 X103.356 Y105.545 E22.92712
G1 X102.980 Y105.467 F7800.000
G1 X98.006 Y103.788
G1 F1200
G1 X98.673 Y104.456 E22.95203
G1 X99.271 Y104.456 E22.96782
G1 X98.194 Y103.378 E23.00803
G1 X98.194 Y102.780 E23.02382
G1 X99.870 Y104.456 E23.08636
G1 X100.468 Y104.456 E23.10214
G1 X98.194 Y102.182 E23.18700
G1 X98.194 Y101.583 E23.20279
G1 X101.066 Y104.456 E23.30997
G1 X101.665 Y104.456 E23.32576
G1 X98.194 Y100.985 E23.45526
G1 X98.194 Y100.387 E23.47105
G1 X102.207 Y104.400 E23.62078
G1 X102.207 Y103.801 E23.63656
G1 X98.194 Y99.788 E23.78629
G1 X98.194 Y99.190 E23.80207
G1 X102.207 Y103.203 E23.95180
G1 X102.207 Y102.605 E23.96759
G1 X98.194 Y98.592 E24.11732
G1 X98.194 Y97.994 E24.13310
G1 X102.207 Y102.007 E24.28283
G1 X102.207 Y101.408 E24.29861
G1 X98.194 Y97.395 E24.44834
G1 X98.194 Y96.797 E24.46413
G1 X102.207 Y100.810 E24.61386
G1 X102.207 Y100.212 E24.62964
G1 X98.194 Y96.199 E24.77937
G1 X98.194 Y95.600 E24.79515
G1 X102.207 Y99.613 E24.94488
G1 X102.207 Y99.015 E24.96067
G1 X98.735 Y95.544 E25.09018
G1 X99.334 Y95.544 E25.10596
G1 X102.207 Y98.417 E25.21315
G1 X102.207 Y97.819 E25.22894
G1 X99.932 Y95.544 E25.31380
G1 X100.530 Y95.544 E25.32959
G1 X102.207 Y97.220 E25.39213
G1 X102.207 Y96.622 E25.40791
G1 X101.129 Y95.544 E25.44814
G1 X101.727 Y95.544 E25.46392
G1 X102.395 Y96.212 E25.48883
G1 Z1.150 F7800.000
G1 X102.517 Y104.769
G1 F900
G1 X97.878 Y104.769 E25.60972
G1 X97.878 Y95.231 E25.85826
G1 X102.517 Y95.231 E25.97915
G1 X102.517 Y104.709 E26.22613
G1 X102.935 Y105.187 F7800.000
G1 F900
G1 X97.460 Y105.187 E26.36879
G1 X97.460 Y94.813 E26.63910
G1 X102.935 Y94.813 E26.78177
G1 X102.935 Y105.127 E27.05052
G1 X103.353 Y105.605 F7800.000
G1 F900
G1 X97.042 Y105.605 E27.21495
G1 X97.042 Y94.395 E27.50704
G1 X103.353 Y94.395 E27.67147
G1 X103.353 Y105.545 E27.96199
G1 X102.978 Y105.467 F7800.000
G1 X101.536 Y104.644
G1 F1200
G1 X102.204 Y103.976 E27.98691
G1 X102.204 Y103.378 E28.00269
G1 X101.126 Y104.456 E28.04291
G1 X100.528 Y104.456 E28.05870
G1 X102.204 Y102.780 E28.12124
G1 X102.204 Y102.181 E28.13702
G1 X99.930 Y104.456 E28.22189
G1 X99.331 Y104.456 E28.23767
G1 X102.204 Y101.583 E28.34486
G1 X102.204 Y100.985 E28.36065
G1 X98.733 Y104.456 E28.49016
G1 X98.191 Y104.456 E28.50445
G1 X98.191 Y104.400 E28.50594
G1 X102.204 Y100.387 E28.65567
G1 X102.204 Y99.788 E28.67145
G1 X98.191 Y103.801 E28.82118
G1 X98.191 Y103.203 E28.83697
G1 X102.204 Y99.190 E28.98669
G1 X102.204 Y98.592 E29.00248
G1 X98.191 Y102.605 E29.15221
G1 X98.191 Y102.006 E29.16799
G1 X102.204 Y97.993 E29.31772
G1 X102.204 Y97.395 E29.33350
G1 X98.191 Y101.408 E29.48323
G1 X98.191 Y100.810 E29.49902
G1 X102.204 Y96.797 E29.64874
G1 X102.204 Y96.199 E29.66453
G1 X98.191 Y100.212 E29.81426
G1 X98.191 Y99.613 E29.83004
G1 X102.204 Y95.600 E29.97977
G1 X102.204 Y95.544 E29.98125
G1 X101.662 Y95.544 E29.99555
G1 X98.191 Y99.015 E30.12506
G1 X98.191 Y98.417 E30.14084
G1 X101.064 Y95.544 E30.24803
G1 X100.466 Y95.544 E30.26381
G1 X98.191 Y97.818 E30.34867
G1 X98.191 Y97.220 E30.36446
G1 X99.867 Y95.544 E30.42700
G1 X99.269 Y95.544 E30.44278
G1 X98.191 Y96.622 E30.48300
G1 X98.191 Y96.024 E30.49878
G1 X98.859 Y95.356 E30.52369
G1 Z1.300 F7800.000
G1 X102.515 Y104.769
G1 F900
G1 X97.875 Y104.769 E30.64458
G1 X97.875 Y95.231 E30.89312
G1 X102.515 Y95.231 E31.01401
G1 X102.515 Y104.709 E31.26099
G1 X102.933 Y105.187 F7800.000
G1 F900
G1 X97.458 Y105.187 E31.40365
G1 X97.458 Y94.813 E31.67396
G1 X102.933 Y94.813 E31.81662
G1 X102.933 Y105.127 E32.08537
G1 X103.351 Y105.605 F7800.000
G1 F900
G1 X97.040 Y105.605 E32.24981
G1 X97.040 Y94.395 E32.54189
G1 X103.351 Y94.395 E32.70633
G1 X103.351 Y105.545 E32.99685
G1 X102.975 Y105.467 F7800.000
G1 X98.001 Y103.788
G1 F1200
G1 X98.668 Y104.456 E33.02176
G1 X99.267 Y104.456 E33.03754
G1 X98.189 Y103.378 E33.07776
G1 X98.189 Y102.780 E33.09354
G1 X99.865 Y104.456 E33.15608
G1 X100.463 Y104.456 E33.17187
G1 X98.189 Y102.182 E33.25673
G1 X98.189 Y101.583 E33.27251
G1 X101.061 Y104.456 E33.37970
G1 X101.660 Y104.456 E33.39548
G1 X98.189 Y100.985 E33.52499
G1 X98.189 Y100.387 E33.54077
G1 X102.202 Y104.400 E33.69050
G1 X102.202 Y103.801 E33.70629
G1 X98.189 Y99.788 E33.85601
G1 X98.189 Y99.190 E33.87180
G1 X102.202 Y103.203 E34.02152
G1 X102.202 Y102.605 E34.03731
G1 X98.189 Y98.592 E34.18704
G1 X98.189 Y97.994 E34.20282
G1 X102.202 Y102.007 E34.35255
G1 X102.202 Y101.408 E34.36833
G1 X98.189 Y97.395 E34.51806
G1 X98.189 Y96.797 E34.53385
G1 X102.202 Y100.810 E34.68357
G1 X102.202 Y100.212 E34.69936
G1 X98.189 Y96.199 E34.84909
G1 X98.189 Y95.600 E34.86487
G1 X102.202 Y99.613 E35.01460
G1 X102.202 Y99.015 E35.03038
G1 X98.731 Y95.544 E35.15989
G1 X99.329 Y95.544 E35.17568
G1 X102.202 Y98.417 E35.28287
G1 X102.202 Y97.819 E35.29865
G1 X99.927 Y95.544 E35.38352
G1 X100.525 Y95.544 E35.39930
G1 X102.202 Y97.220 E35.46185
G1 X102.202 Y96.622 E35.47763
G1 X101.124 Y95.544 E35.51785
G1 X101.722 Y95.544 E35.53364
G1 X102.390 Y96.212 E35.55855
G1 Z1.450 F7800.000
G1 X102.513 Y104.769
G1 F900
G1 X97.873 Y104.769 E35.67944
G1 X97.873 Y95.231 E35.92798
G1 X102.513 Y95.231 E36.04887
G1 X102.513 Y104.709 E36.29584
G1 X102.930 Y105.187 F7800.000
G1 F900
G1 X97.455 Y105.187 E36.43851
G1 X97.455 Y94.813 E36.70882
G1 X102.930 Y94.813 E36.85148
G1 X102.930 Y105.127 E37.12023
G1 X103.348 Y105.605 F7800.000
G1 F900
G1 X97.037 Y105.605 E37.28467
G1 X97.037 Y94.395 E37.57675
G1 X103.348 Y94.395 E37.74119
G1 X103.348 Y105.545 E38.03171
G1 X102.973 Y105.467 F7800.000
G1 X101.532 Y104.644
G1 F1200
G1 X102.199 Y103.976 E38.05662
G1 X102.199 Y103.378 E38.07241
G1 X101.121 Y104.456 E38.11263
G1 X100.523 Y104.456 E38.12841
G1 X102.199 Y102.780 E38.19095
G1 X102.199 Y102.181 E38.20674
G1 X99.925 Y104.456 E38.29160
G1 X99.326 Y104.456 E38.30739
G1 X102.199 Y101.583 E38.41458
G1 X102.199 Y100.985 E38.43036
G1 X98.728 Y104.456 E38.55987
G1 X98.186 Y104.456 E38.57417
G1 X98.186 Y104.400 E38.57566
G1 X102.199 Y100.387 E38.72539
G1 X102.199 Y99.788 E38.74117
G1 X98.186 Y103.801 E38.89090
G1 X98.186 Y103.203 E38.90668
G1 X102.199 Y99.190 E39.05641
G1 X102.199 Y98.592 E39.07219
G1 X98.186 Y102.605 E39.22192
G1 X98.186 Y102.006 E39.23771
G1 X102.199 Y97.993 E39.38743
G1 X102.199 Y97.395 E39.40322
G1 X98.186 Y101.408 E39.55295
G1 X98.186 Y100.810 E39.56873
G1 X102.199 Y96.797 E39.71846
G1 X102.199 Y96.199 E39.73424
G1 X98.186 Y100.212 E39.88397
G1 X98.186 Y99.613 E39.89975
G1 X102.199 Y95.600 E40.04948
G1 X102.199 Y95.544 E40.05097
G1 X101.657 Y95.544 E40.06527
G1 X98.186 Y99.015 E40.19477
G1 X98.186 Y98.417 E40.21056
G1 X101.059 Y95.544 E40.31774
G1 X100.461 Y95.544 E40.33353
G1 X98.186 Y97.818 E40.41839
G1 X98.186 Y97.220 E40.43417
G1 X99.862 Y95.544 E40.49671
G1 X99.264 Y95.544 E40.51250
G1 X98.186 Y96.622 E40.55271
G1 X98.186 Y96.024 E40.56850
G1 X98.854 Y95.356 E40.59341
G1 Z1.600 F7800.000
G1 X102.510 Y104.769
G1 F900
G1 X97.870 Y104.769 E40.71430
G1 X97.870 Y95.231 E40.96284
G1 X102.510 Y95.231 E41.08372
G1 X102.510 Y104.709 E41.33070
G1 X102.928 Y105.187 F7800.000
G1 F900
G1 X97.453 Y105.187 E41.47336
G1 X97.453 Y94.813 E41.74368
