; generated by PrusaSlicer 2.1.1+ on 2021-06-16 at 19:53:45 UTC

; 

; external perimeters extrusion width = 0.45mm
; perimeters extrusion width = 0.45mm
; infill extrusion width = 0.45mm
; solid infill extrusion width = 0.45mm
; top infill extrusion width = 0.40mm
; first layer extrusion width = 0.80mm

M107
M190 S60 ; set bed temperature and wait for it to be reached
M104 S200 ; set temperature
G28 ; home all axes
G1 Z5 F5000 ; lift nozzle
M109 S200 ; set temperature and wait for it to be reached
G21 ; set units to millimeters
G90 ; use absolute coordinates
M82 ; use absolute distances for extrusion
G92 E0
; Filament gcode
G1 Z0.400 F7800.000
G1 E-2.00000 F2400.00000
G92 E0
G1 X50.829 Y64.488 F7800.000
G1 E2.00000 F2400.00000
G1 F1800
G1 X51.840 Y63.495 E2.16832
G1 X52.702 Y62.927 E2.29099
G1 X53.639 Y62.507 E2.41292
G1 X54.638 Y62.243 E2.53559
G1 X55.666 Y62.144 E2.65826
G1 X144.246 Y62.143 E13.17851
G1 X145.447 Y62.259 E13.32181
G1 X146.599 Y62.597 E13.46438
G1 X147.672 Y63.149 E13.60768
G1 X148.617 Y63.889 E13.75025
G1 X149.405 Y64.794 E13.89282
G1 X150.013 Y65.837 E14.03612
G1 X150.412 Y66.976 E14.17942
G1 X150.588 Y68.163 E14.32199
G1 X150.593 Y131.724 E21.87082
G1 X150.395 Y133.090 E22.03473
G1 X149.904 Y134.386 E22.19937
G1 X149.148 Y135.541 E22.36328
G1 X148.160 Y136.505 E22.52719
G1 X147.298 Y137.073 E22.64986
G1 X146.361 Y137.493 E22.77179
G1 X145.362 Y137.757 E22.89446
G1 X144.334 Y137.856 E23.01713
G1 X55.691 Y137.857 E33.54478
G1 X54.285 Y137.684 E33.71310
G1 X52.946 Y137.200 E33.88216
G1 X51.748 Y136.431 E34.05121
G1 X50.755 Y135.420 E34.21953
G1 X50.190 Y134.563 E34.34147
G1 X49.771 Y133.632 E34.46266
G1 X49.506 Y132.640 E34.58459
G1 X49.404 Y131.625 E34.70579
G1 X49.404 Y68.407 E42.21395
G1 X49.582 Y67.001 E42.38227
G1 X50.065 Y65.675 E42.54986
G1 X50.796 Y64.539 E42.71032
G1 E40.71032 F2400.00000
G92 E0
G1 X103.240 Y117.488 F7800.000
G1 E2.00000 F2400.00000
G1 F1800
G1 X101.649 Y117.935 E2.19624
G1 X100.000 Y118.086 E2.39289
G1 X98.351 Y117.935 E2.58955
G1 X96.760 Y117.488 E2.78579
G1 X95.285 Y116.758 E2.98128
G1 X93.982 Y115.766 E3.17582
G1 X92.901 Y114.546 E3.36936
G1 X92.091 Y113.141 E3.56200
G1 X91.588 Y111.605 E3.75398
G1 X91.417 Y110.000 E3.94562
G1 X91.588 Y108.395 E4.13726
G1 X92.091 Y106.859 E4.32924
G1 X92.901 Y105.454 E4.52189
G1 X93.982 Y104.234 E4.71543
G1 X95.285 Y103.242 E4.90996
G1 X96.766 Y102.509 E5.10615
G1 X98.404 Y102.060 E5.30789
G1 X100.000 Y101.914 E5.49826
G1 X101.649 Y102.065 E5.69492
G1 X103.240 Y102.512 E5.89116
G1 X104.715 Y103.242 E6.08665
G1 X106.018 Y104.234 E6.28119
G1 X107.099 Y105.454 E6.47472
G1 X107.909 Y106.859 E6.66737
G1 X108.412 Y108.395 E6.85935
G1 X108.583 Y110.000 E7.05099
G1 X108.412 Y111.605 E7.24263
G1 X107.909 Y113.141 E7.43461
G1 X107.099 Y114.546 E7.62726
G1 X106.018 Y115.766 E7.82079
G1 X104.715 Y116.758 E8.01533
G1 X103.293 Y117.462 E8.20370
G1 X102.982 Y116.819 F7800.000
G1 F1800
G1 X101.519 Y117.230 E8.38425
G1 X100.000 Y117.369 E8.56538
G1 X98.481 Y117.230 E8.74650
G1 X97.018 Y116.819 E8.92706
G1 X95.663 Y116.148 E9.10655
G1 X94.470 Y115.240 E9.28466
G1 X93.484 Y114.127 E9.46129
G1 X92.747 Y112.848 E9.63655
G1 X92.290 Y111.454 E9.81078
G1 X92.136 Y110.000 E9.98444
G1 X92.290 Y108.546 E10.15811
G1 X92.747 Y107.152 E10.33233
G1 X93.484 Y105.873 E10.50759
G1 X94.470 Y104.760 E10.68422
G1 X95.663 Y103.852 E10.86233
G1 X97.021 Y103.180 E11.04225
G1 X98.532 Y102.765 E11.22830
G1 X100.000 Y102.631 E11.40342
G1 X101.519 Y102.770 E11.58455
G1 X102.982 Y103.181 E11.76510
G1 X104.337 Y103.852 E11.94459
G1 X105.530 Y104.760 E12.12270
G1 X106.516 Y105.873 E12.29933
G1 X107.253 Y107.152 E12.47459
G1 X107.710 Y108.546 E12.64882
G1 X107.864 Y110.000 E12.82248
G1 X107.710 Y111.454 E12.99615
G1 X107.253 Y112.848 E13.17037
G1 X106.516 Y114.127 E13.34563
G1 X105.530 Y115.240 E13.52226
G1 X104.337 Y116.148 E13.70037
G1 X103.036 Y116.792 E13.87274
G1 X102.725 Y116.149 F7800.000
G1 F1800
G1 X101.389 Y116.525 E14.03760
G1 X100.000 Y116.652 E14.20321
G1 X98.611 Y116.525 E14.36881
G1 X97.275 Y116.149 E14.53367
G1 X96.042 Y115.538 E14.69716
G1 X94.958 Y114.714 E14.85885
G1 X94.066 Y113.707 E15.01857
G1 X93.402 Y112.556 E15.17645
G1 X92.992 Y111.304 E15.33291
G1 X92.854 Y110.000 E15.48861
G1 X92.992 Y108.696 E15.64430
G1 X93.402 Y107.444 E15.80076
G1 X94.066 Y106.293 E15.95864
G1 X94.958 Y105.286 E16.11836
G1 X96.042 Y104.462 E16.28005
G1 X97.276 Y103.850 E16.44369
G1 X98.660 Y103.471 E16.61406
G1 X100.000 Y103.348 E16.77392
G1 X101.389 Y103.475 E16.93952
G1 X102.725 Y103.851 E17.10438
G1 X103.958 Y104.462 E17.26787
G1 X105.042 Y105.286 E17.42956
G1 X105.934 Y106.293 E17.58928
G1 X106.598 Y107.444 E17.74716
G1 X107.008 Y108.696 E17.90362
G1 X107.146 Y110.000 E18.05932
G1 X107.008 Y111.304 E18.21501
G1 X106.598 Y112.556 E18.37148
G1 X105.934 Y113.707 E18.52936
G1 X105.042 Y114.714 E18.68907
G1 X103.958 Y115.538 E18.85076
G1 X102.779 Y116.123 E19.00713
G1 X102.663 Y116.544 F7800.000
G1 E17.00713 F2400.00000
G92 E0
G1 X142.412 Y129.672 F7800.000
G1 E2.00000 F2400.00000
G1 F1800
G1 X57.588 Y129.672 E12.07406
G1 X57.588 Y70.328 E19.12198
G1 X142.412 Y70.328 E29.19605
G1 X142.412 Y129.612 E36.23684
G1 X143.126 Y130.386 F7800.000
G1 F1800
G1 X56.874 Y130.386 E46.48054
G1 X56.874 Y69.614 E53.69809
G1 X143.126 Y69.614 E63.94179
G1 X143.126 Y130.326 E71.15222
G1 X143.840 Y131.100 F7800.000
G1 F1800
G1 X56.160 Y131.100 E81.56555
G1 X56.160 Y68.900 E88.95274
G1 X143.840 Y68.900 E99.36607
G1 X143.840 Y131.040 E106.74614
G1 X143.448 Y131.018 F7800.000
G1 E104.74614 F2400.00000
G92 E0
G1 X105.717 Y129.457 F7800.000
G1 E2.00000 F2400.00000
G1 F1800
G1 X58.124 Y81.864 E9.99573
G1 X58.124 Y82.875 E10.11574
G1 X104.385 Y129.136 E17.88775
G1 X103.375 Y129.136 E18.00776
G1 X58.124 Y83.885 E25.61006
G1 X58.124 Y84.895 E25.73007
G1 X102.365 Y129.136 E33.16264
G1 X101.355 Y129.136 E33.28266
G1 X58.124 Y85.905 E40.54551
G1 X58.124 Y86.915 E40.66552
G1 X100.344 Y129.136 E47.75865
G1 X99.334 Y129.136 E47.87867
G1 X58.124 Y87.926 E54.80208
G1 X58.124 Y88.936 E54.92209
G1 X98.324 Y129.136 E61.67578
G1 X97.314 Y129.136 E61.79579
G1 X58.124 Y89.946 E68.37977
G1 X58.124 Y90.956 E68.49978
G1 X96.304 Y129.136 E74.91403
G1 X95.293 Y129.136 E75.03404
G1 X58.124 Y91.967 E81.27857
G1 X58.124 Y92.977 E81.39858
G1 X94.283 Y129.136 E87.47340
G1 X93.273 Y129.136 E87.59341
G1 X58.124 Y93.987 E93.49850
G1 X58.124 Y94.997 E93.61851
G1 X92.263 Y129.136 E99.35388
G1 X91.252 Y129.136 E99.47389
G1 X58.124 Y96.008 E105.03954
G1 X58.124 Y97.018 E105.15955
G1 X90.242 Y129.136 E110.55548
G1 X89.232 Y129.136 E110.67549
G1 X58.124 Y98.028 E115.90170
G1 X58.124 Y99.038 E116.02171
G1 X88.222 Y129.136 E121.07820
G1 X87.212 Y129.136 E121.19822
G1 X58.124 Y100.048 E126.08498
G1 X58.124 Y101.059 E126.20500
G1 X86.201 Y129.136 E130.92204
G1 X85.191 Y129.136 E131.04206
G1 X58.124 Y102.069 E135.58938
G1 X58.124 Y103.079 E135.70939
G1 X84.181 Y129.136 E140.08700
G1 X83.171 Y129.136 E140.20701
G1 X58.124 Y104.089 E144.41490
G1 X58.124 Y105.100 E144.53491
G1 X82.160 Y129.136 E148.57308
G1 X81.150 Y129.136 E148.69309
G1 X58.124 Y106.110 E152.56154
G1 X58.124 Y107.120 E152.68155
G1 X80.140 Y129.136 E156.38028
G1 X79.130 Y129.136 E156.50029
G1 X58.124 Y108.130 E160.02929
G1 X58.124 Y109.141 E160.14930
G1 X78.119 Y129.136 E163.50859
G1 X77.109 Y129.136 E163.62860
G1 X58.124 Y110.151 E166.81817
G1 X58.124 Y111.161 E166.93818
G1 X76.099 Y129.136 E169.95802
G1 X75.089 Y129.136 E170.07803
G1 X58.124 Y112.171 E172.92816
G1 X58.124 Y113.181 E173.04817
G1 X74.079 Y129.136 E175.72857
G1 X73.068 Y129.136 E175.84859
G1 X58.124 Y114.192 E178.35927
G1 X58.124 Y115.202 E178.47928
G1 X72.058 Y129.136 E180.82024
G1 X71.048 Y129.136 E180.94025
G1 X58.124 Y116.212 E183.11150
G1 X58.124 Y117.222 E183.23151
G1 X70.038 Y129.136 E185.23303
G1 X69.027 Y129.136 E185.35304
G1 X58.124 Y118.233 E187.18485
G1 X58.124 Y119.243 E187.30486
G1 X68.017 Y129.136 E188.96694
G1 X67.007 Y129.136 E189.08695
G1 X58.124 Y120.253 E190.57931
G1 X58.124 Y121.263 E190.69932
G1 X65.997 Y129.136 E192.02197
G1 X64.986 Y129.136 E192.14198
G1 X58.124 Y122.274 E193.29490
G1 X58.124 Y123.284 E193.41491
G1 X63.976 Y129.136 E194.39811
G1 X62.966 Y129.136 E194.51812
G1 X58.124 Y124.294 E195.33160
G1 X58.124 Y125.304 E195.45161
G1 X61.956 Y129.136 E196.09537
G1 X60.946 Y129.136 E196.21538
G1 X58.124 Y126.314 E196.68942
G1 X58.124 Y127.325 E196.80943
G1 X59.935 Y129.136 E197.11375
G1 X58.925 Y129.136 E197.23376
G1 X57.803 Y128.014 E197.42236
G1 E195.42236 F2400.00000
G92 E0
G1 X72.058 Y70.543 F7800.000
G1 E2.00000 F2400.00000
G1 F1800
G1 X103.616 Y102.100 E7.30176
G1 X103.433 Y102.010 E7.32602
G1 X102.156 Y101.651 E7.48358
G1 X71.369 Y70.864 E12.65582
G1 X70.359 Y70.864 E12.77583
G1 X100.959 Y101.464 E17.91666
G1 X100.000 Y101.376 E18.03101
G1 X99.873 Y101.388 E18.04622
G1 X69.349 Y70.864 E23.17430
G1 X68.338 Y70.864 E23.29431
G1 X98.947 Y101.472 E28.43659
G1 X98.308 Y101.531 E28.51282
G1 X98.062 Y101.598 E28.54306
G1 X67.328 Y70.864 E33.70645
G1 X66.318 Y70.864 E33.82646
G1 X97.269 Y101.816 E39.02639
G1 X96.574 Y102.006 E39.11206
G1 X96.491 Y102.047 E39.12305
G1 X65.308 Y70.864 E44.36194
G1 X64.297 Y70.864 E44.48195
G1 X95.816 Y102.382 E49.77706
G1 X95.140 Y102.717 E49.86662
G1 X63.287 Y70.864 E55.21795
G1 X62.277 Y70.864 E55.33796
G1 X94.545 Y103.132 E60.75912
G1 X93.972 Y103.569 E60.84476
G1 X61.267 Y70.864 E66.33923
G1 X60.256 Y70.864 E66.45924
G1 X93.435 Y104.043 E72.03337
G1 X92.961 Y104.579 E72.11839
G1 X59.246 Y70.864 E77.78253
G1 X58.236 Y70.864 E77.90254
G1 X92.487 Y105.114 E83.65669
G1 X92.112 Y105.750 E83.74434
G1 X58.124 Y71.762 E89.45442
G1 X58.124 Y72.772 E89.57443
G1 X91.743 Y106.391 E95.22243
G1 X91.599 Y106.640 E95.25655
G1 X91.447 Y107.105 E95.31475
G1 X58.124 Y73.783 E100.91304
G1 X58.124 Y74.793 E101.03305
G1 X91.198 Y107.866 E106.58949
G1 X91.061 Y108.283 E106.64151
G1 X91.017 Y108.696 E106.69095
G1 X58.124 Y75.803 E112.21712
G1 X58.124 Y76.813 E112.33713
G1 X90.920 Y109.610 E117.84699
G1 X90.879 Y110.000 E117.89362
G1 X90.948 Y110.647 E117.97094
G1 X58.124 Y77.823 E123.48538
G1 X58.124 Y78.834 E123.60539
G1 X91.088 Y111.797 E129.14334
G1 X91.579 Y113.299 E129.33106
G1 X58.124 Y79.844 E134.95159
G1 X58.124 Y80.854 E135.07160
G1 X106.406 Y129.136 E143.18306
G1 X107.416 Y129.136 E143.30307
G1 X95.979 Y117.699 E145.22456
G1 X96.567 Y117.990 E145.30259
G1 X97.559 Y118.269 E145.42502
G1 X108.426 Y129.136 E147.25067
G1 X109.437 Y129.136 E147.37068
G1 X98.816 Y118.516 E149.15492
G1 X99.928 Y118.617 E149.28753
G1 X110.447 Y129.136 E151.05473
G1 X111.457 Y129.136 E151.17474
G1 X100.866 Y118.545 E152.95411
G1 X101.785 Y118.454 E153.06383
G1 X112.467 Y129.136 E154.85851
G1 X113.477 Y129.136 E154.97852
G1 X102.573 Y118.232 E156.81044
G1 X103.362 Y118.010 E156.90774
G1 X114.488 Y129.136 E158.77691
G1 X115.498 Y129.136 E158.89692
G1 X104.048 Y117.686 E160.82060
G1 X104.723 Y117.351 E160.91016
G1 X116.508 Y129.136 E162.89007
G1 X117.518 Y129.136 E163.01008
G1 X105.338 Y116.956 E165.05634
G1 X105.912 Y116.520 E165.14199
G1 X118.529 Y129.136 E167.26157
G1 X119.539 Y129.136 E167.38158
G1 X106.468 Y116.066 E169.57744
G1 X106.943 Y115.530 E169.66245
G1 X120.549 Y129.136 E171.94832
G1 X121.559 Y129.136 E172.06833
G1 X107.417 Y114.994 E174.44421
G1 X107.536 Y114.860 E174.46541
G1 X107.813 Y114.380 E174.53137
G1 X122.570 Y129.136 E177.01049
G1 X123.580 Y129.136 E177.13050
G1 X108.183 Y113.739 E179.71726
G1 X108.401 Y113.360 E179.76918
G1 X108.503 Y113.049 E179.80810
G1 X124.590 Y129.136 E182.51078
G1 X125.600 Y129.136 E182.63079
G1 X108.752 Y112.288 E185.46134
G1 X108.939 Y111.717 E185.53263
G1 X108.963 Y111.489 E185.55997
G1 X126.610 Y129.136 E188.52479
G1 X127.621 Y129.136 E188.64480
G1 X109.060 Y110.575 E191.76303
G1 X109.121 Y110.000 E191.83177
G1 X109.077 Y109.582 E191.88172
G1 X128.631 Y129.136 E195.16687
G1 X129.641 Y129.136 E195.28688
G1 X108.957 Y108.451 E198.76193
G1 X108.939 Y108.283 E198.78210
G1 X108.520 Y107.005 E198.94177
G1 X130.651 Y129.136 E202.65980
G1 X131.662 Y129.136 E202.77981
G1 X73.389 Y70.864 E212.56964
G1 X74.400 Y70.864 E212.68965
G1 X132.672 Y129.136 E222.47947
G1 X133.682 Y129.136 E222.59948
G1 X75.410 Y70.864 E232.38931
G1 X76.420 Y70.864 E232.50932
G1 X134.692 Y129.136 E242.29915
G1 X135.703 Y129.136 E242.41916
G1 X77.430 Y70.864 E252.20898
G1 X78.441 Y70.864 E252.32899
G1 X136.713 Y129.136 E262.11882
G1 X137.723 Y129.136 E262.23883
G1 X79.451 Y70.864 E272.02866
G1 X80.461 Y70.864 E272.14867
G1 X138.733 Y129.136 E281.93849
G1 X139.743 Y129.136 E282.05850
G1 X81.471 Y70.864 E291.84833
G1 X82.482 Y70.864 E291.96834
G1 X140.754 Y129.136 E301.75816
G1 X141.764 Y129.136 E301.87817
G1 X83.492 Y70.864 E311.66800
G1 X84.502 Y70.864 E311.78801
G1 X141.876 Y128.238 E321.42696
G1 X141.876 Y127.228 E321.54697
G1 X85.512 Y70.864 E331.01621
G1 X86.522 Y70.864 E331.13622
G1 X141.876 Y126.218 E340.43573
G1 X141.876 Y125.207 E340.55574
G1 X87.533 Y70.864 E349.68553
G1 X88.543 Y70.864 E349.80554
G1 X141.876 Y124.197 E358.76561
G1 X141.876 Y123.187 E358.88562
G1 X89.553 Y70.864 E367.67597
G1 X90.563 Y70.864 E367.79598
G1 X141.876 Y122.177 E376.41661
G1 X141.876 Y121.166 E376.53662
G1 X91.574 Y70.864 E384.98753
G1 X92.584 Y70.864 E385.10755
G1 X141.876 Y120.156 E393.38874
G1 X141.876 Y119.146 E393.50875
G1 X93.594 Y70.864 E401.62021
G1 X94.604 Y70.864 E401.74023
G1 X141.876 Y118.136 E409.68197
G1 X141.876 Y117.126 E409.80198
G1 X95.615 Y70.864 E417.57401
G1 X96.625 Y70.864 E417.69402
G1 X141.876 Y116.115 E425.29633
G1 X141.876 Y115.105 E425.41634
G1 X97.635 Y70.864 E432.84893
G1 X98.645 Y70.864 E432.96894
G1 X141.876 Y114.095 E440.23181
G1 X141.876 Y113.085 E440.35182
G1 X99.655 Y70.864 E447.44497
G1 X100.666 Y70.864 E447.56498
G1 X141.876 Y112.074 E454.48840
G1 X141.876 Y111.064 E454.60841
G1 X101.676 Y70.864 E461.36212
G1 X102.686 Y70.864 E461.48213
G1 X141.876 Y110.054 E468.06612
G1 X141.876 Y109.044 E468.18613
G1 X103.696 Y70.864 E474.60039
G1 X104.707 Y70.864 E474.72040
G1 X141.876 Y108.033 E480.96495
G1 X141.876 Y107.023 E481.08496
G1 X105.717 Y70.864 E487.15978
G1 X106.727 Y70.864 E487.27980
G1 X141.876 Y106.013 E493.18490
G1 X141.876 Y105.003 E493.30491
G1 X107.737 Y70.864 E499.04030
G1 X108.747 Y70.864 E499.16031
G1 X141.876 Y103.993 E504.72597
G1 X141.876 Y102.982 E504.84598
G1 X109.758 Y70.864 E510.24192
G1 X110.768 Y70.864 E510.36193
G1 X141.876 Y101.972 E515.58816
G1 X141.876 Y100.962 E515.70817
G1 X111.778 Y70.864 E520.76467
G1 X112.788 Y70.864 E520.88468
G1 X141.876 Y99.952 E525.77146
G1 X141.876 Y98.941 E525.89147
G1 X113.799 Y70.864 E530.60854
G1 X114.809 Y70.864 E530.72855
G1 X141.876 Y97.931 E535.27589
G1 X141.876 Y96.921 E535.39590
G1 X115.819 Y70.864 E539.77352
G1 X116.829 Y70.864 E539.89353
G1 X141.876 Y95.911 E544.10143
G1 X141.876 Y94.900 E544.22144
G1 X117.840 Y70.864 E548.25962
G1 X118.850 Y70.864 E548.37963
G1 X141.876 Y93.890 E552.24809
G1 X141.876 Y92.880 E552.36811
G1 X119.860 Y70.864 E556.06685
G1 X120.870 Y70.864 E556.18686
G1 X141.876 Y91.870 E559.71588
G1 X141.876 Y90.860 E559.83589
G1 X121.880 Y70.864 E563.19519
G1 X122.891 Y70.864 E563.31520
G1 X141.876 Y89.849 E566.50477
G1 X141.876 Y88.839 E566.62479
G1 X123.901 Y70.864 E569.64464
G1 X124.911 Y70.864 E569.76465
G1 X141.876 Y87.829 E572.61479
G1 X141.876 Y86.819 E572.73480
G1 X125.921 Y70.864 E575.41522
G1 X126.932 Y70.864 E575.53523
G1 X141.876 Y85.808 E578.04593
G1 X141.876 Y84.798 E578.16594
G1 X127.942 Y70.864 E580.50692
G1 X128.952 Y70.864 E580.62693
G1 X141.876 Y83.788 E582.79818
G1 X141.876 Y82.778 E582.91819
G1 X129.962 Y70.864 E584.91973
G1 X130.973 Y70.864 E585.03974
G1 X141.876 Y81.767 E586.87156
G1 X141.876 Y80.757 E586.99157
G1 X131.983 Y70.864 E588.65366
G1 X132.993 Y70.864 E588.77367
G1 X141.876 Y79.747 E590.26605
G1 X141.876 Y78.737 E590.38606
G1 X134.003 Y70.864 E591.70872
G1 X135.013 Y70.864 E591.82873
G1 X141.876 Y77.727 E592.98166
G1 X141.876 Y76.716 E593.10167
G1 X136.024 Y70.864 E594.08489
G1 X137.034 Y70.864 E594.20490
G1 X141.876 Y75.706 E595.01839
G1 X141.876 Y74.696 E595.13840
G1 X138.044 Y70.864 E595.78217
G1 X139.054 Y70.864 E595.90218
