; generated by PrusaSlicer 2.1.1+ on 2021-06-27 at 16:23:35 UTC

; 

; external perimeters extrusion width = 0.45mm
; perimeters extrusion width = 0.45mm
; infill extrusion width = 0.45mm
; solid infill extrusion width = 0.45mm
; top infill extrusion width = 0.40mm
; first layer extrusion width = 0.80mm

M107
M190 S60 ; set bed temperature and wait for it to be reached
M104 S200 ; set temperature
G28 ; home all axes
G1 Z5 F5000 ; lift nozzle
M109 S200 ; set temperature and wait for it to be reached
G21 ; set units to millimeters
G90 ; use absolute coordinates
M82 ; use absolute distances for extrusion
G92 E0
; Filament gcode
G1 Z0.400 F7800.000
G1 E-2.00000 F2400.00000
G92 E0
G1 X89.803 Y90.157 F7800.000
G1 E2.00000 F2400.00000
G1 F1800
G1 X90.808 Y89.363 E2.15214
G1 X91.957 Y88.783 E2.30501
G1 X93.194 Y88.448 E2.45715
G1 X94.186 Y88.363 E2.57540
G1 X105.776 Y88.363 E3.95193
G1 X106.818 Y88.450 E4.07608
G1 X107.831 Y88.706 E4.20022
G1 X108.794 Y89.128 E4.32510
G1 X109.670 Y89.700 E4.44925
G1 X110.444 Y90.411 E4.57413
G1 X111.087 Y91.235 E4.69827
G1 X111.586 Y92.154 E4.82242
G1 X111.928 Y93.141 E4.94656
G1 X112.126 Y94.626 E5.12444
G1 X112.116 Y105.647 E6.43339
G1 X112.009 Y106.500 E6.53540
G1 X111.788 Y107.329 E6.63741
G1 X111.456 Y108.122 E6.73942
G1 X111.021 Y108.863 E6.84144
G1 X110.097 Y109.937 E7.00976
G1 X108.963 Y110.777 E7.17735
G1 X107.672 Y111.346 E7.34493
G1 X106.287 Y111.616 E7.51252
G1 X93.788 Y111.622 E8.99695
G1 X92.956 Y111.508 E9.09675
G1 X92.145 Y111.286 E9.19655
G1 X91.371 Y110.958 E9.29635
G1 X90.647 Y110.531 E9.39615
G1 X89.581 Y109.616 E9.56300
G1 X88.743 Y108.489 E9.72985
G1 X88.172 Y107.206 E9.89670
G1 X87.897 Y105.828 E10.06355
G1 X87.890 Y94.253 E11.43824
G1 X88.006 Y93.427 E11.53730
G1 X88.229 Y92.623 E11.63636
G1 X88.555 Y91.856 E11.73542
G1 X88.979 Y91.137 E11.83448
G1 X89.765 Y90.203 E11.97949
G1 E9.97949 F2400.00000
G92 E0
G1 X102.029 Y102.029 F7800.000
G1 E2.00000 F2400.00000
G1 F1800
G1 X101.594 Y102.386 E2.06678
G1 X101.098 Y102.651 E2.13361
G1 X100.560 Y102.814 E2.20042
G1 X100.000 Y102.870 E2.26721
G1 X99.440 Y102.814 E2.33405
G1 X98.902 Y102.651 E2.40086
G1 X98.406 Y102.386 E2.46765
G1 X97.971 Y102.029 E2.53448
G1 X97.614 Y101.594 E2.60125
G1 X97.349 Y101.098 E2.66808
G1 X97.186 Y100.560 E2.73489
G1 X97.130 Y100.000 E2.80168
G1 X97.186 Y99.440 E2.86853
G1 X97.349 Y98.902 E2.93533
G1 X97.614 Y98.406 E3.00212
G1 X97.971 Y97.971 E3.06895
G1 X98.406 Y97.614 E3.13572
G1 X98.904 Y97.348 E3.20282
G1 X99.450 Y97.185 E3.27046
G1 X100.000 Y97.130 E3.33613
G1 X100.560 Y97.186 E3.40297
G1 X101.098 Y97.349 E3.46978
G1 X101.594 Y97.614 E3.53657
G1 X102.029 Y97.971 E3.60339
G1 X102.386 Y98.406 E3.67017
G1 X102.651 Y98.902 E3.73701
G1 X102.814 Y99.440 E3.80382
G1 X102.870 Y100.000 E3.87060
G1 X102.814 Y100.560 E3.93744
G1 X102.651 Y101.098 E4.00425
G1 X102.386 Y101.594 E4.07104
G1 X102.067 Y101.983 E4.13074
G1 X101.521 Y101.522 F7800.000
G1 F1800
G1 X101.196 Y101.789 E4.18081
G1 X100.823 Y101.988 E4.23093
G1 X100.420 Y102.111 E4.28104
G1 X100.000 Y102.152 E4.33112
G1 X99.580 Y102.111 E4.38124
G1 X99.176 Y101.988 E4.43135
G1 X98.804 Y101.789 E4.48143
G1 X98.478 Y101.521 E4.53155
G1 X98.211 Y101.196 E4.58162
G1 X98.012 Y100.823 E4.63174
G1 X97.889 Y100.420 E4.68185
G1 X97.848 Y100.000 E4.73193
G1 X97.889 Y99.580 E4.78206
G1 X98.012 Y99.176 E4.83216
G1 X98.211 Y98.804 E4.88224
G1 X98.479 Y98.478 E4.93236
G1 X98.804 Y98.211 E4.98243
G1 X99.177 Y98.011 E5.03265
G1 X99.588 Y97.889 E5.08359
G1 X100.000 Y97.848 E5.13272
G1 X100.420 Y97.889 E5.18284
G1 X100.824 Y98.012 E5.23295
G1 X101.196 Y98.211 E5.28303
G1 X101.522 Y98.479 E5.33315
G1 X101.789 Y98.804 E5.38322
G1 X101.988 Y99.177 E5.43334
G1 X102.111 Y99.580 E5.48345
G1 X102.152 Y100.000 E5.53353
G1 X102.111 Y100.420 E5.58365
G1 X101.988 Y100.824 E5.63376
G1 X101.789 Y101.196 E5.68384
G1 X101.560 Y101.475 E5.72683
G1 X101.625 Y101.908 F7800.000
G1 E3.72683 F2400.00000
G92 E0
G1 X96.424 Y99.491 F7800.000
G1 E2.00000 F2400.00000
G1 F1800
G1 X96.058 Y99.436 E2.04389
G1 X96.058 Y96.548 E2.38690
G1 X98.197 Y96.548 E2.64084
G1 X98.278 Y96.873 E2.68056
G1 X98.007 Y97.017 E2.71700
G1 X97.464 Y97.463 E2.80048
G1 X97.018 Y98.007 E2.88401
G1 X96.686 Y98.627 E2.96751
G1 X96.441 Y99.433 E3.06759
G1 X96.424 Y100.509 F7800.000
G1 F1800
G1 X96.686 Y101.372 E3.17475
G1 X97.017 Y101.993 E3.25830
G1 X97.463 Y102.536 E3.34177
G1 X98.007 Y102.982 E3.42530
G1 X98.278 Y103.127 E3.46179
G1 X98.197 Y103.452 E3.50150
G1 X96.058 Y103.452 E3.75545
G1 X96.058 Y100.563 E4.09850
G1 X96.365 Y100.518 E4.13527
G1 E2.13527 F2400.00000
G92 E0
G1 X101.722 Y103.127 F7800.000
G1 E2.00000 F2400.00000
G1 F1800
G1 X101.993 Y102.983 E2.03644
G1 X102.536 Y102.537 E2.11993
G1 X102.982 Y101.993 E2.20346
G1 X103.314 Y101.373 E2.28695
G1 X103.576 Y100.509 E2.39417
G1 X103.942 Y100.564 E2.43806
G1 X103.942 Y103.452 E2.78107
G1 X101.803 Y103.452 E3.03502
G1 X101.737 Y103.185 E3.06761
G1 E1.06761 F2400.00000
G92 E0
G1 X103.576 Y99.491 F7800.000
G1 E2.00000 F2400.00000
G1 F1800
G1 X103.314 Y98.628 E2.10716
G1 X102.983 Y98.007 E2.19071
G1 X102.537 Y97.464 E2.27419
G1 X101.993 Y97.017 E2.35772
G1 X101.722 Y96.873 E2.39420
G1 X101.803 Y96.548 E2.43391
G1 X103.942 Y96.548 E2.68786
G1 X103.942 Y99.437 E3.03091
G1 X103.635 Y99.482 E3.06768
G1 E1.06768 F2400.00000
G92 E0
G1 X104.656 Y95.834 F7800.000
G1 E2.00000 F2400.00000
G1 F1800
G1 X104.656 Y104.166 E2.98951
G1 X95.344 Y104.166 E4.09542
G1 X95.344 Y95.834 E5.08493
G1 X104.596 Y95.834 E6.18371
G1 X105.370 Y95.120 F7800.000
G1 F1800
G1 X105.370 Y104.880 E7.34286
G1 X94.630 Y104.880 E8.61839
G1 X94.630 Y95.120 E9.77754
G1 X105.310 Y95.120 E11.04595
G1 X105.260 Y95.505 F7800.000
G1 E9.04595 F2400.00000
G92 E0
G1 X103.172 Y96.905 F7800.000
G1 E2.00000 F2400.00000
G1 F1800
G1 X103.573 Y98.225 E2.07853
G1 X103.585 Y97.362 F7800.000
G1 F1800
G1 X102.486 Y96.905 E2.15230
G1 X101.417 Y96.622 F7800.000
G1 F1800
G1 X101.071 Y96.571 E2.19594
G1 X100.725 Y96.520 E2.23685
G1 X100.662 Y96.513 E2.24385
G1 X100.345 Y96.498 E2.27779
G1 X100.029 Y96.482 E2.31010
G1 X99.972 Y96.482 E2.31562
G1 X99.660 Y96.497 E2.34736
G1 X99.349 Y96.513 E2.38068
G1 X98.583 Y96.622 E2.46498
G1 X97.514 Y96.905 F7800.000
G1 F1800
G1 X96.415 Y97.362 E2.53861
G1 X96.828 Y96.905 F7800.000
G1 F1800
G1 X96.427 Y98.225 E2.61720
G1 X96.660 Y100.000 F7800.000
G1 F1800
G1 X95.893 Y100.000 E2.65128
G1 X95.701 Y100.000 E2.66532
G1 X96.427 Y101.775 F7800.000
G1 F1800
G1 X96.828 Y103.095 E2.74385
G1 X96.415 Y102.638 F7800.000
G1 F1800
G1 X97.514 Y103.095 E2.81763
G1 X98.583 Y103.378 F7800.000
G1 F1800
G1 X99.338 Y103.487 E2.90094
G1 X99.655 Y103.502 E2.93489
G1 X99.971 Y103.518 E2.96719
G1 X100.028 Y103.518 E2.97271
G1 X100.345 Y103.502 E3.00500
G1 X100.661 Y103.487 E3.03892
G1 X100.725 Y103.480 E3.04590
G1 X101.071 Y103.429 E3.08685
G1 X101.417 Y103.378 E3.13054
G1 X102.486 Y103.095 F7800.000
G1 F1800
G1 X103.585 Y102.638 E3.20419
G1 X103.172 Y103.095 F7800.000
G1 F1800
G1 X103.573 Y101.775 E3.28277
G1 X103.532 Y100.000 F7800.000
G1 F1800
G1 X103.340 Y100.000 E3.29129
G1 X103.532 Y100.000 F7800.000
G1 F1800
G1 X103.724 Y100.000 E3.30119
G1 X103.915 Y100.000 E3.31247
G1 X104.107 Y100.000 E3.32513
G1 X104.299 Y100.000 E3.33917
G1 Z0.550 F7800.000
M140 S55 ; set bed temperature
G1 X101.991 Y98.009
G1 F900
G1 X102.341 Y98.436 E3.35355
G1 X102.601 Y98.922 E3.36793
G1 X102.762 Y99.451 E3.38231
G1 X102.816 Y100.000 E3.39670
G1 X102.762 Y100.549 E3.41108
G1 X102.601 Y101.078 E3.42546
G1 X102.341 Y101.565 E3.43985
G1 X101.991 Y101.991 E3.45423
G1 X101.564 Y102.341 E3.46861
G1 X101.078 Y102.601 E3.48299
G1 X100.549 Y102.762 E3.49737
G1 X100.000 Y102.816 E3.51175
G1 X99.451 Y102.762 E3.52614
G1 X98.922 Y102.601 E3.54052
G1 X98.435 Y102.341 E3.55491
G1 X98.009 Y101.991 E3.56929
G1 X97.659 Y101.564 E3.58366
G1 X97.399 Y101.078 E3.59805
G1 X97.238 Y100.549 E3.61243
G1 X97.184 Y100.000 E3.62681
G1 X97.238 Y99.451 E3.64120
G1 X97.399 Y98.922 E3.65558
G1 X97.659 Y98.435 E3.66996
G1 X98.009 Y98.009 E3.68435
G1 X98.436 Y97.659 E3.69872
G1 X98.927 Y97.396 E3.71324
G1 X99.473 Y97.236 E3.72807
G1 X100.000 Y97.184 E3.74186
G1 X100.549 Y97.238 E3.75625
G1 X101.078 Y97.399 E3.77063
G1 X101.565 Y97.659 E3.78502
G1 X101.945 Y97.971 E3.79784
G1 X101.694 Y98.306 F7800.000
G1 F900
G1 X101.992 Y98.669 E3.81007
G1 X102.214 Y99.083 E3.82231
G1 X102.350 Y99.533 E3.83454
G1 X102.396 Y100.000 E3.84678
G1 X102.350 Y100.468 E3.85902
G1 X102.214 Y100.917 E3.87126
G1 X101.992 Y101.331 E3.88350
G1 X101.694 Y101.694 E3.89574
G1 X101.331 Y101.992 E3.90797
G1 X100.917 Y102.214 E3.92021
G1 X100.467 Y102.350 E3.93245
G1 X100.000 Y102.396 E3.94468
G1 X99.533 Y102.350 E3.95692
G1 X99.083 Y102.214 E3.96916
G1 X98.669 Y101.992 E3.98140
G1 X98.306 Y101.694 E3.99364
G1 X98.008 Y101.331 E4.00587
G1 X97.786 Y100.917 E4.01811
G1 X97.650 Y100.467 E4.03035
G1 X97.604 Y100.000 E4.04259
G1 X97.650 Y99.533 E4.05483
G1 X97.786 Y99.083 E4.06706
G1 X98.008 Y98.669 E4.07931
G1 X98.306 Y98.306 E4.09155
G1 X98.669 Y98.008 E4.10378
G1 X99.086 Y97.785 E4.11609
G1 X99.553 Y97.648 E4.12878
G1 X100.000 Y97.604 E4.14048
G1 X100.468 Y97.650 E4.15272
G1 X100.917 Y97.786 E4.16496
G1 X101.331 Y98.008 E4.17720
G1 X101.648 Y98.268 E4.18788
G1 X101.397 Y98.603 F7800.000
G1 F900
G1 X101.643 Y98.902 E4.19796
G1 X101.826 Y99.244 E4.20806
G1 X101.938 Y99.614 E4.21815
G1 X101.976 Y100.000 E4.22825
G1 X101.938 Y100.386 E4.23834
G1 X101.826 Y100.756 E4.24843
G1 X101.643 Y101.098 E4.25853
G1 X101.397 Y101.397 E4.26862
G1 X101.098 Y101.643 E4.27871
G1 X100.756 Y101.826 E4.28881
G1 X100.386 Y101.938 E4.29890
G1 X100.000 Y101.976 E4.30899
G1 X99.614 Y101.938 E4.31909
G1 X99.244 Y101.826 E4.32918
G1 X98.902 Y101.643 E4.33928
G1 X98.603 Y101.397 E4.34937
G1 X98.357 Y101.098 E4.35946
G1 X98.174 Y100.756 E4.36955
G1 X98.062 Y100.386 E4.37965
G1 X98.024 Y100.000 E4.38974
G1 X98.062 Y99.614 E4.39984
G1 X98.174 Y99.244 E4.40993
G1 X98.357 Y98.902 E4.42003
G1 X98.603 Y98.603 E4.43012
G1 X98.902 Y98.357 E4.44021
G1 X99.245 Y98.174 E4.45033
G1 X99.633 Y98.060 E4.46087
G1 X100.000 Y98.024 E4.47048
G1 X100.386 Y98.062 E4.48058
G1 X100.756 Y98.174 E4.49067
G1 X101.098 Y98.357 E4.50076
G1 X101.351 Y98.565 E4.50930
G1 X101.771 Y98.503 F7800.000
G1 X104.709 Y95.781
G1 F900
G1 X104.709 Y104.219 E4.72917
G1 X95.291 Y104.219 E4.97459
G1 X95.291 Y95.781 E5.19447
G1 X104.649 Y95.781 E5.43832
G1 X105.127 Y95.363 F7800.000
G1 F900
G1 X105.127 Y104.637 E5.67997
G1 X94.873 Y104.637 E5.94715
G1 X94.873 Y95.363 E6.18880
G1 X105.067 Y95.363 E6.45443
G1 X105.545 Y94.945 F7800.000
G1 F1800
G1 X105.545 Y105.055 E6.71785
G1 X94.455 Y105.055 E7.00681
G1 X94.455 Y94.945 E7.27023
G1 X105.485 Y94.945 E7.55763
G1 X105.436 Y95.330 F7800.000
G1 X99.209 Y97.183
G1 F1200
G1 X100.298 Y96.094 E7.59847
G1 X100.899 Y96.094 E7.61442
G1 X100.113 Y96.880 E7.64392
G1 X100.652 Y96.942 E7.65832
G1 X101.501 Y96.094 E7.69013
G1 X102.102 Y96.094 E7.70608
G1 X101.114 Y97.082 E7.74314
G1 X101.198 Y97.108 E7.74548
G1 X101.518 Y97.279 E7.75511
G1 X102.703 Y96.094 E7.79955
G1 X103.305 Y96.094 E7.81549
G1 X101.883 Y97.515 E7.86880
G1 X102.214 Y97.786 E7.88013
G1 X103.906 Y96.094 E7.94360
G1 X104.396 Y96.094 E7.95659
G1 X104.396 Y96.205 E7.95955
G1 X102.485 Y98.117 E8.03123
G1 X102.603 Y98.261 E8.03617
G1 X102.721 Y98.482 E8.04281
G1 X104.396 Y96.807 E8.10563
G1 X104.396 Y97.408 E8.12158
G1 X102.918 Y98.886 E8.17701
G1 X103.058 Y99.348 E8.18980
G1 X104.396 Y98.009 E8.23999
G1 X104.396 Y98.611 E8.25594
G1 X103.119 Y99.887 E8.30381
G1 X103.131 Y100.000 E8.30682
G1 X103.078 Y100.530 E8.32093
G1 X104.396 Y99.212 E8.37035
G1 X104.396 Y99.813 E8.38629
G1 X100.303 Y103.906 E8.53978
G1 X100.905 Y103.906 E8.55573
G1 X104.396 Y100.415 E8.68666
G1 X104.396 Y101.016 E8.70260
G1 X101.506 Y103.906 E8.81098
G1 X102.108 Y103.906 E8.82693
G1 X104.396 Y101.618 E8.91275
G1 X104.396 Y102.219 E8.92870
G1 X102.709 Y103.906 E8.99197
G1 X103.310 Y103.906 E9.00792
G1 X104.396 Y102.820 E9.04864
G1 X104.396 Y103.422 E9.06458
G1 X103.724 Y104.094 E9.08980
G1 X99.514 Y104.094 F7800.000
G1 F1200
G1 X100.530 Y103.078 E9.12789
G1 X100.000 Y103.131 E9.14200
G1 X99.887 Y103.119 E9.14501
G1 X99.101 Y103.906 E9.17450
G1 X98.499 Y103.906 E9.19045
G1 X99.348 Y103.058 E9.22226
G1 X98.886 Y102.918 E9.23505
G1 X97.898 Y103.906 E9.27211
G1 X97.297 Y103.906 E9.28806
G1 X98.482 Y102.721 E9.33250
G1 X98.260 Y102.603 E9.33915
G1 X98.117 Y102.485 E9.34409
G1 X96.695 Y103.906 E9.39739
G1 X96.094 Y103.906 E9.41334
G1 X97.786 Y102.214 E9.47681
G1 X97.515 Y101.883 E9.48814
G1 X95.604 Y103.795 E9.55982
G1 X95.604 Y103.193 E9.57577
G1 X97.279 Y101.518 E9.63858
G1 X97.108 Y101.198 E9.64821
G1 X97.082 Y101.114 E9.65055
G1 X95.604 Y102.592 E9.70599
G1 X95.604 Y101.990 E9.72193
G1 X96.942 Y100.652 E9.77212
G1 X96.880 Y100.113 E9.78653
G1 X95.604 Y101.389 E9.83440
G1 X95.604 Y100.788 E9.85035
G1 X97.180 Y99.212 E9.90945
G1 X95.416 Y100.374 F7800.000
G1 F1200
G1 X99.696 Y96.094 E10.06998
G1 X99.095 Y96.094 E10.08593
G1 X95.604 Y99.585 E10.21685
G1 X95.604 Y98.984 E10.23280
G1 X98.494 Y96.094 E10.34117
G1 X97.892 Y96.094 E10.35712
G1 X95.604 Y98.382 E10.44294
G1 X95.604 Y97.781 E10.45889
G1 X97.291 Y96.094 E10.52215
G1 X96.690 Y96.094 E10.53810
G1 X95.604 Y97.180 E10.57881
G1 X95.604 Y96.578 E10.59476
G1 X96.276 Y95.906 E10.61997
G1 Z0.700 F7800.000
G1 X101.991 Y98.009
G1 F900
G1 X102.341 Y98.436 E10.63435
G1 X102.601 Y98.922 E10.64874
G1 X102.762 Y99.451 E10.66312
G1 X102.816 Y100.000 E10.67750
G1 X102.762 Y100.550 E10.69189
G1 X102.601 Y101.078 E10.70627
G1 X102.341 Y101.565 E10.72065
G1 X101.991 Y101.991 E10.73503
G1 X101.564 Y102.341 E10.74941
G1 X101.078 Y102.601 E10.76379
G1 X100.549 Y102.762 E10.77818
G1 X100.000 Y102.816 E10.79256
G1 X99.450 Y102.762 E10.80695
G1 X98.922 Y102.601 E10.82133
G1 X98.435 Y102.341 E10.83571
G1 X98.009 Y101.991 E10.85009
G1 X97.659 Y101.564 E10.86447
G1 X97.399 Y101.078 E10.87885
G1 X97.238 Y100.549 E10.89324
G1 X97.184 Y100.000 E10.90762
G1 X97.238 Y99.450 E10.92201
G1 X97.399 Y98.922 E10.93638
G1 X97.659 Y98.435 E10.95077
G1 X98.009 Y98.009 E10.96515
G1 X98.436 Y97.659 E10.97953
G1 X98.928 Y97.395 E10.99408
G1 X99.480 Y97.235 E11.00905
G1 X100.000 Y97.184 E11.02267
G1 X100.549 Y97.238 E11.03705
G1 X101.078 Y97.399 E11.05143
G1 X101.565 Y97.659 E11.06582
G1 X101.945 Y97.971 E11.07863
G1 X101.694 Y98.306 F7800.000
G1 F900
G1 X101.992 Y98.669 E11.09087
G1 X102.214 Y99.083 E11.10311
G1 X102.350 Y99.533 E11.11535
G1 X102.396 Y100.000 E11.12758
G1 X102.350 Y100.468 E11.13983
G1 X102.214 Y100.917 E11.15206
G1 X101.992 Y101.331 E11.16430
G1 X101.694 Y101.694 E11.17654
G1 X101.331 Y101.992 E11.18877
G1 X100.917 Y102.214 E11.20101
G1 X100.467 Y102.350 E11.21325
G1 X100.000 Y102.396 E11.22549
G1 X99.532 Y102.350 E11.23773
G1 X99.083 Y102.214 E11.24996
G1 X98.669 Y101.992 E11.26221
G1 X98.306 Y101.694 E11.27444
G1 X98.008 Y101.331 E11.28668
G1 X97.786 Y100.917 E11.29892
G1 X97.650 Y100.467 E11.31115
G1 X97.604 Y100.000 E11.32339
G1 X97.650 Y99.532 E11.33563
G1 X97.786 Y99.083 E11.34787
G1 X98.008 Y98.669 E11.36011
G1 X98.306 Y98.306 E11.37234
G1 X98.669 Y98.008 E11.38458
G1 X99.087 Y97.785 E11.39692
G1 X99.559 Y97.647 E11.40975
G1 X100.000 Y97.604 E11.42128
G1 X100.468 Y97.650 E11.43353
G1 X100.917 Y97.786 E11.44576
G1 X101.331 Y98.008 E11.45800
G1 X101.648 Y98.268 E11.46867
G1 X101.397 Y98.603 F7800.000
G1 F900
G1 X101.643 Y98.902 E11.47877
G1 X101.826 Y99.244 E11.48886
G1 X101.938 Y99.614 E11.49895
G1 X101.976 Y100.000 E11.50905
G1 X101.938 Y100.386 E11.51914
G1 X101.826 Y100.756 E11.52923
G1 X101.643 Y101.098 E11.53933
G1 X101.397 Y101.397 E11.54942
G1 X101.098 Y101.643 E11.55951
G1 X100.756 Y101.826 E11.56961
G1 X100.386 Y101.938 E11.57970
G1 X100.000 Y101.976 E11.58979
G1 X99.614 Y101.938 E11.59989
G1 X99.244 Y101.826 E11.60998
G1 X98.902 Y101.643 E11.62008
G1 X98.603 Y101.397 E11.63017
G1 X98.357 Y101.098 E11.64026
G1 X98.174 Y100.756 E11.65035
G1 X98.062 Y100.386 E11.66045
G1 X98.024 Y100.000 E11.67054
G1 X98.062 Y99.614 E11.68064
G1 X98.174 Y99.244 E11.69073
G1 X98.357 Y98.902 E11.70083
G1 X98.603 Y98.603 E11.71092
G1 X98.902 Y98.357 E11.72101
