; generated by PrusaSlicer 2.1.1+ on 2021-06-27 at 15:07:00 UTC

; 

; external perimeters extrusion width = 0.45mm
; perimeters extrusion width = 0.45mm
; infill extrusion width = 0.45mm
; solid infill extrusion width = 0.45mm
; top infill extrusion width = 0.40mm
; first layer extrusion width = 0.80mm

M107
M190 S60 ; set bed temperature and wait for it to be reached
M104 S200 ; set temperature
G28 ; home all axes
G1 Z5 F5000 ; lift nozzle
M109 S200 ; set temperature and wait for it to be reached
G21 ; set units to millimeters
G90 ; use absolute coordinates
M82 ; use absolute distances for extrusion
G92 E0
; Filament gcode
G1 Z0.400 F7800.000
G1 E-2.00000 F2400.00000
G92 E0
G1 X94.655 Y94.464 F7800.000
G1 E2.00000 F2400.00000
G1 F927
G1 X95.906 Y93.487 E2.18847
G1 X97.112 Y92.867 E2.34962
G1 X98.460 Y92.460 E2.51688
G1 X100.004 Y92.303 E2.70114
G1 X101.433 Y92.439 E2.87163
G1 X102.843 Y92.854 E3.04612
G1 X104.084 Y93.481 E3.21139
G1 X105.368 Y94.491 E3.40537
G1 X106.288 Y95.566 E3.57344
G1 X107.075 Y96.973 E3.76487
G1 X107.543 Y98.467 E3.95074
G1 X107.694 Y100.037 E4.13811
G1 X107.533 Y101.476 E4.31006
G1 X107.077 Y102.902 E4.48783
G1 X106.360 Y104.199 E4.66392
G1 X105.389 Y105.350 E4.84272
G1 X104.122 Y106.355 E5.03478
G1 X102.817 Y107.032 E5.20945
G1 X101.355 Y107.454 E5.39019
G1 X99.885 Y107.574 E5.56530
G1 X98.459 Y107.416 E5.73567
G1 X97.071 Y106.985 E5.90830
G1 X95.807 Y106.308 E6.07859
G1 X94.632 Y105.345 E6.25909
G1 X93.569 Y104.053 E6.45780
G1 X92.879 Y102.722 E6.63584
G1 X92.495 Y101.467 E6.79166
G1 X92.322 Y99.888 E6.98041
G1 X92.480 Y98.362 E7.16257
G1 X92.953 Y96.907 E7.34432
G1 X93.717 Y95.556 E7.52862
G1 X94.616 Y94.510 E7.69241
G1 E5.69241 F2400.00000
G92 E0
G1 X100.934 Y100.809 F7800.000
G1 E2.00000 F2400.00000
G1 F927
G1 X100.987 Y100.420 E2.03550
G1
G1 X101.039 Y100.032 E2.07314
G1
G1 X101.032 Y99.779 E2.09744
G1
G1 X101.015 Y99.673 E2.10750
G1
G1 X100.997 Y99.567 E2.11694
G1
G1 X100.990 Y99.533 E2.11979
G1
G1 X100.874 Y99.353 E2.13745
G1
G1 X100.847 Y99.327 E2.14064
G1
G1 X100.761 Y99.260 E2.15043
G1
G1 X100.676 Y99.194 E2.16076
G1
G1 X100.488 Y99.077 E2.18234
G1
G1 X100.289 Y98.980 E2.20402
G1
G1 X100.206 Y98.949 E2.21212
G1
G1 X100.124 Y98.919 E2.21979
G1
G1 X100.115 Y98.916 E2.22056
G1
G1 X100.006 Y98.898 E2.22968
G1
G1 X99.878 Y98.922 E2.24031
G1
G1 X99.508 Y99.079 E2.27418
G1 X99.222 Y99.273 E2.30339
G1
G1 X99.135 Y99.342 E2.31325
G1
G1 X99.126 Y99.352 E2.31441
G1
G1 X99.017 Y99.511 E2.33039
G1
G1 X99.003 Y99.567 E2.33511
G1
G1 X98.988 Y99.654 E2.34285
G1
G1 X98.972 Y99.741 E2.35105
G1
G1 X98.968 Y99.794 E2.35595
G1
G1 X98.965 Y99.922 E2.36815
G1
G1 X99.033 Y100.750 E2.44684
G1 X99.154 Y100.599 F7800.000
G1 F927
G1 X99.124 Y100.572 E2.44940
G1
G1 X99.044 Y100.433 E2.46038
G1
G1 X98.752 Y99.533 E2.52689
G1 X99.154 Y100.599 F7800.000
G1 F927
G1 X99.227 Y100.657 E2.53327
G1
G1 X99.301 Y100.715 E2.54007
G1
G1 X99.502 Y100.849 E2.55889
G1
G1 X99.669 Y100.936 E2.57353
G1
G1 X99.757 Y100.971 E2.58070
G1
G1 X99.846 Y101.007 E2.58745
G1
G1 X99.908 Y101.026 E2.59173
G1
G1 X100.055 Y101.037 E2.60079
G1
G1 X100.092 Y101.026 E2.60316
G1
G1 X100.184 Y100.993 E2.60970
G1
G1 X100.276 Y100.960 E2.61680
G1
G1 X100.495 Y100.850 E2.63589
G1
G1 X100.654 Y100.748 E2.65062
G1
G1 X100.824 Y100.630 E2.66615
G1
G1 X100.851 Y100.608 E2.66854
G1
G1 X100.954 Y100.473 E2.68024
G1
G1 X101.244 Y99.525 E2.75157
G1 Z0.550 F7800.000
M140 S55 ; set bed temperature
G1 E0.75157 F2400.00000
G92 E0
G1 X99.846 Y101.037 F7800.000
G1 E2.00000 F2400.00000
G1 F600
G1 X99.761 Y101.240 E2.00574
G1 X99.562 Y101.186 E2.01111
G1 X99.365 Y101.093 E2.01678
G1 X99.252 Y101.019 E2.02030
G1 X99.036 Y100.831 E2.02777
G1 X99.168 Y100.646 E2.03370
G1 X99.794 Y101.007 E2.05251
G1 X99.677 Y101.179 F7800.000
G1 X100.850 Y100.688
G1 F600
G1 X100.970 Y100.521 E2.05863
G1 X101.007 Y100.314 E2.06489
G1 X101.014 Y100.116 E2.07076
G1 X101.005 Y99.932 E2.07623
G1 X100.886 Y99.168 E2.09924
G1 X100.718 Y99.301 F7800.000
G1 F600
G1 X100.469 Y99.135 E2.10796
G1 X100.280 Y99.042 E2.11410
G1
G1 X100.186 Y99.008 E2.11684
G1
G1 X100.093 Y98.973 E2.11936
G1
G1 X99.908 Y98.974 E2.12364
G1 X99.720 Y99.041 E2.12825
G1
G1 X99.369 Y99.213 E2.13993
G1 X99.139 Y99.374 E2.14835
G1
G1 X99.053 Y99.466 E2.15184
G1 X98.997 Y99.618 E2.15632
G1
G1 X98.947 Y99.872 E2.16493
G1
G1 X98.933 Y100.082 E2.17327
G1 X100.718 Y99.301 F7800.000
G1 F600
G1 X100.870 Y99.433 E2.17790
G1 X101.268 Y100.262 E2.19905
G1 Z0.700 F7800.000
G1 E0.19905 F2400.00000
G92 E0
G1 X99.180 Y99.348 F7800.000
G1 E2.00000 F2400.00000
G1 F600
G1 X99.047 Y99.168 E2.00583
G1 X99.228 Y98.999 E2.01230
G1 X99.409 Y98.884 E2.01786
G1 X99.683 Y98.801 E2.02533
G1 X99.772 Y99.006 E2.03115
G1 X99.232 Y99.318 E2.04739
G1 X99.141 Y99.127 F7800.000
G1 X100.828 Y99.337
G1 F600
G1 X100.861 Y99.374 E2.04887
G1
G1 X100.950 Y99.522 E2.05366
G1
G1 X100.981 Y99.789 E2.06060
G1 X100.981 Y100.104 E2.06875
G1 X100.934 Y100.433 E2.07734
G1
G1 X100.919 Y100.489 E2.07868
G1 X100.842 Y100.593 E2.08164
G1 X100.714 Y100.700 E2.08549
G1
G1 X100.445 Y100.878 E2.09462
G1 X100.185 Y100.993 E2.10266
G1
G1 X100.093 Y101.026 E2.10515
G1
G1 X99.985 Y101.048 E2.10768
G1 X99.903 Y101.034 E2.10961
G1 X100.229 Y101.190 F7800.000
G1 F600
G1 X99.410 Y100.846 E2.13813
G1 X99.121 Y100.656 E2.14922
G1 X99.000 Y100.503 E2.15550
G1 X98.978 Y100.433 E2.15784
M106 S255
G1 Z0.850 F7800.000
G1 E0.15784 F2400.00000
G92 E0
G1 X100.975 Y99.617 F7800.000
G1 E2.00000 F2400.00000
G1 F600
G1 X101.190 Y99.586 E2.00567
G1 X101.238 Y99.750 E2.01012
G1 X101.238 Y100.008 E2.01683
G1 X101.201 Y100.190 E2.02169
G1 X100.975 Y100.168 E2.02760
G1 X100.975 Y99.677 E2.04041
G1 X101.182 Y99.682 F7800.000
G1 X100.781 Y100.375
G1 F600
G1 X100.807 Y100.436 E2.04106
G1
G1 X100.833 Y100.498 E2.04210
G1
G1 X100.859 Y100.559 E2.04353
G1
G1 X100.885 Y100.621 E2.04534
G1
G1 X100.898 Y100.652 E2.04644
G1 X100.834 Y100.704 E2.04916
G1 X100.577 Y100.865 E2.05914
G1 X99.810 Y101.212 E2.08685
G1 X99.902 Y101.035 F7800.000
G1 F600
G1 X100.127 Y101.043 E2.09231
G1 X99.902 Y101.035 F7800.000
G1 F600
G1 X99.787 Y100.986 E2.09560
G1
G1 X99.511 Y100.854 E2.10453
G1 X99.306 Y100.719 E2.11169
G1
G1 X99.130 Y100.567 E2.11702
G1 X99.066 Y100.433 E2.12042
G1
G1 X99.021 Y100.128 E2.12806
G1 X99.020 Y99.874 E2.13435
G1 X99.055 Y99.541 E2.14265
G1
G1 X99.160 Y99.364 E2.14830
G1 X98.844 Y99.577 F7800.000
G1 F600
G1 X99.596 Y99.030 E2.18071
G1 X99.809 Y98.921 E2.18905
G1 X100.182 Y98.778 E2.20298
G1 X100.824 Y99.350 F7800.000
G1 F600
G1 X100.312 Y99.054 E2.21839
G1 X100.395 Y98.852 E2.22409
G1 X100.576 Y98.898 E2.22897
G1 X100.757 Y98.989 E2.23425
G1 X100.957 Y99.167 E2.24121
G1 X100.859 Y99.301 E2.24555
G1 X100.549 Y99.060 F7800.000
G1 Z1.000 F7800.000
G1 X100.763 Y100.685
G1 F600
G1 X100.899 Y100.841 E2.25094
G1 X100.803 Y100.963 E2.25496
G1 X100.628 Y101.097 E2.26071
G1 X100.438 Y101.186 E2.26617
G1 X100.239 Y101.240 E2.27154
G1 X100.154 Y101.037 E2.27728
G1 X100.711 Y100.715 E2.29402
G1 X100.809 Y100.887 F7800.000
G1 X100.979 Y99.567
G1 F600
G1 X100.857 Y99.382 E2.30035
G1
G1 X100.451 Y99.124 E2.31320
G1 X100.173 Y99.004 E2.32129
G1
G1 X100.092 Y98.975 E2.32344
G1
G1 X99.946 Y98.963 E2.32678
G1 X99.717 Y99.045 E2.33232
G1
G1 X99.398 Y99.216 E2.34286
G1 X98.799 Y99.654 E2.36441
G1 X99.028 Y99.673 F7800.000
G1 F600
G1 X98.986 Y99.925 E2.37217
G1 X98.975 Y100.157 E2.37923
G1 X98.995 Y100.424 E2.38733
G1 X99.065 Y100.610 E2.39338
G1 X99.116 Y100.665 E2.39565
G1 X99.028 Y99.673 F7800.000
G1 F600
G1 X99.072 Y99.521 E2.39926
G1 X99.568 Y98.867 E2.41805
G1 Z1.150 F7800.000
G1 X99.025 Y100.373
G1 F600
G1 X98.813 Y100.406 E2.42364
G1 X98.758 Y100.236 E2.42831
G1 X98.736 Y100.016 E2.43407
G1 X98.767 Y99.725 E2.44170
G1 X98.816 Y99.583 E2.44561
G1 X99.025 Y99.618 E2.45113
G1 X99.025 Y100.313 E2.46925
G1 X98.822 Y100.303 F7800.000
G1 X99.874 Y98.916
G1 F600
G1 X99.966 Y98.899 E2.47204
G1 X100.062 Y98.912 E2.47492
G1 X100.395 Y99.061 E2.48576
G1 X100.551 Y99.161 E2.49124
G1 X101.159 Y99.639 E2.51426
G1 X100.976 Y99.819 F7800.000
G1 F600
G1 X100.969 Y100.242 E2.52660
G1
G1 X100.952 Y100.338 E2.52925
G1
G1 X100.936 Y100.433 E2.53169
G1
G1 X100.870 Y100.567 E2.53513
G1 X100.666 Y100.740 E2.54134
G1
G1 X100.488 Y100.868 E2.54807
G1 X100.169 Y101.040 E2.55921
G1
G1 X100.112 Y101.060 E2.56097
G1 X99.879 Y101.076 E2.56783
G1 X99.769 Y101.042 E2.57120
G1
G1 X99.593 Y100.981 E2.57782
G1 X99.361 Y100.867 E2.58706
G1 X100.976 Y99.819 F7800.000
G1 F600
G1 X100.934 Y99.567 E2.59300
G1 X100.843 Y99.406 E2.59731
G1 Z1.300 F7800.000
G1 X100.154 Y98.963
G1 F600
G1 X100.239 Y98.760 E2.60305
G1 X100.438 Y98.814 E2.60841
G1 X100.635 Y98.907 E2.61408
G1 X100.747 Y98.980 E2.61756
G1 X100.949 Y99.164 E2.62469
G1 X100.817 Y99.346 E2.63056
G1 X100.206 Y98.993 E2.64892
G1 X100.323 Y98.821 F7800.000
G1 X101.063 Y99.895
G1 F600
G1 X101.037 Y100.186 E2.66035
G1
G1 X101.013 Y100.343 E2.66603
G1
G1 X101.000 Y100.388 E2.66757
G1
G1 X100.986 Y100.433 E2.66903
G1
G1 X100.896 Y100.597 E2.67454
G1
G1 X100.684 Y100.754 E2.68186
G1 X100.501 Y100.857 E2.68768
G1 X99.753 Y101.192 E2.71037
G1 X99.821 Y100.998 F7800.000
G1 F600
G1 X99.908 Y101.025 E2.71269
G1
G1 X100.016 Y101.042 E2.71521
G1 X100.092 Y101.025 E2.71699
G1 X99.821 Y100.998 F7800.000
G1 F600
G1 X99.489 Y100.841 E2.72770
G1 X99.307 Y100.719 E2.73407
G1
G1 X99.129 Y100.565 E2.73952
G1 X99.065 Y100.433 E2.74292
G1
G1 X99.045 Y100.356 E2.74494
G1
G1 X99.021 Y100.219 E2.74890
G1
G1 X98.986 Y99.852 E2.76032
G1 X99.007 Y99.566 E2.76920
G1 X99.084 Y99.382 E2.77539
G1
G1 X99.121 Y99.343 E2.77711
G1 Z1.450 F7800.000
G1 E0.77711 F2400.00000
G92 E0
G1 X100.819 Y100.653 F7800.000
G1 E2.00000 F2400.00000
G1 F600
G1 X100.953 Y100.826 E2.00570
G1 X100.818 Y100.963 E2.01072
G1 X100.585 Y101.119 E2.01802
G1 X100.297 Y101.195 E2.02580
G1 X100.223 Y100.997 E2.03130
G1 X100.767 Y100.683 E2.04765
G1 X100.859 Y100.868 F7800.000
G1 X101.098 Y100.091
G1 F600
G1 X101.088 Y99.898 E2.05608
G1
G1 X101.065 Y99.765 E2.06176
G1
G1 X101.042 Y99.632 E2.06706
G1
G1 X101.023 Y99.567 E2.06953
G1
G1 X100.966 Y99.436 E2.07440
G1
G1 X100.816 Y99.297 E2.08092
G1 X100.592 Y99.155 E2.08939
G1 X99.858 Y98.800 E2.11534
G1 X100.118 Y98.967 F7800.000
G1 F600
G1 X99.909 Y98.976 E2.12063
G1 X99.722 Y99.041 E2.12564
G1 X99.356 Y99.245 E2.13627
G1 X99.158 Y99.407 E2.14275
G1
G1 X99.074 Y99.529 E2.14614
G1 X99.031 Y99.759 E2.15152
G1
G1 X99.016 Y100.000 E2.15858
G1 X99.033 Y100.385 E2.16984
G1
G1 X99.064 Y100.520 E2.17359
G1 X99.139 Y100.625 E2.17707
G1 X100.118 Y98.967 F7800.000
G1 F600
G1 X100.263 Y99.019 E2.18152
G1 Z1.600 F7800.000
G1 E0.18152 F2400.00000
G92 E0
G1 X99.699 Y100.952 F7800.000
G1 E2.00000 F2400.00000
G1 F600
G1 X99.614 Y101.156 E2.00575
G1 X99.437 Y101.107 E2.01053
G1 X99.242 Y101.011 E2.01620
G1 X99.043 Y100.833 E2.02315
G1 X99.176 Y100.650 E2.02904
G1 X99.647 Y100.922 E2.04324
G1 X99.534 Y101.098 F7800.000
G1 X99.951 Y101.296
G1 F600
G1 X99.830 Y101.406 E2.04821
G1 X99.951 Y101.296 F7800.000
G1 F600
G1 X100.072 Y101.186 E2.05353
G1
G1 X100.193 Y101.075 E2.05915
G1 X100.505 Y100.909 E2.07130
G1 X101.156 Y100.424 E2.09915
G1 X100.896 Y100.570 F7800.000
G1 F600
G1 X100.946 Y100.433 E2.10280
G1 X100.982 Y100.079 E2.11170
G1 X100.976 Y99.829 E2.11795
G1 X100.934 Y99.567 E2.12457
G1
G1 X100.870 Y99.432 E2.12799
G1 X100.715 Y99.298 E2.13269
G1
G1 X100.407 Y99.102 E2.14323
G1 X100.252 Y99.033 E2.14811
G1
G1 X100.097 Y98.965 E2.15261
G1
G1 X99.978 Y98.944 E2.15555
G1 X99.880 Y98.956 E2.15797
G1 X100.210 Y98.796 F7800.000
G1 F600
G1 X99.513 Y99.088 E2.18383
G1 X99.349 Y99.176 E2.19019
G1 X99.182 Y99.284 E2.19700
G1 X98.846 Y99.551 E2.21168
G1 X99.025 Y100.383 F7800.000
G1 F600
G1 X98.810 Y100.414 E2.21735
G1 X98.763 Y100.253 E2.22172
G1 X98.773 Y99.902 E2.23087
G1 X98.802 Y99.772 E2.23433
G1 X99.025 Y99.797 E2.24017
G1 X99.025 Y100.323 E2.25387
G1 X98.818 Y100.316 F7800.000
G1 X100.855 Y100.615
G1 F600
G1 X100.896 Y100.570 E2.25547
G1 Z1.750 F7800.000
G1 E0.25547 F2400.00000
G92 E0
G1 X99.236 Y99.315 F7800.000
G1 E2.00000 F2400.00000
G1 F600
G1 X99.102 Y99.149 E2.00557
G1 X99.242 Y98.992 E2.01107
G1 X99.367 Y98.905 E2.01503
G1 X99.562 Y98.814 E2.02064
G1 X99.761 Y98.760 E2.02600
G1 X99.846 Y98.963 E2.03174
G1 X99.288 Y99.285 E2.04851
G1 X99.193 Y99.106 F7800.000
G1 X100.472 Y99.006
G1 F600
G1 X100.634 Y99.114 E2.05694
G1
G1 X100.714 Y99.179 E2.06120
G1
G1 X100.793 Y99.243 E2.06526
G1
G1 X100.839 Y99.288 E2.06769
G1
G1 X100.885 Y99.334 E2.06998
G1
G1 X100.941 Y99.399 E2.07287
G1
G1 X101.003 Y99.567 E2.07856
G1 X101.025 Y99.865 E2.08804
G1 X100.990 Y100.221 E2.09939
G1
G1 X100.968 Y100.344 E2.10314
G1
G1 X100.955 Y100.389 E2.10441
G1
G1 X100.941 Y100.433 E2.10559
G1
G1 X100.842 Y100.593 E2.11008
G1 X100.644 Y100.755 E2.11618
G1
G1 X100.275 Y100.960 E2.12852
G1
G1 X100.184 Y100.993 E2.13117
G1
G1 X100.093 Y101.026 E2.13362
G1
G1 X99.908 Y101.025 E2.13788
G1 X99.671 Y100.937 E2.14372
G1
G1 X99.387 Y100.785 E2.15319
G1 X99.144 Y100.616 E2.16189
G1
G1 X99.080 Y100.554 E2.16424
G1 X99.004 Y100.369 E2.16955
G1
G1 X98.956 Y100.106 E2.17854
G1 X98.943 Y99.856 E2.18698
G1 X98.947 Y99.796 E2.18899
G1 X99.004 Y99.763 E2.19122
G1
G1 X99.032 Y99.747 E2.19222
G1
G1 X99.059 Y99.731 E2.19313
G1
G1 X99.086 Y99.715 E2.19395
G1
G1 X99.113 Y99.699 E2.19468
G1
G1 X99.141 Y99.683 E2.19532
G1
G1 X99.168 Y99.667 E2.19586
G1
G1 X99.195 Y99.650 E2.19632
G1
G1 X99.223 Y99.634 E2.19668
G1
G1 X99.250 Y99.618 E2.19695
G1 Z1.900 F7800.000
G1 X100.975 Y99.617
G1 F600
G1 X101.192 Y99.587 E2.20265
G1 X101.244 Y99.776 E2.20775
G1 X101.264 Y100.001 E2.21363
G1 X101.246 Y100.212 E2.21915
G1 X101.193 Y100.411 E2.22452
G1 X100.975 Y100.382 E2.23025
G1 X100.975 Y99.677 E2.24863
G1 X101.181 Y99.691 F7800.000
G1 X100.625 Y99.126
G1 F600
G1 X100.343 Y98.992 E2.26106
G1
G1 X100.282 Y98.972 E2.26341
G1
G1 X100.222 Y98.952 E2.26566
G1
G1 X100.142 Y98.927 E2.26846
G1
G1 X99.928 Y98.922 E2.27513
G1
G1 X99.566 Y99.096 E2.28650
G1 X99.204 Y99.364 E2.29925
G1
G1 X99.158 Y99.407 E2.30082
G1
G1 X99.074 Y99.531 E2.30425
G1 X99.034 Y99.730 E2.30890
G1
G1 X99.017 Y99.945 E2.31519
G1 X99.038 Y100.277 E2.32486
G1
G1 X99.051 Y100.370 E2.32735
G1
G1 X99.066 Y100.433 E2.32896
G1
G1 X99.130 Y100.568 E2.33239
G1 X99.241 Y100.665 E2.33577
G1
G1 X99.407 Y100.809 E2.34197
G1 X99.728 Y101.005 E2.35256
G1 X99.919 Y101.087 E2.35844
G1 X100.134 Y101.087 E2.36449
G1 Z2.050 F7800.000
G1 X99.846 Y101.037
G1 F600
G1 X99.761 Y101.240 E2.37023
G1 X99.562 Y101.186 E2.37560
G1 X99.252 Y101.019 E2.38477
G1 X99.111 Y100.896 E2.38964
G1 X99.049 Y100.796 E2.39273
G1 X99.185 Y100.655 E2.39783
G1 X99.794 Y101.007 E2.41615
G1 X99.675 Y101.176 F7800.000
G1 X100.461 Y100.986
G1 F600
G1 X100.594 Y100.894 E2.42290
G1
G1 X100.838 Y100.700 E2.43426
G1
G1 X100.940 Y100.579 E2.43902
G1 X100.992 Y100.433 E2.44369
G1
G1 X101.014 Y100.067 E2.45574
G1 X100.931 Y99.213 E2.48394
G1 X100.683 Y99.277 F7800.000
G1 F600
G1 X100.418 Y99.108 E2.49298
G1 X100.233 Y99.024 E2.49880
G1
G1 X100.163 Y98.999 E2.50078
G1
G1 X100.092 Y98.975 E2.50263
G1
G1 X99.907 Y98.973 E2.50686
G1 X99.686 Y99.056 E2.51228
G1
G1 X99.357 Y99.221 E2.52336
G1 X99.140 Y99.376 E2.53143
G1
G1 X99.061 Y99.454 E2.53447
G1 X98.990 Y99.639 E2.53992
G1
G1 X98.953 Y99.830 E2.54670
G1 X98.935 Y100.138 E2.55740
G1 X100.683 Y99.277 F7800.000
G1 F600
G1 X100.841 Y99.409 E2.56218
G1 X100.937 Y99.567 E2.56648
G1 Z2.200 F7800.000
G1 X99.497 Y100.743
G1 F600
G1 X99.376 Y100.886 E2.57136
G1 X99.166 Y100.744 E2.57798
G1 X99.021 Y100.592 E2.58345
G1 X98.904 Y100.411 E2.58906
G1 X98.804 Y100.140 E2.59658
G1 X98.780 Y99.995 E2.60041
G1 X98.778 Y99.762 E2.60650
G1 X98.816 Y99.558 E2.61189
G1 X98.917 Y99.348 E2.61797
G1 X99.058 Y99.157 E2.62415
G1 X99.228 Y98.999 E2.63021
G1 X99.409 Y98.883 E2.63581
G1 X99.620 Y98.818 E2.64155
G1 X99.849 Y98.794 E2.64754
G1 X99.998 Y98.807 E2.65146
G1 X100.295 Y98.877 E2.65940
G1 X100.480 Y98.969 E2.66480
G1 X100.642 Y99.090 E2.67004
G1 X100.824 Y99.289 E2.67708
G1 X100.644 Y99.458 E2.68353
G1 X100.500 Y99.308 E2.68895
G1 X100.298 Y99.205 E2.69486
G1 X99.960 Y99.147 E2.70379
G1 X99.721 Y99.194 E2.71013
G1 X99.451 Y99.347 E2.71821
