; generated by PrusaSlicer 2.1.1+ on 2021-06-26 at 09:31:19 UTC

; 

; external perimeters extrusion width = 0.45mm
; perimeters extrusion width = 0.45mm
; infill extrusion width = 0.45mm
; solid infill extrusion width = 0.45mm
; top infill extrusion width = 0.40mm
; support material extrusion width = 0.40mm
; first layer extrusion width = 0.80mm

M107
M190 S60 ; set bed temperature and wait for it to be reached
M104 S200 ; set temperature
G28 ; home all axes
G1 Z5 F5000 ; lift nozzle
M109 S200 ; set temperature and wait for it to be reached
G21 ; set units to millimeters
G90 ; use absolute coordinates
M82 ; use absolute distances for extrusion
G92 E0
; Filament gcode
G1 Z0.400 F7800.000
G1 E-2.00000 F2400.00000
G92 E0
G1 X74.938 Y61.110 F7800.000
G1 E2.00000 F2400.00000
G1 F1800
G1 X75.373 Y59.826 E2.16097
G1 X75.773 Y59.094 E2.26003
G1 X76.265 Y58.421 E2.35909
G1 X76.846 Y57.813 E2.45889
G1 X77.496 Y57.291 E2.55795
G1 X78.210 Y56.859 E2.65701
G1 X78.973 Y56.524 E2.75607
G1 X79.781 Y56.290 E2.85587
G1 X80.605 Y56.166 E2.95493
G1 X118.865 Y56.143 E7.49890
G1 X120.054 Y56.256 E7.64073
G1 X121.195 Y56.588 E7.78182
G1 X122.254 Y57.125 E7.92291
G1 X123.200 Y57.855 E8.06474
G1 X123.988 Y58.744 E8.20584
G1 X124.600 Y59.769 E8.34767
G1 X125.008 Y60.885 E8.48876
G1 X125.201 Y62.064 E8.63059
G1 X125.216 Y137.550 E17.59571
G1 X125.062 Y138.890 E17.75594
G1 X124.627 Y140.174 E17.91691
G1 X124.217 Y140.921 E18.01819
G1 X123.715 Y141.603 E18.11872
G1 X123.122 Y142.216 E18.22000
G1 X122.458 Y142.741 E18.32053
G1 X121.724 Y143.175 E18.42181
G1 X120.944 Y143.505 E18.52235
G1 X120.128 Y143.729 E18.62288
G1 X119.283 Y143.843 E18.72416
G1 X81.054 Y143.856 E23.26446
G1 X79.726 Y143.698 E23.42322
G1 X78.467 Y143.268 E23.58125
G1 X77.704 Y142.848 E23.68474
G1 X77.005 Y142.327 E23.78823
G1 X76.383 Y141.716 E23.89172
G1 X75.848 Y141.021 E23.99594
G1 X75.416 Y140.264 E24.09943
G1 X75.092 Y139.455 E24.20292
G1 X74.880 Y138.604 E24.30715
G1 X74.788 Y137.737 E24.41064
G1 X74.784 Y62.450 E33.35212
G1 X74.931 Y61.169 E33.50523
G1 E31.50523 F2400.00000
G92 E0
G1 X116.275 Y107.352 F7800.000
G1 E2.00000 F2400.00000
G1 F1800
G1 X114.292 Y107.655 E2.23822
G1 X113.963 Y107.619 E2.27748
G1 X113.358 Y107.619 E2.34936
G1 X113.157 Y107.672 E2.37406
G1 X112.348 Y107.585 E2.47071
G1 X111.829 Y107.679 E2.53332
G1 X111.215 Y107.569 E2.60737
G1 X110.907 Y107.651 E2.64519
G1 X110.229 Y107.640 E2.72577
G1 X110.170 Y107.619 E2.73312
G1 X109.605 Y107.619 E2.80031
G1 X109.363 Y107.646 E2.82919
G1 X109.259 Y107.916 E2.86364
G1 X105.175 Y107.916 E3.34866
G1 X105.277 Y107.649 E3.38261
G1 X104.690 Y107.663 E3.45234
G1 X104.690 Y107.622 E3.45730
G1 X104.261 Y107.656 E3.50844
G1 X104.070 Y107.640 E3.53117
G1 X103.964 Y107.916 E3.56636
G1 X99.880 Y107.916 E4.05138
G1 X99.974 Y107.671 E4.08261
G1 X99.520 Y107.590 E4.13735
G1 X98.987 Y107.664 E4.20127
G1 X98.708 Y107.619 E4.23486
G1 X97.559 Y107.619 E4.37126
G1 X97.459 Y107.649 E4.38363
G1 X96.563 Y107.614 E4.49017
G1 X96.506 Y107.590 E4.49751
G1 X95.890 Y107.659 E4.57113
G1 X95.585 Y107.619 E4.60766
G1 X94.472 Y107.619 E4.73977
G1 X94.373 Y107.649 E4.75214
G1 X93.626 Y107.619 E4.84087
G1 X92.321 Y107.619 E4.99584
G1 X92.122 Y107.758 E5.02463
G1 X91.532 Y107.990 E5.10001
G1 X90.901 Y108.043 E5.17513
G1 X88.793 Y107.746 E5.42804
G1 X88.793 Y107.619 E5.44303
G1 X87.360 Y107.619 E5.61321
G1 X87.126 Y107.655 E5.64132
G1 X86.320 Y107.567 E5.73756
G1 X85.461 Y107.046 E5.85696
G1 X85.248 Y106.683 E5.90692
G1 X84.765 Y106.683 E5.96426
G1 X84.765 Y102.872 E6.41686
G1 X84.889 Y102.872 E6.43159
G1 X84.889 Y102.559 E6.46882
G1 X85.674 Y102.559 E6.56196
G1 X85.674 Y102.443 E6.57564
G1 X89.514 Y102.443 E7.03173
G1 X89.514 Y102.499 E7.03834
G1 X93.854 Y102.499 E7.55376
G1 X93.854 Y102.815 E7.59133
G1 X94.373 Y102.872 E7.65332
G1 X95.007 Y102.872 E7.72867
G1 X95.007 Y97.064 E8.41840
G1 X100.092 Y94.129 E9.11569
G1 X105.176 Y97.064 E9.81298
G1 X105.176 Y102.443 E10.45180
G1 X106.073 Y102.443 E10.55837
G1 X106.049 Y102.507 E10.56653
G1 X107.076 Y102.510 E10.68852
G1 X107.242 Y102.530 E10.70845
G1 X107.276 Y102.443 E10.71944
G1 X112.166 Y102.443 E11.30026
G1 X112.166 Y102.559 E11.31395
G1 X115.896 Y102.559 E11.75688
G1 X115.896 Y102.872 E11.79411
G1 X116.275 Y102.872 E11.83911
G1 X116.275 Y107.292 E12.36403
G1 X115.560 Y106.739 F7800.000
G1 F1800
G1 X114.276 Y106.935 E12.51832
G1 X114.002 Y106.905 E12.55108
G1 X113.266 Y106.905 E12.63845
G1 X113.103 Y106.948 E12.65856
G1 X112.432 Y106.876 E12.73868
G1 X112.395 Y106.851 E12.74400
G1 X111.828 Y106.953 E12.81236
G1 X111.185 Y106.839 E12.88994
G1 X110.820 Y106.935 E12.93480
G1 X110.356 Y106.928 E12.98989
G1 X110.292 Y106.905 E12.99793
G1 X109.566 Y106.905 E13.08417
G1 X109.212 Y106.944 E13.12648
G1 X108.885 Y106.900 E13.16564
G1 X108.768 Y107.202 E13.20416
G1 X106.214 Y107.202 E13.50756
G1 X106.326 Y106.910 E13.54470
G1 X105.817 Y106.922 E13.60512
G1 X105.662 Y106.946 E13.62379
G1 X105.404 Y106.932 E13.65442
G1 X105.404 Y106.915 E13.65650
G1 X105.165 Y106.886 E13.68517
G1 X104.950 Y106.815 E13.71204
G1 X104.603 Y106.912 E13.75477
G1 X104.262 Y106.939 E13.79538
G1 X103.922 Y106.911 E13.83593
G1 X103.619 Y106.825 E13.87335
G1 X103.474 Y107.202 E13.92140
G1 X100.919 Y107.202 E14.22480
G1 X101.033 Y106.905 E14.26257
G1 X100.285 Y106.905 E14.35138
G1 X100.019 Y106.953 E14.38354
G1 X99.504 Y106.861 E14.44566
G1 X98.994 Y106.942 E14.50689
G1 X98.765 Y106.905 E14.53453
G1 X97.456 Y106.905 E14.68989
G1 X97.370 Y106.931 E14.70055
G1 X96.717 Y106.905 E14.77824
G1 X96.519 Y106.824 E14.80361
G1 X96.392 Y106.884 E14.82030
G1 X95.896 Y106.940 E14.87953
G1 X95.631 Y106.905 E14.91131
G1 X94.370 Y106.905 E15.06112
G1 X94.283 Y106.931 E15.07178
G1 X93.640 Y106.905 E15.14824
G1 X92.097 Y106.905 E15.33146
G1 X91.783 Y107.124 E15.37694
G1 X91.367 Y107.287 E15.42999
G1 X90.921 Y107.325 E15.48313
G1 X89.507 Y107.125 E15.65280
G1 X89.507 Y106.905 E15.67892
G1 X87.305 Y106.905 E15.94038
G1 X87.110 Y106.935 E15.96384
G1 X86.555 Y106.875 E16.03014
G1 X85.986 Y106.529 E16.10926
G1 X85.658 Y105.969 E16.18638
G1 X85.480 Y105.969 E16.20751
G1 X85.480 Y103.586 E16.49048
G1 X85.604 Y103.586 E16.50521
G1 X85.604 Y103.273 E16.54244
G1 X86.388 Y103.273 E16.63558
G1 X86.388 Y103.157 E16.64926
G1 X88.800 Y103.157 E16.93571
G1 X88.800 Y103.213 E16.94233
G1 X90.079 Y103.213 E17.09426
G1 X90.079 Y103.552 E17.13452
G1 X90.440 Y103.664 E17.17942
G1 X90.704 Y103.580 E17.21236
G1 X90.704 Y103.213 E17.25592
G1 X93.140 Y103.213 E17.54515
G1 X93.140 Y103.586 E17.58946
G1 X93.672 Y103.586 E17.65269
G1 X94.001 Y103.550 E17.69198
G1 X94.334 Y103.586 E17.73175
G1 X95.236 Y103.578 E17.83894
G1 X95.591 Y103.608 E17.88129
G1 X95.806 Y103.553 E17.90759
G1 X96.314 Y103.584 E17.96804
G1 X96.497 Y103.642 E17.99088
G1 X97.385 Y103.484 E18.09799
G1 X95.721 Y102.523 E18.32620
G1 X95.721 Y97.477 E18.92555
G1 X100.092 Y94.953 E19.52491
G1 X104.462 Y97.477 E20.12426
G1 X104.462 Y102.523 E20.72361
G1 X103.914 Y102.840 E20.79881
G1 X103.999 Y103.157 E20.83786
G1 X105.033 Y103.157 E20.96066
G1 X104.989 Y103.271 E20.97510
G1 X105.630 Y103.187 E21.05193
G1 X106.023 Y103.222 E21.09875
G1 X107.033 Y103.224 E21.21872
G1 X107.495 Y103.278 E21.27396
G1 X107.690 Y103.356 E21.29889
G1 X107.766 Y103.157 E21.32411
G1 X111.452 Y103.157 E21.76183
G1 X111.452 Y103.605 E21.81502
G1 X111.810 Y103.540 E21.85822
G1 X112.085 Y103.586 E21.89136
G1 X112.770 Y103.586 E21.97266
G1 X112.770 Y103.273 E22.00989
G1 X115.182 Y103.273 E22.29635
G1 X115.182 Y103.586 E22.33358
G1 X115.560 Y103.586 E22.37858
G1 X115.560 Y106.679 E22.74585
G1 X114.846 Y106.125 F7800.000
G1 F1800
G1 X114.261 Y106.215 E22.81621
G1 X114.041 Y106.191 E22.84247
G1 X113.175 Y106.191 E22.94533
G1 X113.048 Y106.224 E22.96084
G1 X112.684 Y106.186 E23.00434
G1 X112.411 Y106.003 E23.04335
G1 X112.187 Y106.163 E23.07604
G1 X111.827 Y106.228 E23.11944
G1 X111.467 Y106.163 E23.16295
G1 X111.215 Y105.984 E23.19962
G1 X110.998 Y106.149 E23.23201
G1 X110.733 Y106.219 E23.26463
G1 X110.483 Y106.216 E23.29423
G1 X110.414 Y106.191 E23.30296
G1 X109.479 Y106.191 E23.41396
G1 X109.221 Y106.224 E23.44488
G1 X108.993 Y106.194 E23.47218
G1 X108.500 Y105.913 E23.53960
G1 X108.278 Y106.488 E23.61280
G1 X107.253 Y106.488 E23.73459
G1 X107.375 Y106.171 E23.77492
G1 X106.119 Y106.201 E23.92415
G1 X106.119 Y106.155 E23.92962
G1 X105.651 Y106.225 E23.98573
G1 X105.320 Y106.185 E24.02535
G1 X104.884 Y106.042 E24.07982
G1 X104.696 Y106.145 E24.10532
G1 X104.477 Y106.206 E24.13222
G1 X104.264 Y106.223 E24.15767
G1 X104.051 Y106.205 E24.18307
G1 X103.835 Y106.144 E24.20969
G1 X103.642 Y106.040 E24.23572
G1 X103.278 Y105.723 E24.29303
G1 X102.983 Y106.488 E24.39045
G1 X101.958 Y106.488 E24.51223
G1 X102.072 Y106.191 E24.55000
G1 X100.221 Y106.191 E24.76981
G1 X100.018 Y106.228 E24.79434
G1 X99.657 Y106.163 E24.83785
G1 X99.540 Y106.080 E24.85493
G1 X99.283 Y106.181 E24.88771
G1 X99.002 Y106.220 E24.92145
G1 X98.521 Y106.143 E24.97927
G1 X98.521 Y106.191 E24.98497
G1 X97.354 Y106.191 E25.12363
G1 X97.281 Y106.212 E25.13258
G1 X96.870 Y106.196 E25.18143
G1 X96.608 Y106.089 E25.21501
G1 X96.525 Y106.031 E25.22712
G1 X96.194 Y106.188 E25.27056
G1 X95.903 Y106.220 E25.30539
G1 X95.587 Y106.180 E25.34315
G1 X95.318 Y106.079 E25.37729
G1 X95.318 Y106.191 E25.39057
G1 X94.267 Y106.191 E25.51543
G1 X94.194 Y106.212 E25.52438
G1 X93.796 Y106.197 E25.57171
G1 X93.588 Y106.127 E25.59784
G1 X93.261 Y105.914 E25.64414
G1 X93.149 Y106.191 E25.67960
G1 X91.732 Y106.191 E25.84783
G1 X91.648 Y106.348 E25.86897
G1 X91.444 Y106.490 E25.89849
G1 X91.203 Y106.585 E25.92921
G1 X90.942 Y106.607 E25.96036
G1 X90.221 Y106.505 E26.04681
G1 X90.221 Y106.191 E26.08406
G1 X87.251 Y106.191 E26.43679
G1 X87.095 Y106.215 E26.45559
G1 X86.790 Y106.182 E26.49196
G1 X86.511 Y106.012 E26.53080
G1 X86.362 Y105.759 E26.56564
G1 X86.318 Y105.465 E26.60099
G1 X86.318 Y105.255 E26.62596
G1 X86.194 Y105.255 E26.64069
G1 X86.194 Y104.300 E26.75402
G1 X86.318 Y104.300 E26.76875
G1 X86.318 Y103.987 E26.80598
G1 X87.102 Y103.987 E26.89912
G1 X87.102 Y103.872 E26.91280
G1 X88.086 Y103.872 E27.02962
G1 X88.086 Y103.927 E27.03623
G1 X89.365 Y103.927 E27.18817
G1 X89.365 Y104.300 E27.23247
G1 X89.663 Y104.300 E27.26790
G1 X89.771 Y104.272 E27.28111
G1 X90.007 Y104.278 E27.30924
G1 X90.231 Y104.347 E27.33710
G1 X90.427 Y104.495 E27.36622
G1 X90.564 Y104.374 E27.38796
G1 X90.889 Y104.271 E27.42838
G1 X91.418 Y104.293 E27.49135
G1 X91.418 Y103.927 E27.53480
G1 X92.425 Y103.927 E27.65440
G1 X92.425 Y104.300 E27.69870
G1 X93.762 Y104.300 E27.85746
G1 X93.998 Y104.268 E27.88571
G1 X94.248 Y104.300 E27.91574
G1 X95.265 Y104.298 E28.03647
G1 X95.650 Y104.330 E28.08234
G1 X95.874 Y104.273 E28.10980
G1 X96.182 Y104.292 E28.14651
G1 X96.586 Y104.419 E28.19678
G1 X96.718 Y104.328 E28.21581
G1 X97.071 Y104.265 E28.25844
G1 X97.412 Y104.315 E28.29926
G1 X97.725 Y104.518 E28.34357
G1 X97.907 Y104.847 E28.38825
G1 X98.258 Y104.649 E28.43613
G1 X98.320 Y104.544 E28.45059
G1 X98.645 Y104.330 E28.49684
G1 X98.994 Y104.271 E28.53877
G1 X99.291 Y104.311 E28.57440
G1 X99.543 Y104.410 E28.60654
G1 X99.933 Y104.131 E28.66353
G1 X96.435 Y102.111 E29.14326
G1 X96.435 Y97.889 E29.64468
G1 X100.092 Y95.778 E30.14609
G1 X103.748 Y97.889 E30.64750
G1 X103.748 Y102.111 E31.14891
G1 X100.506 Y103.983 E31.59352
G1 X100.591 Y104.300 E31.63257
G1 X101.127 Y104.300 E31.69626
G1 X101.330 Y104.266 E31.72066
G1 X101.553 Y104.290 E31.74730
G1 X101.666 Y104.346 E31.76229
G1 X101.948 Y104.272 E31.79691
G1 X102.188 Y104.277 E31.82545
G1 X102.417 Y104.351 E31.85399
G1 X102.693 Y104.573 E31.89609
G1 X102.962 Y103.872 E31.98534
G1 X103.992 Y103.872 E32.10763
G1 X103.987 Y103.884 E32.10925
G1 X104.479 Y103.923 E32.16785
G1 X104.697 Y103.985 E32.19477
G1 X104.903 Y104.096 E32.22260
G1 X105.351 Y103.944 E32.27874
G1 X105.651 Y103.905 E32.31466
G1 X105.926 Y103.935 E32.34755
G1 X106.991 Y103.938 E32.47403
G1 X107.319 Y103.977 E32.51326
G1 X107.652 Y104.109 E32.55578
G1 X108.029 Y104.466 E32.61749
G1 X108.257 Y103.872 E32.69308
G1 X109.287 Y103.872 E32.81537
G1 X109.137 Y104.261 E32.86491
G1 X109.754 Y104.302 E32.93839
G1 X109.754 Y103.872 E32.98951
G1 X110.738 Y103.872 E33.10633
G1 X110.738 Y104.248 E33.15103
G1 X111.045 Y104.342 E33.18919
G1 X111.249 Y104.483 E33.21867
G1 X111.466 Y104.329 E33.25028
G1 X111.815 Y104.265 E33.29245
G1 X112.025 Y104.300 E33.31779
G1 X113.484 Y104.300 E33.49100
G1 X113.484 Y103.987 E33.52823
G1 X114.467 Y103.987 E33.64505
G1 X114.467 Y104.300 E33.68228
G1 X114.846 Y104.300 E33.72728
G1 X114.846 Y106.065 E33.93691
G1 X114.914 Y106.520 F7800.000
G1 E31.93691 F2400.00000
G92 E0
G1 X117.031 Y135.672 F7800.000
G1 E2.00000 F2400.00000
G1 F1800
G1 X82.969 Y135.672 E6.04533
G1 X82.969 Y64.328 E14.51844
G1 X117.031 Y64.328 E18.56377
G1 X117.031 Y135.612 E27.02975
G1 X117.745 Y136.386 F7800.000
G1 F1800
G1 X82.255 Y136.386 E31.24471
G1 X82.255 Y63.614 E39.88746
G1 X117.745 Y63.614 E44.10242
G1 X117.745 Y136.326 E52.73804
G1 X118.459 Y137.100 F7800.000
G1 F1800
G1 X81.541 Y137.100 E57.12264
G1 X81.541 Y62.900 E65.93501
G1 X118.459 Y62.900 E70.31961
G1 X118.459 Y137.040 E79.12486
G1 X118.086 Y136.955 F7800.000
G1 E77.12486 F2400.00000
G92 E0
G1 X113.972 Y105.791 F7800.000
G1 E2.00000 F2400.00000
G1 F1800
G1 X113.870 Y105.718 E2.00537
G1 X113.712 Y105.597 E2.01501
G1 X113.701 Y105.028 E2.04269
G1 X114.257 Y104.855 F7800.000
G1 F1800
G1 X114.257 Y105.347 E2.07373
G1 X114.259 Y105.459 E2.08075
G1 X114.253 Y105.467 E2.08140
G1 X114.246 Y105.480 E2.08228
G1 X114.209 Y105.525 E2.08556
G1 X114.173 Y105.571 E2.08844
G1 X114.136 Y105.617 E2.09093
G1 E0.09093 F2400.00000
G92 E0
G1 X111.217 Y105.367 F7800.000
G1 E2.00000 F2400.00000
G1 F1800
G1 X111.213 Y105.261 E2.00429
G1 X111.214 Y105.232 E2.00535
G1 X111.223 Y105.133 E2.00914
G1 X111.223 Y105.096 E2.01056
G1 X111.223 Y105.089 E2.01087
G1 X109.977 Y105.051 F7800.000
G1 F1800
G1 X109.976 Y105.019 E2.01277
G1 X109.966 Y104.906 E2.01988
G1 X109.945 Y104.887 E2.02165
G1 X109.924 Y104.868 E2.02325
G1 X109.903 Y104.850 E2.02469
G1 X109.799 Y104.774 E2.03052
G1 X109.695 Y104.699 E2.03566
G1 X109.977 Y105.051 F7800.000
G1 F1800
G1 X109.977 Y105.791 E2.07918
G1 E0.07918 F2400.00000
G92 E0
G1 X107.929 Y105.273 F7800.000
G1 E2.00000 F2400.00000
G1 F1800
G1 X107.909 Y105.333 E2.00429
G1 X107.818 Y105.552 E2.02069
G1 X107.784 Y105.575 E2.02348
G1 X107.604 Y105.672 E2.03621
G1 X107.423 Y105.770 E2.04782
G1 X107.929 Y105.273 F7800.000
G1 F1800
G1 X107.999 Y104.987 E2.06843
G1 X106.337 Y105.212 F7800.000
G1 F1800
G1 X106.345 Y105.338 E2.07603
G1 X106.344 Y105.394 E2.07931
G1 X106.331 Y105.528 E2.08772
G1 X106.308 Y105.550 E2.08970
G1 X106.285 Y105.572 E2.09150
G1 X106.164 Y105.667 E2.09920
G1 X106.043 Y105.761 E2.10610
G1 X105.687 Y105.364 F7800.000
G1 F1800
G1 X105.657 Y105.367 E2.10887
G1 X105.537 Y105.356 E2.12001
G1 X105.501 Y105.351 E2.12329
G1 X105.332 Y105.263 E2.14130
G1 X105.292 Y105.233 E2.14630
G1 X105.253 Y105.202 E2.15162
G1 X105.245 Y105.085 E2.16417
G1 X105.245 Y105.083 E2.16437
G1 X105.245 Y105.044 E2.16830
G1 X105.241 Y104.921 E2.18102
G1 X105.241 Y104.914 E2.18173
G1 X105.226 Y104.899 E2.18392
G1 X105.211 Y104.883 E2.18602
G1 X105.194 Y104.864 E2.18846
G1 X105.177 Y104.845 E2.19078
G1 X105.072 Y104.667 E2.20425
G1 X105.269 Y104.888 F7800.000
G1 F1800
G1 X105.241 Y104.914 E2.20816
G1 X105.269 Y104.888 F7800.000
G1 F1800
G1 X105.352 Y104.811 E2.21675
G1 X105.527 Y104.712 E2.23191
G1 X105.530 Y104.711 E2.23215
G1 X105.663 Y104.694 E2.24174
G1 X105.715 Y104.695 E2.24546
G1 X105.728 Y104.693 E2.24637
G1 X106.194 Y104.336 F7800.000
G1 F1800
G1 X106.337 Y105.212 E2.30348
G1 E0.30348 F2400.00000
G92 E0
G1 X103.936 Y104.330 F7800.000
G1 E2.00000 F2400.00000
G1 F1800
G1 X103.836 Y104.351 E2.00261
G1 X103.817 Y104.356 E2.00315
G1 X103.653 Y104.419 E2.00828
G1 X103.548 Y104.473 E2.01483
G1 X103.532 Y104.503 E2.01670
G1 X103.449 Y104.703 E2.02856
G1 X103.373 Y104.980 E2.04439
G1 X103.570 Y105.421 E2.07093
G1 E0.07093 F2400.00000
G92 E0
G1 X100.662 Y105.265 F7800.000
G1 E2.00000 F2400.00000
G1 F1800
G1 X100.662 Y105.228 E2.00176
G1 X100.647 Y105.002 E2.01360
