; generated by PrusaSlicer 2.1.1+ on 2021-06-26 at 19:15:19 UTC

; 

; external perimeters extrusion width = 0.45mm
; perimeters extrusion width = 0.45mm
; infill extrusion width = 0.45mm
; solid infill extrusion width = 0.45mm
; top infill extrusion width = 0.40mm
; first layer extrusion width = 0.80mm

M107
M190 S60 ; set bed temperature and wait for it to be reached
M104 S200 ; set temperature
G28 ; home all axes
G1 Z5 F5000 ; lift nozzle
M109 S200 ; set temperature and wait for it to be reached
G21 ; set units to millimeters
G90 ; use absolute coordinates
M82 ; use absolute distances for extrusion
G92 E0
; Filament gcode
G1 Z0.400 F7800.000
G1 E-2.00000 F2400.00000
G92 E0
G1 X91.274 Y87.955 F7800.000
G1 E2.00000 F2400.00000
G1 F1800
G1 X92.387 Y87.098 E2.16685
G1 X93.738 Y86.481 E2.34326
G1 X95.195 Y86.194 E2.51966
G1 X104.321 Y86.181 E3.60353
G1 X105.117 Y86.231 E3.69816
G1 X105.905 Y86.382 E3.79353
G1 X106.669 Y86.631 E3.88890
G1 X107.394 Y86.975 E3.98427
G1 X108.071 Y87.407 E4.07964
G1 X108.688 Y87.921 E4.17501
G1 X109.231 Y88.504 E4.26964
G1 X109.701 Y89.156 E4.36501
G1 X114.159 Y96.870 E5.42325
G1 X114.600 Y97.825 E5.54813
G1 X114.897 Y98.956 E5.68702
G1 X114.982 Y100.116 E5.82516
G1 X114.855 Y101.272 E5.96331
G1 X114.516 Y102.392 E6.10219
G1 X114.146 Y103.153 E6.20273
G1 X109.578 Y111.031 E7.28431
G1 X108.537 Y112.217 E7.47173
G1 X107.236 Y113.110 E7.65915
G1 X105.870 Y113.627 E7.83262
G1 X104.428 Y113.819 E8.00535
G1 X95.421 Y113.819 E9.07506
G1 X94.341 Y113.681 E9.20437
G1 X93.295 Y113.358 E9.33441
G1 X92.496 Y112.967 E9.44011
G1 X91.764 Y112.471 E9.54508
G1 X91.103 Y111.874 E9.65078
G1 X90.533 Y111.191 E9.75648
G1 X85.677 Y102.822 E10.90566
G1 X85.212 Y101.562 E11.06516
G1 X85.021 Y100.239 E11.22392
G1 X85.113 Y98.899 E11.38342
G1 X85.484 Y97.608 E11.54291
G1 X85.854 Y96.847 E11.64345
G1 X90.373 Y89.041 E12.71465
G1 X91.235 Y88.001 E12.87511
G1 E10.87511 F2400.00000
G92 E0
G1 X103.262 Y105.635 F7800.000
G1 E2.00000 F2400.00000
G1 F1800
G1 X96.740 Y105.639 E2.77451
G1 X93.485 Y100.000 E3.54777
G1 X96.740 Y94.361 E4.32103
G1 X103.262 Y94.365 E5.09553
G1 X106.515 Y100.000 E5.86827
G1 X103.292 Y105.583 E6.63387
G1 X103.674 Y106.349 F7800.000
G1 F1800
G1 X96.328 Y106.353 E7.50632
G1 X92.660 Y100.000 E8.37755
G1 X96.328 Y93.647 E9.24878
G1 X103.674 Y93.651 E10.12123
G1 X107.340 Y100.000 E10.99187
G1 X103.704 Y106.297 E11.85538
G1 X104.087 Y107.063 F7800.000
G1 F1800
G1 X95.916 Y107.067 E12.82576
G1 X91.836 Y100.000 E13.79497
G1 X95.916 Y92.933 E14.76417
G1 X104.087 Y92.937 E15.73455
G1 X108.164 Y100.000 E16.70310
G1 X104.117 Y107.011 E17.66452
G1 X103.740 Y106.863 F7800.000
G1 E15.66452 F2400.00000
G92 E0
G1 X105.138 Y98.044 F7800.000
G1 E2.00000 F2400.00000
G1 F1800
G1 X101.995 Y94.900 E2.52989
G1 X100.980 Y94.900 E2.65078
G1 X105.645 Y99.564 E3.43703
G1 X105.897 Y100.000 E3.49705
G1 X105.593 Y100.526 E3.56941
G1 X99.966 Y94.899 E4.51789
G1 X98.952 Y94.898 E4.63877
G1 X105.222 Y101.168 E5.69567
G1 X104.851 Y101.811 E5.78412
G1 X97.938 Y94.898 E6.94944
G1 X97.050 Y94.897 E7.05530
G1 X97.003 Y94.977 E7.06629
G1 X104.480 Y102.454 E8.32656
G1 X104.109 Y103.096 E8.41501
G1 X96.632 Y95.620 E9.67527
G1 X96.261 Y96.262 E9.76372
G1 X103.738 Y103.739 E11.02399
G1 X103.367 Y104.381 E11.11243
G1 X95.890 Y96.905 E12.37270
G1 X95.519 Y97.548 E12.46114
G1 X102.996 Y105.024 E13.72141
G1 X102.952 Y105.099 E13.73177
G1 X102.058 Y105.100 E13.83837
G1 X95.148 Y98.190 E15.00310
G1 X94.777 Y98.833 E15.09154
G1 X101.045 Y105.100 E16.14805
G1 X100.032 Y105.101 E16.26880
G1 X94.406 Y99.475 E17.21709
G1 X94.103 Y100.000 E17.28930
G1 X94.358 Y100.440 E17.34987
G1 X99.019 Y105.102 E18.13564
G1 X98.006 Y105.102 E18.25638
G1 X94.864 Y101.960 E18.78599
G1 Z0.550 F7800.000
M140 S55 ; set bed temperature
G1 X103.705 Y106.402
G1 F3600
G1 X96.297 Y106.406 E18.97901
G1 X92.599 Y100.000 E19.17176
G1 X96.297 Y93.593 E19.36451
G1 X103.705 Y93.598 E19.55752
G1 X107.401 Y100.000 E19.75014
G1 X103.735 Y106.350 E19.94120
G1 X103.946 Y106.820 F7800.000
G1 F3600
G1 X96.056 Y106.824 E20.14678
G1 X92.116 Y100.000 E20.35211
G1 X96.056 Y93.176 E20.55743
G1 X103.946 Y93.180 E20.76302
G1 X107.884 Y100.000 E20.96820
G1 X103.976 Y106.768 E21.17182
G1 X104.188 Y107.237 F7800.000
G1 F1800
G1 X95.815 Y107.242 E21.38998
G1 X91.634 Y100.000 E21.60788
G1 X95.815 Y92.758 E21.82578
G1 X104.188 Y92.763 E22.04394
G1 X108.366 Y100.000 E22.26169
G1 X104.218 Y107.186 E22.47788
G1 X103.841 Y107.038 F7800.000
G1 X102.761 Y106.277
G1 F1200
G1 X104.823 Y104.216 E22.55535
G1 X105.646 Y102.790 F7800.000
G1 F1200
G1 X102.158 Y106.278 E22.68643
G1 X101.555 Y106.278 F7800.000
G1 F1200
G1 X106.469 Y101.364 E22.87110
G1 X100.952 Y106.278 F7800.000
G1 F1200
G1 X106.779 Y100.452 E23.09007
G1 X107.040 Y100.000 E23.10394
G1 X106.889 Y99.739 E23.11195
G1 X100.537 Y106.091 E23.35065
G1 X99.934 Y106.091 E23.36668
G1 X106.668 Y99.357 E23.61976
G1 X106.448 Y98.975 E23.63148
G1 X99.331 Y106.091 E23.89893
G1 X98.728 Y106.092 E23.91495
G1 X106.227 Y98.593 E24.19678
G1 X106.007 Y98.211 E24.20850
G1 X98.125 Y106.092 E24.50469
G1 X97.522 Y106.092 E24.52072
G1 X105.786 Y97.829 E24.83128
G1 X105.565 Y97.447 E24.84301
G1 X96.919 Y106.093 E25.16794
G1 X96.478 Y106.093 E25.17967
G1 X96.419 Y105.991 E25.18281
G1 X105.345 Y97.065 E25.51827
G1 X105.124 Y96.683 E25.52999
G1 X96.198 Y105.608 E25.86544
G1 X95.978 Y105.226 E25.87717
G1 X104.904 Y96.301 E26.21262
G1 X104.683 Y95.919 E26.22434
G1 X95.757 Y104.844 E26.55980
G1 X95.537 Y104.462 E26.57152
G1 X104.463 Y95.536 E26.90697
G1 X104.242 Y95.154 E26.91870
G1 X95.316 Y104.080 E27.25415
G1 X95.096 Y103.698 E27.26587
G1 X104.021 Y94.772 E27.60133
G1 X103.801 Y94.390 E27.61305
G1 X94.875 Y103.316 E27.94850
G1 X94.654 Y102.934 E27.96023
G1 X103.580 Y94.008 E28.29568
G1 X103.524 Y93.911 E28.29866
G1 X103.075 Y93.911 E28.31060
G1 X94.434 Y102.552 E28.63535
G1 X94.213 Y102.170 E28.64708
G1 X102.473 Y93.910 E28.95749
G1 X101.870 Y93.910 E28.97349
G1 X93.993 Y101.788 E29.26956
G1 X93.772 Y101.406 E29.28128
G1 X101.268 Y93.910 E29.56300
G1 X100.666 Y93.909 E29.57901
G1 X93.551 Y101.024 E29.84638
G1 X93.331 Y100.642 E29.85811
G1 X100.064 Y93.909 E30.11113
G1 X99.461 Y93.909 E30.12714
G1 X93.110 Y100.260 E30.36582
G1 X92.960 Y100.000 E30.37379
G1 X93.224 Y99.543 E30.38781
G1 X98.859 Y93.908 E30.59958
G1 X98.257 Y93.908 E30.61559
G1 X93.534 Y98.631 E30.79310
G1 X94.357 Y97.205 F7800.000
G1 F1200
G1 X97.654 Y93.908 E30.91703
G1 X97.052 Y93.907 E30.93304
G1 X95.180 Y95.780 E31.00340
G1 Z0.700 F7800.000
G1 X103.705 Y106.402
G1 F3600
G1 X96.297 Y106.406 E31.19642
G1 X92.599 Y100.000 E31.38917
G1 X96.297 Y93.593 E31.58192
G1 X103.705 Y93.598 E31.77493
G1 X107.401 Y100.000 E31.96755
G1 X103.735 Y106.350 E32.15861
G1 X103.946 Y106.820 F7800.000
G1 F3600
G1 X96.056 Y106.824 E32.36419
G1 X92.116 Y100.000 E32.56952
G1 X96.056 Y93.176 E32.77484
G1 X103.946 Y93.180 E32.98043
G1 X107.884 Y100.000 E33.18561
G1 X103.976 Y106.768 E33.38923
G1 X104.188 Y107.237 F7800.000
G1 F1800
G1 X95.815 Y107.242 E33.60739
G1 X91.634 Y100.000 E33.82529
G1 X95.815 Y92.758 E34.04319
G1 X104.188 Y92.763 E34.26135
G1 X108.366 Y100.000 E34.47910
G1 X104.218 Y107.186 E34.69529
G1 X103.841 Y107.038 F7800.000
G1 X97.842 Y106.280
G1 F1200
G1 X94.357 Y102.795 E34.82628
G1 X93.534 Y101.369 F7800.000
G1 F1200
G1 X98.257 Y106.092 E35.00379
G1 X98.859 Y106.092 E35.01980
G1 X93.224 Y100.457 E35.23158
G1 X92.960 Y100.000 E35.24559
G1 X93.110 Y99.740 E35.25356
G1 X99.461 Y106.091 E35.49224
G1 X100.064 Y106.091 E35.50824
G1 X93.331 Y99.358 E35.76127
G1 X93.551 Y98.976 E35.77300
G1 X100.666 Y106.091 E36.04037
G1 X101.268 Y106.090 E36.05638
G1 X93.772 Y98.594 E36.33810
G1 X93.993 Y98.212 E36.34982
G1 X101.870 Y106.090 E36.64589
G1 X102.473 Y106.090 E36.66189
G1 X94.213 Y97.830 E36.97230
G1 X94.434 Y97.448 E36.98403
G1 X103.075 Y106.089 E37.30878
G1 X103.524 Y106.089 E37.32072
G1 X103.580 Y105.992 E37.32370
G1 X94.654 Y97.066 E37.65915
G1 X94.875 Y96.684 E37.67087
G1 X103.801 Y105.610 E38.00633
G1 X104.021 Y105.228 E38.01805
G1 X95.096 Y96.302 E38.35350
G1 X95.316 Y95.920 E38.36523
G1 X104.242 Y104.846 E38.70068
G1 X104.463 Y104.464 E38.71240
G1 X95.537 Y95.538 E39.04786
G1 X95.757 Y95.156 E39.05958
G1 X104.683 Y104.082 E39.39503
G1 X104.904 Y103.699 E39.40676
G1 X95.978 Y94.774 E39.74221
G1 X96.198 Y94.392 E39.75393
G1 X105.124 Y103.317 E40.08939
G1 X105.345 Y102.935 E40.10111
G1 X96.419 Y94.009 E40.43656
G1 X96.478 Y93.907 E40.43971
G1 X96.919 Y93.907 E40.45143
G1 X105.565 Y102.553 E40.77637
G1 X105.786 Y102.171 E40.78810
G1 X97.522 Y93.908 E41.09866
G1 X98.125 Y93.908 E41.11469
G1 X106.007 Y101.789 E41.41088
G1 X106.227 Y101.407 E41.42260
G1 X98.728 Y93.908 E41.70442
G1 X99.331 Y93.909 E41.72045
G1 X106.448 Y101.025 E41.98790
G1 X106.668 Y100.643 E41.99962
G1 X99.934 Y93.909 E42.25270
G1 X100.537 Y93.909 E42.26873
G1 X106.889 Y100.261 E42.50743
G1 X107.040 Y100.000 E42.51544
G1 X106.779 Y99.548 E42.52931
G1 X101.140 Y93.910 E42.74121
G1 X101.743 Y93.910 E42.75723
G1 X106.469 Y98.636 E42.93484
G1 X105.646 Y97.210 F7800.000
G1 F1200
G1 X102.346 Y93.910 E43.05884
G1 X102.949 Y93.911 E43.07487
G1 X104.823 Y95.784 E43.14527
G1 X95.180 Y104.220 F7800.000
G1 F1200
G1 X97.240 Y106.281 E43.22270
M106 S209.1
G1 Z0.850 F7800.000
G1 X103.705 Y106.402
G1 F3600
G1 X96.297 Y106.406 E43.41571
G1 X92.599 Y100.000 E43.60846
G1 X96.297 Y93.593 E43.80121
G1 X103.705 Y93.598 E43.99423
G1 X107.401 Y100.000 E44.18685
G1 X103.735 Y106.350 E44.37790
G1 X103.946 Y106.820 F7800.000
G1 F3600
G1 X96.056 Y106.824 E44.58349
G1 X92.116 Y100.000 E44.78881
G1 X96.056 Y93.176 E44.99414
G1 X103.946 Y93.180 E45.19972
G1 X107.884 Y100.000 E45.40491
G1 X103.976 Y106.768 E45.60853
G1 X104.188 Y107.237 F7800.000
G1 F1800
G1 X95.815 Y107.242 E45.82669
G1 X91.634 Y100.000 E46.04459
G1 X95.815 Y92.758 E46.26249
G1 X104.188 Y92.763 E46.48064
G1 X108.366 Y100.000 E46.69839
G1 X104.218 Y107.186 E46.91458
G1 X103.841 Y107.038 F7800.000
G1 X102.761 Y106.277
G1 F1200
G1 X104.823 Y104.216 E46.99206
G1 X105.646 Y102.790 F7800.000
G1 F1200
G1 X102.158 Y106.278 E47.12313
G1 X101.555 Y106.278 F7800.000
G1 F1200
G1 X106.469 Y101.364 E47.30781
G1 X100.952 Y106.278 F7800.000
G1 F1200
G1 X106.779 Y100.452 E47.52678
G1 X107.040 Y100.000 E47.54065
G1 X106.889 Y99.739 E47.54865
G1 X100.537 Y106.091 E47.78736
G1 X99.934 Y106.091 E47.80338
G1 X106.668 Y99.357 E48.05646
G1 X106.448 Y98.975 E48.06819
G1 X99.331 Y106.091 E48.33564
G1 X98.728 Y106.092 E48.35166
G1 X106.227 Y98.593 E48.63348
G1 X106.007 Y98.211 E48.64521
G1 X98.125 Y106.092 E48.94140
G1 X97.522 Y106.092 E48.95742
G1 X105.786 Y97.829 E49.26799
G1 X105.565 Y97.447 E49.27971
G1 X96.919 Y106.093 E49.60465
G1 X96.478 Y106.093 E49.61638
G1 X96.419 Y105.991 E49.61952
G1 X105.345 Y97.065 E49.95497
G1 X105.124 Y96.683 E49.96670
G1 X96.198 Y105.608 E50.30215
G1 X95.978 Y105.226 E50.31387
G1 X104.904 Y96.301 E50.64933
G1 X104.683 Y95.919 E50.66105
G1 X95.757 Y104.844 E50.99650
G1 X95.537 Y104.462 E51.00823
G1 X104.463 Y95.536 E51.34368
G1 X104.242 Y95.154 E51.35540
G1 X95.316 Y104.080 E51.69086
G1 X95.096 Y103.698 E51.70258
G1 X104.021 Y94.772 E52.03803
G1 X103.801 Y94.390 E52.04976
G1 X94.875 Y103.316 E52.38521
G1 X94.654 Y102.934 E52.39693
G1 X103.580 Y94.008 E52.73239
G1 X103.524 Y93.911 E52.73537
G1 X103.075 Y93.911 E52.74730
G1 X94.434 Y102.552 E53.07206
G1 X94.213 Y102.170 E53.08378
G1 X102.473 Y93.910 E53.39419
G1 X101.870 Y93.910 E53.41020
G1 X93.993 Y101.788 E53.70626
G1 X93.772 Y101.406 E53.71799
G1 X101.268 Y93.910 E53.99971
G1 X100.666 Y93.909 E54.01571
G1 X93.551 Y101.024 E54.28309
G1 X93.331 Y100.642 E54.29481
G1 X100.064 Y93.909 E54.54784
G1 X99.461 Y93.909 E54.56385
G1 X93.110 Y100.260 E54.80253
G1 X92.960 Y100.000 E54.81050
G1 X93.224 Y99.543 E54.82451
G1 X98.859 Y93.908 E55.03629
G1 X98.257 Y93.908 E55.05229
G1 X93.534 Y98.631 E55.22980
G1 X94.357 Y97.205 F7800.000
G1 F1200
G1 X97.654 Y93.908 E55.35374
G1 X97.052 Y93.907 E55.36974
G1 X95.180 Y95.780 E55.44011
G1 Z1.000 F7800.000
G1 X103.705 Y106.402
G1 F3600
G1 X96.297 Y106.406 E55.63312
G1 X92.599 Y100.000 E55.82587
G1 X96.297 Y93.593 E56.01862
G1 X103.705 Y93.598 E56.21164
G1 X107.401 Y100.000 E56.40426
G1 X103.735 Y106.350 E56.59531
G1 X103.946 Y106.820 F7800.000
G1 F3600
G1 X96.056 Y106.824 E56.80090
G1 X92.116 Y100.000 E57.00622
G1 X96.056 Y93.176 E57.21155
G1 X103.946 Y93.180 E57.41713
G1 X107.884 Y100.000 E57.62232
G1 X103.976 Y106.768 E57.82594
G1 X104.188 Y107.237 F7800.000
G1 F1800
G1 X95.815 Y107.242 E58.04410
G1 X91.634 Y100.000 E58.26200
G1 X95.815 Y92.758 E58.47990
G1 X104.188 Y92.763 E58.69805
G1 X108.366 Y100.000 E58.91580
G1 X104.218 Y107.186 E59.13199
G1 X103.841 Y107.038 F7800.000
G1 X97.842 Y106.280
G1 F1200
G1 X94.357 Y102.795 E59.26299
G1 X93.534 Y101.369 F7800.000
G1 F1200
G1 X98.257 Y106.092 E59.44050
G1 X98.859 Y106.092 E59.45650
G1 X93.224 Y100.457 E59.66828
G1 X92.960 Y100.000 E59.68229
G1 X93.110 Y99.740 E59.69026
G1 X99.461 Y106.091 E59.92895
G1 X100.064 Y106.091 E59.94495
G1 X93.331 Y99.358 E60.19798
G1 X93.551 Y98.976 E60.20970
G1 X100.666 Y106.091 E60.47708
G1 X101.268 Y106.090 E60.49308
G1 X93.772 Y98.594 E60.77480
G1 X93.993 Y98.212 E60.78653
G1 X101.870 Y106.090 E61.08259
G1 X102.473 Y106.090 E61.09860
G1 X94.213 Y97.830 E61.40901
G1 X94.434 Y97.448 E61.42073
G1 X103.075 Y106.089 E61.74549
G1 X103.524 Y106.089 E61.75742
G1 X103.580 Y105.992 E61.76040
G1 X94.654 Y97.066 E62.09586
G1 X94.875 Y96.684 E62.10758
G1 X103.801 Y105.610 E62.44303
G1 X104.021 Y105.228 E62.45476
G1 X95.096 Y96.302 E62.79021
G1 X95.316 Y95.920 E62.80193
G1 X104.242 Y104.846 E63.13739
G1 X104.463 Y104.464 E63.14911
G1 X95.537 Y95.538 E63.48456
G1 X95.757 Y95.156 E63.49629
G1 X104.683 Y104.082 E63.83174
G1 X104.904 Y103.699 E63.84346
G1 X95.978 Y94.774 E64.17892
G1 X96.198 Y94.392 E64.19064
G1 X105.124 Y103.317 E64.52609
G1 X105.345 Y102.935 E64.53782
G1 X96.419 Y94.009 E64.87327
G1 X96.478 Y93.907 E64.87642
G1 X96.919 Y93.907 E64.88814
G1 X105.565 Y102.553 E65.21308
G1 X105.786 Y102.171 E65.22480
G1 X97.522 Y93.908 E65.53537
G1 X98.125 Y93.908 E65.55139
G1 X106.007 Y101.789 E65.84759
G1 X106.227 Y101.407 E65.85931
G1 X98.728 Y93.908 E66.14113
G1 X99.331 Y93.909 E66.15716
G1 X106.448 Y101.025 E66.42461
G1 X106.668 Y100.643 E66.43633
G1 X99.934 Y93.909 E66.68941
G1 X100.537 Y93.909 E66.70543
G1 X106.889 Y100.261 E66.94414
G1 X107.040 Y100.000 E66.95215
G1 X106.779 Y99.548 E66.96602
G1 X101.140 Y93.910 E67.17792
G1 X101.743 Y93.910 E67.19394
G1 X106.469 Y98.636 E67.37154
G1 X105.646 Y97.210 F7800.000
G1 F1200
G1 X102.346 Y93.910 E67.49555
G1 X102.949 Y93.911 E67.51157
G1 X104.823 Y95.784 E67.58198
G1 X95.180 Y104.220 F7800.000
G1 F1200
G1 X97.240 Y106.281 E67.65940
M106 S252.45
G1 Z1.150 F7800.000
G1 X103.662 Y106.327
G1 F3600
G1 X96.341 Y106.331 E67.85016
G1 X92.685 Y100.000 E68.04065
G1 X96.341 Y93.669 E68.23115
G1 X103.662 Y93.673 E68.42191
G1 X107.315 Y100.000 E68.61227
G1 X103.692 Y106.275 E68.80107
G1 X103.903 Y106.745 F7800.000
G1 F3600
G1 X96.100 Y106.749 E69.00440
G1 X92.203 Y100.000 E69.20747
G1 X96.100 Y93.251 E69.41053
G1 X103.903 Y93.255 E69.61386
G1 X107.797 Y100.000 E69.81679
G1 X103.933 Y106.693 E70.01816
G1 X104.144 Y107.163 F7800.000
G1 F1800
G1 X95.858 Y107.167 E70.23406
G1 X91.720 Y100.000 E70.44970
G1 X95.858 Y92.833 E70.66534
G1 X104.144 Y92.837 E70.88124
G1 X108.280 Y100.000 E71.09674
G1 X104.174 Y107.111 E71.31067
G1 X103.798 Y106.963 F7800.000
G1 X104.051 Y105.403
G1 F4124
G1 X101.063 Y106.203 E71.39126
G1 X102.664 Y106.202 F7800.000
G1 F4124
G1 X105.158 Y96.892 E71.64242
G1 X103.481 Y93.986 E71.72984
G1 X101.612 Y93.985 E71.77854
G1 X98.388 Y106.017 E72.10310
G1 X96.521 Y106.018 E72.15173
G1 X94.842 Y103.108 E72.23927
G1 X97.337 Y93.794 E72.49052
G1 X95.949 Y94.597 F7800.000
G1 F4124
G1 X98.942 Y93.795 E72.57123
G1 X105.128 Y96.463 F7800.000
G1 F4124
G1 X92.995 Y99.714 E72.89853
G1 X93.292 Y99.200 F7800.000
G1 F4124
G1 X100.107 Y106.016 E73.14967
G1 X103.481 Y106.014 E73.23758
G1 X104.408 Y104.408 E73.28589
G1 X95.592 Y95.592 E73.61075
G1 X96.521 Y93.982 E73.65919
G1 X99.893 Y93.984 E73.74703
