; generated by PrusaSlicer 2.1.1+ on 2021-06-27 at 10:11:19 UTC

; 

; external perimeters extrusion width = 0.45mm
; perimeters extrusion width = 0.45mm
; infill extrusion width = 0.45mm
; solid infill extrusion width = 0.45mm
; top infill extrusion width = 0.40mm
; first layer extrusion width = 0.80mm

M107
M190 S60 ; set bed temperature and wait for it to be reached
M104 S200 ; set temperature
G28 ; home all axes
G1 Z5 F5000 ; lift nozzle
M109 S200 ; set temperature and wait for it to be reached
G21 ; set units to millimeters
G90 ; use absolute coordinates
M82 ; use absolute distances for extrusion
G92 E0
; Filament gcode
G1 Z0.400 F7800.000
G1 E-2.00000 F2400.00000
G92 E0
G1 X65.398 Y73.043 F7800.000
G1 E2.00000 F2400.00000
G1 F1800
G1 X66.660 Y72.170 E2.18228
G1 X68.101 Y71.624 E2.36530
G1 X69.625 Y71.441 E2.54758
G1 X70.439 Y71.494 E2.64443
G1 X71.239 Y71.651 E2.74127
G1 X72.012 Y71.909 E2.83812
G1 X72.746 Y72.264 E2.93496
G1 X137.572 Y109.775 E11.83000
G1 X138.459 Y110.396 E11.95857
G1 X139.075 Y110.985 E12.05984
G1 X139.607 Y111.652 E12.16112
G1 X140.045 Y112.383 E12.26239
G1 X140.381 Y113.167 E12.36367
G1 X140.609 Y113.989 E12.46494
G1 X140.725 Y114.834 E12.56622
G1 X140.727 Y115.686 E12.66749
G1 X140.614 Y116.532 E12.76877
G1 X140.352 Y117.460 E12.88332
G1 X139.956 Y118.332 E12.99714
G1 X135.857 Y125.434 E13.97100
G1 X135.261 Y126.278 E14.09367
G1 X134.281 Y127.223 E14.25537
G1 X133.123 Y127.938 E14.41707
G1 X131.838 Y128.390 E14.57878
G1 X130.481 Y128.558 E14.74121
G1 X87.055 Y128.556 E19.89877
G1 X86.010 Y128.436 E20.02365
G1 X84.993 Y128.144 E20.14927
G1 X84.045 Y127.690 E20.27415
G1 X83.179 Y127.082 E20.39977
G1 X82.394 Y126.301 E20.53129
G1 X81.757 Y125.395 E20.66280
G1 X60.093 Y87.872 E25.80863
G1 X59.710 Y87.076 E25.91360
G1 X59.441 Y86.234 E26.01856
G1 X59.282 Y85.251 E26.13681
G1 X59.278 Y84.249 E26.25579
G1 X59.430 Y83.265 E26.37403
G1 X59.736 Y82.312 E26.49302
G1 X60.100 Y81.568 E26.59134
G1 X64.381 Y74.193 E27.60408
G1 X65.358 Y73.088 E27.77924
G1 E25.77924 F2400.00000
G92 E0
G1 X90.758 Y119.900 F7800.000
G1 E2.00000 F2400.00000
G1 F1800
G1 X90.573 Y120.107 E2.03296
G1 X90.360 Y120.284 E2.06592
G1 X90.123 Y120.429 E2.09888
G1 X89.868 Y120.537 E2.13185
G1 X89.599 Y120.607 E2.16481
G1 X89.323 Y120.638 E2.19777
G1 X89.046 Y120.628 E2.23073
G1 X88.773 Y120.577 E2.26369
G1 X88.510 Y120.488 E2.29666
G1 X88.263 Y120.361 E2.32962
G1 X88.038 Y120.199 E2.36258
G1 X87.838 Y120.007 E2.39554
G1 X87.668 Y119.787 E2.42850
G1 X87.532 Y119.545 E2.46147
G1 X87.433 Y119.286 E2.49443
G1 X87.373 Y119.015 E2.52739
G1 X87.353 Y118.738 E2.56035
G1 X87.373 Y118.461 E2.59331
G1 X87.433 Y118.190 E2.62627
G1 X87.532 Y117.931 E2.65924
G1 X87.668 Y117.689 E2.69220
G1 X87.838 Y117.469 E2.72516
G1 X88.038 Y117.277 E2.75812
G1 X88.263 Y117.115 E2.79108
G1 X88.510 Y116.988 E2.82405
G1 X88.773 Y116.899 E2.85701
G1 X89.046 Y116.848 E2.88997
G1 X89.323 Y116.838 E2.92293
G1 X89.599 Y116.869 E2.95589
G1 X89.868 Y116.939 E2.98886
G1 X90.123 Y117.047 E3.02182
G1 X90.360 Y117.192 E3.05478
G1 X90.573 Y117.369 E3.08774
G1 X90.758 Y117.576 E3.12070
G1 X90.912 Y117.808 E3.15367
G1 X91.029 Y118.059 E3.18663
G1 X91.109 Y118.325 E3.21959
G1 X91.150 Y118.599 E3.25255
G1 X91.150 Y118.877 E3.28551
G1 X91.109 Y119.151 E3.31847
G1 X91.029 Y119.417 E3.35144
G1 X90.912 Y119.668 E3.38440
G1 X90.792 Y119.850 E3.41024
G1 X90.864 Y120.157 F7800.000
G1 X92.158 Y120.374
G1 F1800
G1 X92.367 Y119.929 E3.46861
G1 X92.507 Y119.463 E3.52640
G1 X92.578 Y118.981 E3.58420
G1 X92.578 Y118.495 E3.64199
G1 X92.507 Y118.013 E3.69978
G1 X92.367 Y117.547 E3.75757
G1 X92.158 Y117.101 E3.81608
G1 X101.636 Y117.093 E4.94172
G1 X102.455 Y116.619 E5.05412
G1 X103.151 Y115.626 E5.19822
G1 X103.334 Y116.127 E5.26160
G1 X103.835 Y116.724 E5.35420
G1 X104.640 Y117.100 E5.45966
G1 X111.142 Y117.102 E6.23190
G1 X112.007 Y116.871 E6.33821
G1 X112.990 Y115.698 E6.51998
G1 X113.133 Y116.229 E6.58523
G1 X114.162 Y117.092 E6.74477
G1 X121.140 Y117.100 E7.57355
G1 X121.946 Y116.724 E7.67918
G1 X122.447 Y116.127 E7.77178
G1 X122.537 Y115.881 E7.80295
G1 X122.851 Y115.894 E7.84027
G1 X122.941 Y116.229 E7.88141
G1 X123.970 Y117.093 E8.04098
G1 X125.453 Y117.094 E8.21709
G1 X125.191 Y117.778 E8.30404
G1 X125.085 Y118.253 E8.36183
G1 X125.050 Y118.738 E8.41963
G1 X125.085 Y119.223 E8.47742
G1 X125.191 Y119.698 E8.53521
G1 X125.449 Y120.374 E8.62109
G1 X92.218 Y120.374 E12.56777
G1 E10.56777 F2400.00000
G92 E0
G1 X102.693 Y113.940 F7800.000
G1 E2.00000 F2400.00000
G1 F1800
G1 X102.888 Y113.602 E2.04637
G1 X103.275 Y113.602 E2.09231
G1 X103.472 Y113.942 E2.13893
G1 X103.083 Y114.619 E2.23165
G1 X102.723 Y113.992 E2.31744
G1 E0.31744 F2400.00000
G92 E0
G1 X112.501 Y113.940 F7800.000
G1 E2.00000 F2400.00000
G1 F1800
G1 X112.696 Y113.602 E2.04638
G1 X113.083 Y113.602 E2.09231
G1 X113.280 Y113.942 E2.13894
G1 X112.891 Y114.619 E2.23164
G1 X112.531 Y113.992 E2.31742
G1 E0.31742 F2400.00000
G92 E0
G1 X122.309 Y113.942 F7800.000
G1 E2.00000 F2400.00000
G1 F1800
G1 X122.506 Y113.602 E2.04663
G1 X122.893 Y113.602 E2.09256
G1 X123.088 Y113.940 E2.13893
G1 X122.698 Y114.619 E2.23186
G1 X122.339 Y113.994 E2.31744
G1 E0.31744 F2400.00000
G92 E0
G1 X114.422 Y116.379 F7800.000
G1 E2.00000 F2400.00000
G1 F1800
G1 X120.982 Y116.386 E2.77910
G1 X121.501 Y116.144 E2.84707
G1 X121.819 Y115.765 E2.90592
G1 X121.989 Y115.299 E2.96477
G1 X121.939 Y114.731 E3.03253
G1 X121.485 Y113.940 E3.14077
G1 X122.095 Y112.888 E3.28523
G1 X123.305 Y112.888 E3.42901
G1 X123.912 Y113.940 E3.57321
G1 X123.483 Y114.687 E3.67556
G1 X123.397 Y115.174 E3.73428
G1 X123.572 Y115.827 E3.81456
G1 X124.230 Y116.379 E3.91656
G1 X127.067 Y116.381 E4.25347
G1 X126.434 Y116.992 E4.35789
G1 X126.200 Y117.294 E4.40327
G1 X126.013 Y117.627 E4.44865
G1 X125.877 Y117.984 E4.49403
G1 X125.794 Y118.357 E4.53940
G1 X125.766 Y118.738 E4.58478
G1 X125.794 Y119.119 E4.63016
G1 X125.877 Y119.492 E4.67553
G1 X126.013 Y119.849 E4.72091
G1 X126.200 Y120.182 E4.76629
G1 X126.434 Y120.484 E4.81167
G1 X127.060 Y121.088 E4.91491
G1 X90.511 Y121.088 E9.25566
G1 X91.070 Y120.622 E9.34215
G1 X91.325 Y120.338 E9.38753
G1 X91.536 Y120.019 E9.43291
G1 X91.698 Y119.673 E9.47829
G1 X91.808 Y119.307 E9.52367
G1 X91.864 Y118.929 E9.56904
G1 X91.864 Y118.547 E9.61442
G1 X91.808 Y118.169 E9.65980
G1 X91.698 Y117.803 E9.70518
G1 X91.536 Y117.457 E9.75055
G1 X91.325 Y117.138 E9.79593
G1 X91.070 Y116.854 E9.84131
G1 X90.511 Y116.389 E9.92772
G1 X101.444 Y116.379 E11.22618
G1 X101.961 Y116.080 E11.29710
G1 X102.349 Y115.526 E11.37738
G1 X102.349 Y114.775 E11.46660
G1 X101.869 Y113.940 E11.58108
G1 X102.476 Y112.888 E11.72528
G1 X103.686 Y112.888 E11.86905
G1 X104.296 Y113.940 E12.01351
G1 X103.842 Y114.731 E12.12175
G1 X103.792 Y115.299 E12.18951
G1 X103.962 Y115.765 E12.24836
G1 X104.280 Y116.144 E12.30721
G1 X104.798 Y116.386 E12.37508
G1 X111.048 Y116.388 E13.11734
G1 X111.604 Y116.239 E13.18573
G1 X112.157 Y115.581 E13.28780
G1 X112.157 Y114.775 E13.38348
G1 X111.676 Y113.940 E13.49793
G1 X112.284 Y112.888 E13.64215
G1 X113.494 Y112.888 E13.78593
G1 X114.104 Y113.940 E13.93038
G1 X113.675 Y114.687 E14.03262
G1 X113.589 Y115.174 E14.09134
G1 X113.764 Y115.827 E14.17162
G1 X114.376 Y116.340 E14.26648
G1 E12.26648 F2400.00000
G92 E0
G1 X126.502 Y118.461 F7800.000
G1 E2.00000 F2400.00000
G1 F1800
G1 X126.562 Y118.190 E2.03296
G1 X126.662 Y117.931 E2.06592
G1 X126.797 Y117.689 E2.09889
G1 X126.967 Y117.469 E2.13185
G1 X127.167 Y117.277 E2.16481
G1 X127.393 Y117.115 E2.19777
G1 X127.639 Y116.988 E2.23073
G1 X127.902 Y116.899 E2.26370
G1 X128.175 Y116.848 E2.29666
G1 X128.452 Y116.838 E2.32962
G1 X128.728 Y116.869 E2.36258
G1 X128.997 Y116.939 E2.39554
G1 X129.252 Y117.047 E2.42850
G1 X129.489 Y117.192 E2.46147
G1 X129.702 Y117.369 E2.49443
G1 X129.888 Y117.576 E2.52739
G1 X130.041 Y117.808 E2.56035
G1 X130.159 Y118.059 E2.59331
G1 X130.239 Y118.325 E2.62628
G1 X130.279 Y118.599 E2.65924
G1 X130.279 Y118.877 E2.69220
G1 X130.239 Y119.151 E2.72516
G1 X130.159 Y119.417 E2.75812
G1 X130.041 Y119.668 E2.79109
G1 X129.888 Y119.900 E2.82405
G1 X129.702 Y120.107 E2.85701
G1 X129.489 Y120.284 E2.88997
G1 X129.252 Y120.429 E2.92293
G1 X128.997 Y120.537 E2.95590
G1 X128.728 Y120.607 E2.98886
G1 X128.452 Y120.638 E3.02182
G1 X128.175 Y120.628 E3.05478
G1 X127.902 Y120.577 E3.08774
G1 X127.639 Y120.488 E3.12070
G1 X127.393 Y120.361 E3.15367
G1 X127.167 Y120.199 E3.18663
G1 X126.967 Y120.007 E3.21959
G1 X126.797 Y119.787 E3.25255
G1 X126.662 Y119.545 E3.28551
G1 X126.562 Y119.286 E3.31848
G1 X126.502 Y119.015 E3.35144
G1 X126.482 Y118.738 E3.38440
G1 X126.498 Y118.521 E3.41024
G1 X126.285 Y118.289 F7800.000
G1 E1.41024 F2400.00000
G92 E0
G1 X129.634 Y116.384 F7800.000
G1 E2.00000 F2400.00000
G1 F1800
G1 X132.454 Y116.386 E2.33490
G1 X131.268 Y118.440 E2.61661
G1 X130.969 Y118.383 E2.65278
G1 X130.937 Y118.169 E2.67852
G1 X130.827 Y117.803 E2.72389
G1 X130.665 Y117.457 E2.76927
G1 X130.454 Y117.138 E2.81465
G1 X130.199 Y116.854 E2.86003
G1 X129.680 Y116.422 E2.94021
G1 E0.94021 F2400.00000
G92 E0
G1 X89.197 Y115.368 F7800.000
G1 E2.00000 F2400.00000
G1 F1800
G1 X88.411 Y115.513 E2.09495
G1 X87.950 Y115.670 E2.15275
G1 X87.517 Y115.893 E2.21054
G1 X87.122 Y116.176 E2.26833
G1 X86.771 Y116.514 E2.32613
G1 X86.376 Y117.025 E2.40291
G1 X81.820 Y109.133 E3.48521
G1 X82.073 Y108.901 E3.52606
G1 X82.629 Y109.291 E3.60669
G1 X85.684 Y109.284 E3.96949
G1 X89.167 Y115.316 E4.79676
G1 E2.79676 F2400.00000
G92 E0
G1 X80.131 Y106.208 F7800.000
G1 E2.00000 F2400.00000
G1 F1800
G1 X76.811 Y100.458 E2.78854
G1 X78.080 Y100.798 E2.94456
G1 X80.780 Y100.789 E3.26526
G1 X81.828 Y102.605 E3.51420
G1 X80.471 Y104.939 E3.83488
G1 X80.146 Y106.150 E3.98377
G1 E1.98377 F2400.00000
G92 E0
G1 X75.450 Y97.429 F7800.000
G1 E2.00000 F2400.00000
G1 F1800
G1 X75.122 Y97.532 E2.04084
G1 X72.012 Y92.146 E2.77954
G1 X72.265 Y91.913 E2.82039
G1 X72.822 Y92.303 E2.90103
G1 X75.876 Y92.296 E3.26383
G1 X76.924 Y94.110 E3.51266
G1 X75.391 Y96.752 E3.87543
G1 X75.445 Y97.369 E3.94897
G1 E1.94897 F2400.00000
G92 E0
G1 X70.506 Y88.938 F7800.000
G1 E2.00000 F2400.00000
G1 F1800
G1 X70.199 Y89.006 E2.03731
G1 X69.657 Y88.066 E2.16623
G1 X70.222 Y88.004 E2.23385
G1 X70.597 Y87.906 E2.27978
G1 X70.511 Y88.879 E2.39572
G1 X71.218 Y88.996 F7800.000
G1 F1800
G1 X72.485 Y91.195 E2.69718
G1 X73.046 Y91.588 E2.77850
G1 X75.777 Y91.582 E3.10287
G1 X76.122 Y91.293 E3.15630
G1 X77.915 Y94.399 E3.58231
G1 X77.493 Y94.553 E3.63573
G1 X76.122 Y96.915 E3.96008
G1 X76.181 Y97.597 E4.04134
G1 X77.339 Y99.603 E4.31642
G1 X77.691 Y99.954 E4.37545
G1 X78.173 Y100.083 E4.43470
G1 X80.682 Y100.075 E4.73266
G1 X81.026 Y99.787 E4.78603
G1 X82.819 Y102.893 E5.21204
G1 X82.397 Y103.047 E5.26540
G1 X81.136 Y105.216 E5.56335
G1 X81.007 Y105.697 E5.62259
G1 X81.135 Y106.177 E5.68162
G1 X82.293 Y108.183 E5.95670
G1 X82.854 Y108.576 E6.03797
G1 X85.585 Y108.570 E6.36233
G1 X85.930 Y108.281 E6.41576
G1 X90.436 Y116.087 E7.48626
G1 X90.232 Y116.318 E7.52291
G1 X90.099 Y116.261 E7.54009
G1 X89.729 Y116.164 E7.58547
G1 X89.349 Y116.123 E7.63085
G1 X88.968 Y116.137 E7.67622
G1 X88.592 Y116.206 E7.72160
G1 X88.230 Y116.329 E7.76698
G1 X87.890 Y116.504 E7.81236
G1 X87.580 Y116.726 E7.85773
G1 X87.305 Y116.992 E7.90311
G1 X87.071 Y117.294 E7.94849
G1 X86.884 Y117.627 E7.99387
G1 X86.748 Y117.984 E8.03924
G1 X86.569 Y118.787 E8.13697
G1 X68.221 Y87.008 E12.49515
G1 X68.955 Y87.258 E12.58729
G1 X69.331 Y87.328 E12.63267
G1 X69.713 Y87.342 E12.67805
G1 X70.092 Y87.300 E12.72343
G1 X70.462 Y87.203 E12.76881
G1 X70.814 Y87.054 E12.81418
G1 X71.140 Y86.855 E12.85956
G1 X71.434 Y86.610 E12.90494
G1 X71.688 Y86.326 E12.95031
G1 X71.899 Y86.007 E12.99569
G1 X72.061 Y85.661 E13.04107
G1 X72.172 Y85.295 E13.08645
G1 X72.203 Y85.081 E13.11218
G1 X72.502 Y85.024 E13.14836
G1 X73.011 Y85.905 E13.26928
G1 X72.589 Y86.059 E13.32265
G1 X71.278 Y88.315 E13.63250
G1 X71.223 Y88.936 E13.70664
G1 E11.70664 F2400.00000
G92 E0
G1 X70.595 Y82.306 F7800.000
G1 E2.00000 F2400.00000
G1 F1800
G1 X70.462 Y82.249 E2.01718
G1 X70.092 Y82.153 E2.06256
G1 X69.713 Y82.111 E2.10794
G1 X69.331 Y82.125 E2.15332
G1 X68.955 Y82.194 E2.19869
G1 X68.221 Y82.445 E2.29082
G1 X69.617 Y80.026 E2.62245
G1 X70.800 Y82.075 E2.90337
G1 X70.635 Y82.261 E2.93289
G1 X70.316 Y82.963 F7800.000
G1 F1800
G1 X70.486 Y83.035 E2.95488
G1 X70.723 Y83.180 E2.98784
G1 X70.937 Y83.358 E3.02080
G1 X71.122 Y83.564 E3.05376
G1 X71.275 Y83.796 E3.08672
G1 X71.393 Y84.047 E3.11968
G1 X71.473 Y84.313 E3.15265
G1 X71.513 Y84.587 E3.18561
G1 X71.513 Y84.865 E3.21857
G1 X71.473 Y85.139 E3.25153
G1 X71.393 Y85.405 E3.28449
G1 X71.275 Y85.657 E3.31746
G1 X71.122 Y85.888 E3.35042
G1 X70.937 Y86.095 E3.38338
G1 X70.723 Y86.272 E3.41634
G1 X70.486 Y86.417 E3.44930
G1 X70.231 Y86.525 E3.48227
G1 X69.962 Y86.596 E3.51523
G1 X69.686 Y86.626 E3.54819
G1 X69.409 Y86.616 E3.58115
G1 X69.136 Y86.565 E3.61411
G1 X68.874 Y86.476 E3.64708
G1 X68.627 Y86.349 E3.68004
G1 X68.401 Y86.187 E3.71300
G1 X68.201 Y85.995 E3.74596
G1 X68.032 Y85.775 E3.77892
G1 X67.896 Y85.533 E3.81188
G1 X67.797 Y85.274 E3.84485
G1 X67.736 Y85.003 E3.87781
G1 X67.716 Y84.726 E3.91077
G1 X67.736 Y84.449 E3.94373
G1 X67.797 Y84.178 E3.97669
G1 X67.896 Y83.919 E4.00966
G1 X68.032 Y83.677 E4.04262
G1 X68.201 Y83.458 E4.07558
G1 X68.401 Y83.265 E4.10854
G1 X68.627 Y83.103 E4.14150
G1 X68.874 Y82.976 E4.17446
G1 X69.136 Y82.887 E4.20743
G1 X69.409 Y82.836 E4.24039
G1 X69.686 Y82.826 E4.27335
G1 X69.962 Y82.857 E4.30631
G1 X70.261 Y82.940 E4.34309
G1 X70.457 Y82.843 F7800.000
G1 E2.34309 F2400.00000
G92 E0
G1 X73.077 Y86.642 F7800.000
G1 E2.00000 F2400.00000
G1 F1800
G1 X71.975 Y88.536 E2.26021
G1 X71.949 Y88.834 E2.29582
G1 X73.025 Y90.701 E2.55173
G1 X73.271 Y90.874 E2.58737
G1 X75.517 Y90.868 E2.85411
G1 X75.733 Y90.687 E2.88770
G1 X76.168 Y89.944 E2.98989
G1 X79.106 Y95.034 E3.68793
G1 X78.246 Y95.039 E3.79012
G1 X77.980 Y95.136 E3.82371
G1 X76.853 Y97.078 E4.09044
G1 X76.879 Y97.377 E4.12605
G1 X77.911 Y99.164 E4.37117
G1 X78.061 Y99.314 E4.39631
G1 X78.266 Y99.369 E4.42152
G1 X80.421 Y99.362 E4.67746
G1 X80.637 Y99.180 E4.71103
G1 X81.072 Y98.438 E4.81322
G1 X84.010 Y103.528 E5.51126
G1 X83.150 Y103.533 E5.61345
G1 X82.884 Y103.629 E5.64702
G1 X81.801 Y105.492 E5.90295
G1 X81.746 Y105.697 E5.92816
G1 X81.801 Y105.902 E5.95330
G1 X82.833 Y107.689 E6.19841
G1 X83.078 Y107.861 E6.23403
G1 X85.324 Y107.856 E6.50077
G1 X85.541 Y107.674 E6.53436
G1 X85.976 Y106.932 E6.63655
G1 X91.023 Y115.674 E7.83545
G1 X101.252 Y115.665 E9.05037
G1 X101.467 Y115.541 E9.07979
G1 X101.635 Y115.301 E9.11453
G1 X101.635 Y114.966 E9.15437
G1 X101.044 Y113.939 E9.29506
G1 X102.063 Y112.174 E9.53709
G1 X104.098 Y112.174 E9.77871
G1 X105.121 Y113.939 E10.02100
G1 X104.540 Y114.950 E10.15947
G1 X104.518 Y115.203 E10.18971
G1 X104.590 Y115.402 E10.21481
G1 X104.726 Y115.564 E10.23990
G1 X104.957 Y115.672 E10.27018
G1 X110.954 Y115.674 E10.98247
G1 X111.202 Y115.608 E11.01294
G1 X111.443 Y115.321 E11.05739
G1 X111.443 Y114.966 E11.09955
G1 X110.852 Y113.939 E11.24022
G1 X111.871 Y112.174 E11.48229
G1 X113.906 Y112.174 E11.72390
G1 X114.929 Y113.939 E11.96619
G1 X114.357 Y114.934 E12.10251
G1 X114.320 Y115.142 E12.12756
G1 X114.396 Y115.424 E12.16229
G1 X114.682 Y115.665 E12.20671
G1 X120.824 Y115.672 E12.93614
G1 X121.055 Y115.564 E12.96645
G1 X121.191 Y115.402 E12.99155
G1 X121.263 Y115.203 E13.01664
G1 X121.241 Y114.950 E13.04688
G1 X120.660 Y113.939 E13.18536
G1 X121.683 Y112.174 E13.42764
G1 X123.718 Y112.174 E13.66926
G1 X124.737 Y113.939 E13.91129
G1 X124.165 Y114.934 E14.04763
G1 X124.128 Y115.142 E14.07268
G1 X124.204 Y115.424 E14.10741
G1 X124.490 Y115.665 E14.15184
G1 X133.691 Y115.673 E15.24452
G1 X130.152 Y121.802 E16.08500
G1 X87.485 Y121.802 E21.15239
G1 X66.079 Y84.726 E26.23691
G1 X69.617 Y78.598 E27.07732
G1 X74.203 Y86.540 E28.16651
G1 X73.342 Y86.545 E28.26869
G1 X73.133 Y86.621 E28.29513
G1 X72.697 Y86.515 F7800.000
G1 X71.581 Y87.004
G1 F1800
G1 X70.975 Y87.685 E28.31567
G1 X70.475 Y89.311 F7800.000
G1 F1800
G1 X71.894 Y91.770 E28.73433
G1 X72.962 Y93.363 F7800.000
