; generated by PrusaSlicer 2.1.1+ on 2021-03-12 at 20:53:24 UTC

; 

; external perimeters extrusion width = 0.45mm
; perimeters extrusion width = 0.45mm
; infill extrusion width = 0.45mm
; solid infill extrusion width = 0.45mm
; top infill extrusion width = 0.40mm
; first layer extrusion width = 0.80mm

M107
M190 S50 ; set bed temperature and wait for it to be reached
M104 S200 ; set temperature
G28 ; home all axes
G1 Z5 F5000 ; lift nozzle
M109 S200 ; set temperature and wait for it to be reached
G21 ; set units to millimeters
G90 ; use absolute coordinates
M82 ; use absolute distances for extrusion
G92 E0
; Filament gcode
G1 Z0.400 F7800.000
G1 E-2.00000 F2400.00000
G92 E0
G1 X85.826 Y85.206 F7800.000
G1 E2.00000 F2400.00000
G1 F1800
G1 X86.893 Y84.454 E2.15508
G1 X88.086 Y83.938 E2.30943
G1 X89.365 Y83.675 E2.46451
G1 X110.006 Y83.643 E4.91596
G1 X111.115 Y83.742 E5.04821
G1 X112.196 Y84.034 E5.18120
G1 X113.204 Y84.509 E5.31345
G1 X114.113 Y85.152 E5.44570
G1 X114.895 Y85.944 E5.57796
G1 X115.528 Y86.861 E5.71021
G1 X115.991 Y87.874 E5.84246
G1 X116.270 Y88.952 E5.97471
G1 X116.357 Y89.975 E6.09665
G1 X116.350 Y110.305 E8.51121
G1 X116.233 Y111.250 E8.62430
G1 X115.974 Y112.173 E8.73812
G1 X115.583 Y113.041 E8.85120
G1 X115.062 Y113.845 E8.96502
G1 X114.103 Y114.855 E9.13040
G1 X112.948 Y115.632 E9.29578
G1 X111.645 Y116.141 E9.46189
G1 X110.268 Y116.351 E9.62727
G1 X89.658 Y116.348 E12.07512
G1 X88.719 Y116.227 E12.18746
G1 X87.810 Y115.968 E12.29980
G1 X86.948 Y115.577 E12.41215
G1 X86.155 Y115.062 E12.52449
G1 X85.145 Y114.103 E12.68987
G1 X84.368 Y112.948 E12.85525
G1 X83.859 Y111.645 E13.02137
G1 X83.649 Y110.268 E13.18675
G1 X83.652 Y89.658 E15.63459
G1 X83.773 Y88.719 E15.74694
G1 X84.032 Y87.810 E15.85928
G1 X84.423 Y86.948 E15.97162
G1 X84.938 Y86.155 E16.08397
G1 X85.785 Y85.249 E16.23119
G1 E14.23119 F2400.00000
G92 E0
G1 X108.172 Y108.172 F7800.000
G1 E2.00000 F2400.00000
G1 F1800
G1 X91.828 Y108.172 E3.94102
G1 X91.828 Y91.828 E5.88204
G1 X108.172 Y91.828 E7.82307
G1 X108.172 Y108.112 E9.75696
G1 X108.886 Y108.886 F7800.000
G1 F1800
G1 X91.114 Y108.886 E11.86762
G1 X91.114 Y91.114 E13.97828
G1 X108.886 Y91.114 E16.08893
G1 X108.886 Y108.826 E18.19247
G1 X109.600 Y109.600 F7800.000
G1 F1800
G1 X90.400 Y109.600 E20.47276
G1 X90.400 Y90.400 E22.75305
G1 X109.600 Y90.400 E25.03334
G1 X109.600 Y109.540 E27.30651
G1 X109.214 Y109.496 F7800.000
G1 E25.30651 F2400.00000
G92 E0
G1 X107.957 Y93.518 F7800.000
G1 E2.00000 F2400.00000
G1 F1800
G1 X106.803 Y92.364 E2.19799
G1 X105.772 Y92.364 E2.32308
G1 X107.636 Y94.228 E2.64285
G1 X107.636 Y95.260 E2.76794
G1 X104.740 Y92.364 E3.26461
G1 X103.709 Y92.364 E3.38969
G1 X107.636 Y96.291 E4.06326
G1 X107.636 Y97.322 E4.18835
G1 X102.678 Y92.364 E5.03882
G1 X101.646 Y92.364 E5.16390
G1 X107.636 Y98.354 E6.19127
G1 X107.636 Y99.385 E6.31636
G1 X100.615 Y92.364 E7.52063
G1 X99.583 Y92.364 E7.64571
G1 X107.636 Y100.417 E9.02688
G1 X107.636 Y101.448 E9.15197
G1 X98.552 Y92.364 E10.71004
G1 X97.521 Y92.364 E10.83512
G1 X107.636 Y102.479 E12.57009
G1 X107.636 Y103.511 E12.69518
G1 X96.489 Y92.364 E14.60704
G1 X95.458 Y92.364 E14.73213
G1 X107.636 Y104.542 E16.82090
G1 X107.636 Y105.573 E16.94598
G1 X94.427 Y92.364 E19.21165
G1 X93.395 Y92.364 E19.33674
G1 X107.636 Y106.605 E21.77930
G1 X107.636 Y107.636 E21.90438
G1 X92.364 Y92.364 E24.52383
G1 X92.364 Y93.395 E24.64892
G1 X106.605 Y107.636 E27.09147
G1 X105.573 Y107.636 E27.21655
G1 X92.364 Y94.427 E29.48220
G1 X92.364 Y95.458 E29.60729
G1 X104.542 Y107.636 E31.69604
G1 X103.511 Y107.636 E31.82112
G1 X92.364 Y96.489 E33.73297
G1 X92.364 Y97.521 E33.85806
G1 X102.479 Y107.636 E35.59301
G1 X101.448 Y107.636 E35.71810
G1 X92.364 Y98.552 E37.27615
G1 X92.364 Y99.584 E37.40123
G1 X100.416 Y107.636 E38.78238
G1 X99.385 Y107.636 E38.90747
G1 X92.364 Y100.615 E40.11172
G1 X92.364 Y101.646 E40.23681
G1 X98.354 Y107.636 E41.26416
G1 X97.322 Y107.636 E41.38925
G1 X92.364 Y102.678 E42.23970
G1 X92.364 Y103.709 E42.36478
G1 X96.291 Y107.636 E43.03834
G1 X95.260 Y107.636 E43.16342
G1 X92.364 Y104.740 E43.66007
G1 X92.364 Y105.772 E43.78516
G1 X94.228 Y107.636 E44.10491
G1 X93.197 Y107.636 E44.23000
G1 X92.043 Y106.482 E44.42797
G1 Z0.550 F7800.000
G1 X108.939 Y108.939
G1 F3600
G1 X91.061 Y108.939 E44.89382
G1 X91.061 Y91.061 E45.35966
G1 X108.939 Y91.061 E45.82551
G1 X108.939 Y108.879 E46.28979
G1 X109.357 Y109.357 F7800.000
G1 F3600
G1 X90.643 Y109.357 E46.77741
G1 X90.643 Y90.643 E47.26503
G1 X109.357 Y90.643 E47.75264
G1 X109.357 Y109.297 E48.23870
G1 X109.775 Y109.775 F7800.000
G1 F1800
G1 X90.225 Y109.775 E48.74809
G1 X90.225 Y90.225 E49.25748
G1 X109.775 Y90.225 E49.76687
G1 X109.775 Y109.715 E50.27469
G1 X109.389 Y109.671 F7800.000
G1 X107.957 Y108.814
G1 F1200
G1 X108.626 Y108.145 E50.29968
G1 X108.626 Y107.546 E50.31550
G1 X107.546 Y108.626 E50.35583
G1 X106.947 Y108.626 E50.37165
G1 X108.626 Y106.947 E50.43435
G1 X108.626 Y106.348 E50.45018
G1 X106.348 Y108.626 E50.53526
G1 X105.749 Y108.626 E50.55108
G1 X108.626 Y105.749 E50.65853
G1 X108.626 Y105.150 E50.67435
G1 X105.150 Y108.626 E50.80418
G1 X104.551 Y108.626 E50.82000
G1 X108.626 Y104.551 E50.97220
G1 X108.626 Y103.952 E50.98802
G1 X103.952 Y108.626 E51.16260
G1 X103.353 Y108.626 E51.17842
G1 X108.626 Y103.353 E51.37537
G1 X108.626 Y102.755 E51.39119
G1 X102.755 Y108.626 E51.61052
G1 X102.156 Y108.626 E51.62634
G1 X108.626 Y102.156 E51.86804
G1 X108.626 Y101.557 E51.88386
G1 X101.557 Y108.626 E52.14793
G1 X100.958 Y108.626 E52.16376
G1 X108.626 Y100.958 E52.45020
G1 X108.626 Y100.359 E52.46602
G1 X100.359 Y108.626 E52.77485
G1 X99.760 Y108.626 E52.79067
G1 X108.626 Y99.760 E53.12186
G1 X108.626 Y99.161 E53.13769
G1 X99.161 Y108.626 E53.49126
G1 X98.562 Y108.626 E53.50708
G1 X108.626 Y98.562 E53.88302
G1 X108.626 Y97.963 E53.89884
G1 X97.963 Y108.626 E54.29716
G1 X97.364 Y108.626 E54.31298
G1 X108.626 Y97.364 E54.73368
G1 X108.626 Y96.765 E54.74950
G1 X96.765 Y108.626 E55.19257
G1 X96.166 Y108.626 E55.20839
G1 X108.626 Y96.166 E55.67383
G1 X108.626 Y95.567 E55.68965
G1 X95.567 Y108.626 E56.17747
G1 X94.968 Y108.626 E56.19329
G1 X108.626 Y94.968 E56.70348
G1 X108.626 Y94.369 E56.71930
G1 X94.369 Y108.626 E57.25186
G1 X93.770 Y108.626 E57.26768
G1 X108.626 Y93.770 E57.82262
G1 X108.626 Y93.171 E57.83844
G1 X93.171 Y108.626 E58.41576
G1 X92.572 Y108.626 E58.43158
G1 X108.626 Y92.572 E59.03127
G1 X108.626 Y91.973 E59.04709
G1 X91.973 Y108.626 E59.66915
G1 X91.374 Y108.626 E59.68497
G1 X108.626 Y91.374 E60.32940
G1 X108.027 Y91.374 E60.34522
G1 X91.374 Y108.027 E60.96728
G1 X91.374 Y107.428 E60.98310
G1 X107.428 Y91.374 E61.58278
G1 X106.829 Y91.374 E61.59861
G1 X91.374 Y106.829 E62.17592
G1 X91.374 Y106.230 E62.19174
G1 X106.230 Y91.374 E62.74667
G1 X105.631 Y91.374 E62.76249
G1 X91.374 Y105.631 E63.29505
G1 X91.374 Y105.032 E63.31088
G1 X105.032 Y91.374 E63.82106
G1 X104.433 Y91.374 E63.83688
G1 X91.374 Y104.433 E64.32470
G1 X91.374 Y103.834 E64.34052
G1 X103.834 Y91.374 E64.80596
G1 X103.235 Y91.374 E64.82178
G1 X91.374 Y103.235 E65.26484
G1 X91.374 Y102.636 E65.28066
G1 X102.636 Y91.374 E65.70135
G1 X102.037 Y91.374 E65.71717
G1 X91.374 Y102.037 E66.11549
G1 X91.374 Y101.438 E66.13131
G1 X101.438 Y91.374 E66.50725
G1 X100.839 Y91.374 E66.52307
G1 X91.374 Y100.839 E66.87664
G1 X91.374 Y100.240 E66.89246
G1 X100.240 Y91.374 E67.22365
G1 X99.641 Y91.374 E67.23948
G1 X91.374 Y99.641 E67.54829
G1 X91.374 Y99.042 E67.56412
G1 X99.042 Y91.374 E67.85056
G1 X98.443 Y91.374 E67.86638
G1 X91.374 Y98.443 E68.13045
G1 X91.374 Y97.844 E68.14627
G1 X97.844 Y91.374 E68.38797
G1 X97.245 Y91.374 E68.40379
G1 X91.374 Y97.245 E68.62311
G1 X91.374 Y96.646 E68.63893
G1 X96.646 Y91.374 E68.83588
G1 X96.047 Y91.374 E68.85170
G1 X91.374 Y96.047 E69.02628
G1 X91.374 Y95.448 E69.04210
G1 X95.448 Y91.374 E69.19430
G1 X94.849 Y91.374 E69.21012
G1 X91.374 Y94.849 E69.33994
G1 X91.374 Y94.251 E69.35576
G1 X94.251 Y91.374 E69.46321
G1 X93.652 Y91.374 E69.47903
G1 X91.374 Y93.652 E69.56411
G1 X91.374 Y93.053 E69.57993
G1 X93.053 Y91.374 E69.64263
G1 X92.454 Y91.374 E69.65846
G1 X91.374 Y92.454 E69.69878
G1 X91.374 Y91.855 E69.71460
G1 X92.043 Y91.186 E69.73958
G1 Z0.700 F7800.000
G1 X108.939 Y108.939
G1 F3600
G1 X91.061 Y108.939 E70.20543
G1 X91.061 Y91.061 E70.67127
G1 X108.939 Y91.061 E71.13712
G1 X108.939 Y108.879 E71.60140
G1 X109.357 Y109.357 F7800.000
G1 F3600
G1 X90.643 Y109.357 E72.08901
G1 X90.643 Y90.643 E72.57663
G1 X109.357 Y90.643 E73.06425
G1 X109.357 Y109.297 E73.55030
G1 X109.775 Y109.775 F7800.000
G1 F1800
G1 X90.225 Y109.775 E74.05969
G1 X90.225 Y90.225 E74.56908
G1 X109.775 Y90.225 E75.07847
G1 X109.775 Y109.715 E75.58630
G1 X109.389 Y109.671 F7800.000
G1 X108.814 Y92.043
G1 F1200
G1 X108.145 Y91.374 E75.61128
G1 X107.546 Y91.374 E75.62710
G1 X108.626 Y92.454 E75.66743
G1 X108.626 Y93.053 E75.68326
G1 X106.947 Y91.374 E75.74596
G1 X106.348 Y91.374 E75.76178
G1 X108.626 Y93.652 E75.84686
G1 X108.626 Y94.251 E75.86268
G1 X105.749 Y91.374 E75.97014
G1 X105.150 Y91.374 E75.98596
G1 X108.626 Y94.850 E76.11579
G1 X108.626 Y95.449 E76.13161
G1 X104.551 Y91.374 E76.28381
G1 X103.952 Y91.374 E76.29963
G1 X108.626 Y96.048 E76.47421
G1 X108.626 Y96.647 E76.49003
G1 X103.353 Y91.374 E76.68698
G1 X102.755 Y91.374 E76.70280
G1 X108.626 Y97.245 E76.92213
G1 X108.626 Y97.844 E76.93795
G1 X102.156 Y91.374 E77.17965
G1 X101.557 Y91.374 E77.19547
G1 X108.626 Y98.443 E77.45954
G1 X108.626 Y99.042 E77.47536
G1 X100.958 Y91.374 E77.76181
G1 X100.359 Y91.374 E77.77763
G1 X108.626 Y99.641 E78.08645
G1 X108.626 Y100.240 E78.10227
G1 X99.760 Y91.374 E78.43347
G1 X99.161 Y91.374 E78.44929
G1 X108.626 Y100.839 E78.80286
G1 X108.626 Y101.438 E78.81868
G1 X98.562 Y91.374 E79.19463
G1 X97.963 Y91.374 E79.21045
G1 X108.626 Y102.037 E79.60877
G1 X108.626 Y102.636 E79.62459
G1 X97.364 Y91.374 E80.04528
G1 X96.765 Y91.374 E80.06110
G1 X108.626 Y103.235 E80.50417
G1 X108.626 Y103.834 E80.51999
G1 X96.166 Y91.374 E80.98544
G1 X95.567 Y91.374 E81.00126
G1 X108.626 Y104.433 E81.48907
G1 X108.626 Y105.032 E81.50489
G1 X94.968 Y91.374 E82.01508
G1 X94.369 Y91.374 E82.03090
G1 X108.626 Y105.631 E82.56347
G1 X108.626 Y106.230 E82.57929
G1 X93.770 Y91.374 E83.13423
G1 X93.171 Y91.374 E83.15005
G1 X108.626 Y106.829 E83.72736
G1 X108.626 Y107.428 E83.74318
G1 X92.572 Y91.374 E84.34287
G1 X91.973 Y91.374 E84.35869
G1 X108.626 Y108.027 E84.98075
G1 X108.626 Y108.626 E84.99657
G1 X91.374 Y91.374 E85.64101
G1 X91.374 Y91.973 E85.65683
G1 X108.027 Y108.626 E86.27889
G1 X107.428 Y108.626 E86.29471
G1 X91.374 Y92.572 E86.89439
G1 X91.374 Y93.171 E86.91021
G1 X106.829 Y108.626 E87.48752
G1 X106.230 Y108.626 E87.50334
G1 X91.374 Y93.770 E88.05828
G1 X91.374 Y94.369 E88.07410
G1 X105.631 Y108.626 E88.60666
G1 X105.032 Y108.626 E88.62248
G1 X91.374 Y94.968 E89.13267
G1 X91.374 Y95.567 E89.14849
G1 X104.433 Y108.626 E89.63630
G1 X103.834 Y108.626 E89.65212
G1 X91.374 Y96.166 E90.11756
G1 X91.374 Y96.765 E90.13338
G1 X103.235 Y108.626 E90.57645
G1 X102.636 Y108.626 E90.59227
G1 X91.374 Y97.364 E91.01296
G1 X91.374 Y97.963 E91.02878
G1 X102.037 Y108.626 E91.42710
G1 X101.438 Y108.626 E91.44292
G1 X91.374 Y98.562 E91.81886
G1 X91.374 Y99.161 E91.83468
G1 X100.839 Y108.626 E92.18825
G1 X100.240 Y108.626 E92.20407
G1 X91.374 Y99.760 E92.53526
G1 X91.374 Y100.359 E92.55108
G1 X99.641 Y108.626 E92.85990
G1 X99.042 Y108.626 E92.87572
G1 X91.374 Y100.958 E93.16217
G1 X91.374 Y101.557 E93.17799
G1 X98.443 Y108.626 E93.44206
G1 X97.844 Y108.626 E93.45788
G1 X91.374 Y102.156 E93.69958
G1 X91.374 Y102.755 E93.71540
G1 X97.245 Y108.626 E93.93472
G1 X96.646 Y108.626 E93.95054
G1 X91.374 Y103.354 E94.14749
G1 X91.374 Y103.953 E94.16331
G1 X96.047 Y108.626 E94.33788
G1 X95.448 Y108.626 E94.35370
G1 X91.374 Y104.552 E94.50590
G1 X91.374 Y105.151 E94.52172
G1 X94.849 Y108.626 E94.65155
G1 X94.251 Y108.626 E94.66737
G1 X91.374 Y105.749 E94.77482
G1 X91.374 Y106.348 E94.79064
G1 X93.652 Y108.626 E94.87572
G1 X93.053 Y108.626 E94.89154
G1 X91.374 Y106.947 E94.95424
G1 X91.374 Y107.546 E94.97006
G1 X92.454 Y108.626 E95.01039
G1 X91.855 Y108.626 E95.02621
G1 X91.186 Y107.957 E95.05119
M106 S237.15
G1 Z0.850 F7800.000
G1 X108.939 Y108.939
G1 F3600
G1 X91.061 Y108.939 E95.51703
G1 X91.061 Y91.061 E95.98288
G1 X108.939 Y91.061 E96.44872
G1 X108.939 Y108.879 E96.91300
G1 X109.357 Y109.357 F7800.000
G1 F3600
G1 X90.643 Y109.357 E97.40062
G1 X90.643 Y90.643 E97.88824
G1 X109.357 Y90.643 E98.37586
G1 X109.357 Y109.297 E98.86191
G1 X109.775 Y109.775 F7800.000
G1 F1800
G1 X90.225 Y109.775 E99.37130
G1 X90.225 Y90.225 E99.88069
G1 X109.775 Y90.225 E100.39008
G1 X109.775 Y109.715 E100.89791
G1 X109.389 Y109.671 F7800.000
G1 X108.019 Y108.814
G1 F4800
G1 X108.626 Y106.550 E100.95898
G1 X108.626 Y96.864 E101.21135
G1 X105.475 Y108.626 E101.52861
G1 X102.879 Y108.626 E101.59624
G1 X107.502 Y91.374 E102.06161
G1 X104.907 Y91.374 E102.12923
G1 X100.284 Y108.626 E102.59460
G1 X97.689 Y108.626 E102.66223
G1 X102.311 Y91.374 E103.12760
G1 X99.716 Y91.374 E103.19522
G1 X95.093 Y108.626 E103.66059
G1 X92.498 Y108.626 E103.72822
G1 X97.121 Y91.374 E104.19359
G1 X94.525 Y91.374 E104.26121
G1 X91.374 Y103.136 E104.57848
G1 X91.374 Y93.450 E104.83085
G1 X91.981 Y91.186 E104.89192
G1 X91.186 Y93.278 F7800.000
G1 F4800
G1 X98.994 Y91.186 E105.10255
G1 X91.186 Y95.873 F7800.000
G1 F4800
G1 X108.680 Y91.186 E105.57445
G1 X108.814 Y93.745 F7800.000
G1 F4800
G1 X91.186 Y98.469 E106.04997
G1 X91.186 Y101.064 F7800.000
G1 F4800
G1 X108.814 Y96.341 E106.52548
G1 X108.814 Y94.633 F7800.000
G1 F4800
G1 X105.555 Y91.374 E106.64558
G1 X102.010 Y91.374 E106.73795
G1 X108.626 Y97.990 E106.98176
G1 X108.626 Y101.536 E107.07413
G1 X98.464 Y91.374 E107.44857
G1 X94.919 Y91.374 E107.54094
G1 X108.626 Y105.081 E108.04602
G1 X108.626 Y108.626 E108.13839
G1 X91.374 Y91.374 E108.77410
G1 X91.374 Y94.919 E108.86648
G1 X105.081 Y108.626 E109.37155
G1 X101.536 Y108.626 E109.46393
G1 X91.374 Y98.464 E109.83836
G1 X91.374 Y102.010 E109.93074
G1 X97.990 Y108.626 E110.17454
G1 X94.445 Y108.626 E110.26692
G1 X91.186 Y105.367 E110.38701
G1 X91.186 Y106.255 F7800.000
G1 F4800
G1 X108.814 Y101.531 E110.86253
G1 X108.814 Y104.127 F7800.000
G1 F4800
G1 X91.320 Y108.814 E111.33443
G1 X91.186 Y103.659 F7800.000
G1 F4800
G1 X108.814 Y98.936 E111.80995
G1 X108.814 Y106.722 F7800.000
G1 F4800
G1 X101.006 Y108.814 E112.02058
G1 Z1.000 F7800.000
G1 X108.939 Y108.939
G1 F3600
G1 X91.061 Y108.939 E112.48642
G1 X91.061 Y91.061 E112.95227
G1 X108.939 Y91.061 E113.41811
G1 X108.939 Y108.879 E113.88239
G1 X109.357 Y109.357 F7800.000
G1 F3600
G1 X90.643 Y109.357 E114.37001
G1 X90.643 Y90.643 E114.85763
G1 X109.357 Y90.643 E115.34525
G1 X109.357 Y109.297 E115.83130
G1 X109.775 Y109.775 F7800.000
G1 F1800
G1 X90.225 Y109.775 E116.34069
G1 X90.225 Y90.225 E116.85008
G1 X109.775 Y90.225 E117.35947
G1 X109.775 Y109.715 E117.86730
G1 X109.389 Y109.671 F7800.000
G1 X108.019 Y108.814
G1 F4800
G1 X108.626 Y106.550 E117.92836
G1 X108.626 Y96.864 E118.18073
G1 X105.475 Y108.626 E118.49800
G1 X102.879 Y108.626 E118.56562
G1 X107.502 Y91.374 E119.03100
G1 X104.907 Y91.374 E119.09862
G1 X100.284 Y108.626 E119.56399
G1 X97.689 Y108.626 E119.63162
G1 X102.311 Y91.374 E120.09699
G1 X99.716 Y91.374 E120.16461
G1 X95.093 Y108.626 E120.62998
G1 X92.498 Y108.626 E120.69761
G1 X97.121 Y91.374 E121.16298
G1 X94.525 Y91.374 E121.23060
G1 X91.374 Y103.136 E121.54787
G1 X91.374 Y93.450 E121.80024
G1 X91.981 Y91.186 E121.86131
G1 X91.186 Y93.278 F7800.000
G1 F4800
G1 X98.994 Y91.186 E122.07194
G1 X91.186 Y95.873 F7800.000
G1 F4800
G1 X108.680 Y91.186 E122.54384
G1 X108.814 Y93.745 F7800.000
G1 F4800
G1 X91.186 Y98.469 E123.01936
G1 X91.186 Y101.064 F7800.000
G1 F4800
G1 X108.814 Y96.341 E123.49487
G1 X108.814 Y94.633 F7800.000
G1 F4800
G1 X105.555 Y91.374 E123.61497
G1 X102.010 Y91.374 E123.70734
G1 X108.626 Y97.990 E123.95114
G1 X108.626 Y101.536 E124.04352
G1 X98.464 Y91.374 E124.41796
G1 X94.919 Y91.374 E124.51033
G1 X108.626 Y105.081 E125.01541
G1 X108.626 Y108.626 E125.10778
G1 X91.374 Y91.374 E125.74349
G1 X91.374 Y94.919 E125.83587
