; generated by PrusaSlicer 2.1.1+ on 2021-02-07 at 19:37:39 UTC

; 

; external perimeters extrusion width = 0.45mm
; perimeters extrusion width = 0.45mm
; infill extrusion width = 0.45mm
; solid infill extrusion width = 0.45mm
; top infill extrusion width = 0.40mm
; first layer extrusion width = 0.80mm

M107
M190 S60 ; set bed temperature and wait for it to be reached
M104 S200 ; set temperature
G28 ; home all axes
G1 Z5 F5000 ; lift nozzle
M109 S200 ; set temperature and wait for it to be reached
G21 ; set units to millimeters
G90 ; use absolute coordinates
M82 ; use absolute distances for extrusion
G92 E0
; Filament gcode
G1 Z0.400 F7800.000
G1 E-2.00000 F2400.00000
G92 E0
G1 X92.044 Y72.607 F7800.000
G1 E2.00000 F2400.00000
G1 F1800
G1 X92.700 Y71.943 E2.11087
G1 X93.446 Y71.382 E2.22174
G1 X94.267 Y70.937 E2.33261
G1 X95.144 Y70.616 E2.44347
G1 X96.064 Y70.427 E2.55508
G1 X96.872 Y70.374 E2.65119
G1 X127.087 Y70.374 E6.23972
G1 X127.981 Y70.438 E6.34616
G1 X128.857 Y70.628 E6.45260
G1 X129.698 Y70.938 E6.55904
G1 X130.486 Y71.364 E6.66548
G1 X131.207 Y71.896 E6.77192
G1 X131.846 Y72.524 E6.87836
G1 X132.391 Y73.236 E6.98481
G1 X132.827 Y74.012 E7.09051
G1 X133.239 Y75.153 E7.23455
G1 X133.426 Y76.351 E7.37859
G1 X133.413 Y83.744 E8.25663
G1 X120.270 Y147.706 E16.01175
G1 X120.007 Y148.478 E16.10859
G1 X119.651 Y149.204 E16.20470
G1 X119.205 Y149.880 E16.30081
G1 X118.678 Y150.493 E16.39691
G1 X118.071 Y151.038 E16.49376
G1 X117.405 Y151.498 E16.58987
G1 X116.686 Y151.870 E16.68598
G1 X115.920 Y152.148 E16.78282
G1 X115.044 Y152.339 E16.88926
G1 X114.157 Y152.405 E16.99497
G1 X106.484 Y152.403 E17.90626
G1 X104.977 Y152.185 E18.08708
G1 X103.881 Y151.778 E18.22596
G1 X102.878 Y151.177 E18.36484
G1 X102.002 Y150.402 E18.50373
G1 X101.282 Y149.480 E18.64261
G1 X88.585 Y127.450 E21.66248
G1 X88.153 Y126.505 E21.78588
G1 X87.882 Y125.502 E21.90929
G1 X87.776 Y124.400 E22.04081
G1 X87.786 Y114.387 E23.23002
G1 X90.542 Y76.255 E27.77058
G1 X90.744 Y75.071 E27.91315
G1 X91.053 Y74.191 E28.02402
G1 X91.488 Y73.365 E28.13489
G1 X92.008 Y72.655 E28.23937
G1 E26.23937 F2400.00000
G92 E0
G1 X125.252 Y81.356 F7800.000
G1 E2.00000 F2400.00000
G1 F1800
G1 X98.709 Y81.356 E5.15243
G1 X98.709 Y78.560 E5.48452
G1 X125.252 Y78.560 E8.63695
G1 X125.252 Y81.296 E8.96192
G1 X125.967 Y82.070 F7800.000
G1 F1800
G1 X97.995 Y82.070 E12.28398
G1 X97.995 Y77.846 E12.78571
G1 X125.967 Y77.846 E16.10777
G1 X125.967 Y82.010 E16.60238
G1 X126.681 Y82.784 F7800.000
G1 F1800
G1 X97.281 Y82.784 E20.09407
G1 X97.281 Y77.132 E20.76544
G1 X126.681 Y77.132 E24.25713
G1 X126.681 Y82.724 E24.92137
G1 X126.282 Y82.759 F7800.000
G1 E22.92137 F2400.00000
G92 E0
G1 X125.038 Y80.236 F7800.000
G1 E2.00000 F2400.00000
G1 F1800
G1 X123.897 Y79.095 E2.19395
G1 X122.875 Y79.095 E2.31686
G1 X124.600 Y80.820 E2.61014
G1 X123.578 Y80.820 E2.73305
G1 X121.853 Y79.095 E3.02633
G1 X120.830 Y79.095 E3.14924
G1 X122.555 Y80.820 E3.44252
G1 X121.533 Y80.820 E3.56542
G1 X119.808 Y79.095 E3.85871
G1 X118.786 Y79.095 E3.98161
G1 X120.511 Y80.820 E4.27490
G1 X119.488 Y80.820 E4.39780
G1 X117.763 Y79.095 E4.69108
G1 X116.741 Y79.095 E4.81399
G1 X118.466 Y80.820 E5.10727
G1 X117.444 Y80.820 E5.23018
G1 X115.719 Y79.095 E5.52346
G1 X114.696 Y79.095 E5.64637
G1 X116.421 Y80.820 E5.93965
G1 X115.399 Y80.820 E6.06256
G1 X113.674 Y79.095 E6.35584
G1 X112.652 Y79.095 E6.47874
G1 X114.377 Y80.820 E6.77203
G1 X113.354 Y80.820 E6.89493
G1 X111.629 Y79.095 E7.18822
G1 X110.607 Y79.095 E7.31112
G1 X112.332 Y80.820 E7.60440
G1 X111.310 Y80.820 E7.72731
G1 X109.585 Y79.095 E8.02059
G1 X108.562 Y79.095 E8.14350
G1 X110.287 Y80.820 E8.43678
G1 X109.265 Y80.820 E8.55969
G1 X107.540 Y79.095 E8.85297
G1 X106.518 Y79.095 E8.97588
G1 X108.243 Y80.820 E9.26916
G1 X107.220 Y80.820 E9.39206
G1 X105.495 Y79.095 E9.68535
G1 X104.473 Y79.095 E9.80825
G1 X106.198 Y80.820 E10.10154
G1 X105.176 Y80.820 E10.22444
G1 X103.451 Y79.095 E10.51773
G1 X102.428 Y79.095 E10.64063
G1 X104.153 Y80.820 E10.93391
G1 X103.131 Y80.820 E11.05682
G1 X101.406 Y79.095 E11.35010
G1 X100.384 Y79.095 E11.47301
G1 X102.109 Y80.820 E11.76629
G1 X101.086 Y80.820 E11.88920
G1 X99.361 Y79.095 E12.18248
G1 X99.245 Y79.095 E12.19650
G1 X99.245 Y80.001 E12.30538
G1 X100.385 Y81.142 E12.49932
G1 Z0.550 F7800.000
M140 S55 ; set bed temperature
G1 X126.020 Y82.132
G1 F3600
G1 X97.941 Y82.132 E13.23093
G1 X97.941 Y76.532 E13.37686
G1 X97.941 Y74.249 E13.49613
G1 X126.020 Y74.249 E14.96310
G1 X126.020 Y76.532 E15.08236
G1 X126.020 Y82.072 E15.22673
G1 X126.438 Y82.550 F7800.000
G1 F3600
G1 X97.524 Y82.550 E15.98012
G1 X97.524 Y76.532 E16.13694
G1 X97.524 Y73.831 E16.27803
G1 X126.438 Y73.831 E17.78866
G1 X126.438 Y76.532 E17.92975
G1 X126.438 Y82.490 E18.08501
G1 X126.856 Y82.968 F7800.000
G1 F1800
G1 X97.106 Y82.968 E18.86017
G1 X97.106 Y76.532 E19.02787
G1 F3600
G1 X97.106 Y73.413 E19.19079
G1 X126.856 Y73.413 E20.74508
G1 X126.856 Y76.532 E20.90800
G1 F1800
G1 X126.856 Y82.908 E21.07414
G1 X125.049 Y82.007 F7800.000
G1 F1200
G1 X125.707 Y81.349 E21.09840
G1 X125.707 Y80.758 E21.11383
G1 X124.646 Y81.819 E21.15296
G1 X124.054 Y81.819 E21.16839
G1 X125.707 Y80.166 E21.22935
G1 X125.707 Y79.940 E21.23524
G1 X125.341 Y79.940 E21.24477
G1 X123.463 Y81.819 E21.31407
G1 X122.871 Y81.819 E21.32950
G1 X124.750 Y79.940 E21.39879
G1 X124.158 Y79.940 E21.41422
G1 X122.280 Y81.819 E21.48351
G1 X121.688 Y81.819 E21.49894
G1 X123.567 Y79.940 E21.56824
G1 X122.975 Y79.940 E21.58366
G1 X121.097 Y81.819 E21.65296
G1 X120.505 Y81.819 E21.66839
G1 X122.384 Y79.940 E21.73768
G1 X121.792 Y79.940 E21.75311
G1 X119.914 Y81.819 E21.82240
G1 X119.322 Y81.819 E21.83783
G1 X121.201 Y79.940 E21.90712
G1 X120.609 Y79.940 E21.92255
G1 X118.731 Y81.819 E21.99185
G1 X118.139 Y81.819 E22.00727
G1 X120.018 Y79.940 E22.07657
G1 X119.426 Y79.940 E22.09200
G1 X117.548 Y81.819 E22.16129
G1 X116.956 Y81.819 E22.17672
G1 X118.835 Y79.940 E22.24601
G1 X118.243 Y79.940 E22.26144
G1 X116.365 Y81.819 E22.33073
G1 X115.773 Y81.819 E22.34616
G1 X117.652 Y79.940 E22.41546
G1 X117.060 Y79.940 E22.43088
G1 X115.182 Y81.819 E22.50018
G1 X114.590 Y81.819 E22.51561
G1 X116.469 Y79.940 E22.58490
G1 X115.877 Y79.940 E22.60033
G1 X113.999 Y81.819 E22.66962
G1 X113.407 Y81.819 E22.68505
G1 X115.286 Y79.940 E22.75434
G1 X114.694 Y79.940 E22.76977
G1 X112.816 Y81.819 E22.83907
G1 X112.224 Y81.819 E22.85449
G1 X114.103 Y79.940 E22.92379
G1 X113.511 Y79.940 E22.93922
G1 X111.633 Y81.819 E23.00851
G1 X111.041 Y81.819 E23.02394
G1 X112.920 Y79.940 E23.09323
G1 X112.328 Y79.940 E23.10866
G1 X110.450 Y81.819 E23.17795
G1 X109.858 Y81.819 E23.19338
G1 X111.737 Y79.940 E23.26268
G1 X111.145 Y79.940 E23.27810
G1 X109.267 Y81.819 E23.34740
G1 X108.675 Y81.819 E23.36283
G1 X110.554 Y79.940 E23.43212
G1 X109.962 Y79.940 E23.44755
G1 X108.084 Y81.819 E23.51684
G1 X107.492 Y81.819 E23.53227
G1 X109.371 Y79.940 E23.60156
G1 X108.779 Y79.940 E23.61699
G1 X106.901 Y81.819 E23.68629
G1 X106.309 Y81.819 E23.70171
G1 X108.188 Y79.940 E23.77101
G1 X107.596 Y79.940 E23.78644
G1 X105.718 Y81.819 E23.85573
G1 X105.126 Y81.819 E23.87116
G1 X107.005 Y79.940 E23.94045
G1 X106.413 Y79.940 E23.95588
G1 X104.535 Y81.819 E24.02517
G1 X103.943 Y81.819 E24.04060
G1 X105.822 Y79.940 E24.10990
G1 X105.230 Y79.940 E24.12533
G1 X103.352 Y81.819 E24.19462
G1 X102.760 Y81.819 E24.21005
G1 X104.639 Y79.940 E24.27934
G1 X104.047 Y79.940 E24.29477
G1 X102.169 Y81.819 E24.36406
G1 X101.577 Y81.819 E24.37949
G1 X103.456 Y79.940 E24.44879
G1 X102.864 Y79.940 E24.46421
G1 X100.986 Y81.819 E24.53351
G1 X100.394 Y81.819 E24.54894
G1 X102.273 Y79.940 E24.61823
G1 X101.682 Y79.940 E24.63366
G1 X99.803 Y81.819 E24.70295
G1 X99.211 Y81.819 E24.71838
G1 X101.090 Y79.940 E24.78767
G1 X100.499 Y79.940 E24.80310
G1 X98.620 Y81.819 E24.87240
G1 X98.255 Y81.819 E24.88192
G1 X98.255 Y81.593 E24.88782
G1 X99.907 Y79.940 E24.94877
G1 X99.316 Y79.940 E24.96420
G1 X98.255 Y81.001 E25.00334
G1 X98.255 Y80.410 E25.01876
G1 X98.912 Y79.752 E25.04301
G1 X98.068 Y79.487 F7800.000
G1 F3600
G1 X125.691 Y79.487 E26.78080
G1 X125.691 Y78.998 E26.81156
G1 X98.271 Y78.998 E28.53662
G1 X98.271 Y78.509 E28.56738
G1 X125.691 Y78.509 E30.29243
G1 X125.691 Y78.020 E30.32319
G1 X98.271 Y78.020 E32.04824
G1 X98.271 Y77.531 E32.07900
G1 X125.691 Y77.531 E33.80405
G1 X125.691 Y77.042 E33.83481
G1 X98.271 Y77.042 E35.55986
G1 X98.271 Y76.553 E35.59062
G1 X125.691 Y76.553 E37.31568
G1 X125.691 Y76.064 E37.34644
G1 X98.271 Y76.064 E39.07149
G1 X98.271 Y75.576 E39.10225
G1 X125.691 Y75.576 E40.82730
G1 X125.691 Y75.087 E40.85806
G1 X98.271 Y75.087 E42.58311
G1 X98.271 Y74.598 E42.61387
G1 X125.893 Y74.598 E44.35166
G1 Z0.700 F7800.000
G1 X126.020 Y82.137
G1 F3600
G1 X97.941 Y82.137 E45.08328
G1 X97.941 Y74.253 E45.28869
G1 X126.020 Y74.253 E46.02030
G1 X126.020 Y82.077 E46.22415
G1 X126.438 Y82.555 F7800.000
G1 F3600
G1 X97.524 Y82.555 E46.97754
G1 X97.524 Y73.836 E47.20473
G1 X126.438 Y73.836 E47.95811
G1 X126.438 Y82.495 E48.18373
G1 X126.856 Y82.973 F7800.000
G1 F1800
G1 X97.106 Y82.973 E48.95889
G1 X97.106 Y73.418 E49.20785
G1 X126.856 Y73.418 E49.98301
G1 X126.856 Y82.913 E50.23040
G1 X126.458 Y82.931 F7800.000
G1 X125.895 Y75.226
G1 F1200
G1 X125.236 Y74.567 E50.25475
G1 X124.643 Y74.567 E50.27022
G1 X125.707 Y75.630 E50.30950
G1 X125.707 Y76.222 E50.32498
G1 X124.051 Y74.567 E50.38615
G1 X123.459 Y74.567 E50.40162
G1 X125.707 Y76.815 E50.48468
G1 X125.707 Y77.407 E50.50016
G1 X122.866 Y74.567 E50.60510
G1 X122.274 Y74.567 E50.62057
G1 X125.707 Y78.000 E50.74740
G1 X125.707 Y78.592 E50.76288
G1 X121.681 Y74.567 E50.91159
G1 X121.089 Y74.567 E50.92706
G1 X125.707 Y79.184 E51.09766
G1 X125.707 Y79.777 E51.11314
G1 X120.497 Y74.567 E51.30563
G1 X119.904 Y74.567 E51.32110
G1 X125.707 Y80.369 E51.53547
G1 X125.707 Y80.962 E51.55095
G1 X119.312 Y74.567 E51.78721
G1 X118.719 Y74.567 E51.80268
G1 X125.707 Y81.554 E52.06083
G1 X125.707 Y81.824 E52.06787
G1 X125.384 Y81.824 E52.07630
G1 X118.127 Y74.567 E52.34440
G1 X117.535 Y74.567 E52.35988
G1 X124.791 Y81.824 E52.62798
G1 X124.199 Y81.824 E52.64346
G1 X116.942 Y74.567 E52.91156
G1 X116.350 Y74.567 E52.92703
G1 X123.607 Y81.824 E53.19513
G1 X123.014 Y81.824 E53.21061
G1 X115.757 Y74.567 E53.47871
G1 X115.165 Y74.567 E53.49419
G1 X122.422 Y81.824 E53.76229
G1 X121.829 Y81.824 E53.77776
G1 X114.573 Y74.567 E54.04587
G1 X113.980 Y74.567 E54.06134
G1 X121.237 Y81.824 E54.32944
G1 X120.645 Y81.824 E54.34492
G1 X113.388 Y74.567 E54.61302
G1 X112.795 Y74.567 E54.62849
G1 X120.052 Y81.824 E54.89660
G1 X119.460 Y81.824 E54.91207
G1 X112.203 Y74.567 E55.18017
G1 X111.610 Y74.567 E55.19565
G1 X118.867 Y81.824 E55.46375
G1 X118.275 Y81.824 E55.47923
G1 X111.018 Y74.567 E55.74733
G1 X110.426 Y74.567 E55.76280
G1 X117.683 Y81.824 E56.03090
G1 X117.090 Y81.824 E56.04638
G1 X109.833 Y74.567 E56.31448
G1 X109.241 Y74.567 E56.32996
G1 X116.498 Y81.824 E56.59806
G1 X115.905 Y81.824 E56.61353
G1 X108.648 Y74.567 E56.88163
G1 X108.056 Y74.567 E56.89711
G1 X115.313 Y81.824 E57.16521
G1 X114.720 Y81.824 E57.18069
G1 X107.464 Y74.567 E57.44879
G1 X106.871 Y74.567 E57.46426
G1 X114.128 Y81.824 E57.73236
G1 X113.536 Y81.824 E57.74784
G1 X106.279 Y74.567 E58.01594
G1 X105.686 Y74.567 E58.03142
G1 X112.943 Y81.824 E58.29952
G1 X112.351 Y81.824 E58.31499
G1 X105.094 Y74.567 E58.58309
G1 X104.502 Y74.567 E58.59857
G1 X111.758 Y81.824 E58.86667
G1 X111.166 Y81.824 E58.88215
G1 X103.909 Y74.567 E59.15025
G1 X103.317 Y74.567 E59.16572
G1 X110.574 Y81.824 E59.43383
G1 X109.981 Y81.824 E59.44930
G1 X102.724 Y74.567 E59.71740
G1 X102.132 Y74.567 E59.73288
G1 X109.389 Y81.824 E60.00098
G1 X108.796 Y81.824 E60.01646
G1 X101.539 Y74.567 E60.28456
G1 X100.947 Y74.567 E60.30003
G1 X108.204 Y81.824 E60.56813
G1 X107.612 Y81.824 E60.58361
G1 X100.355 Y74.567 E60.85171
G1 X99.762 Y74.567 E60.86719
G1 X107.019 Y81.824 E61.13529
G1 X106.427 Y81.824 E61.15076
G1 X99.170 Y74.567 E61.41886
G1 X98.577 Y74.567 E61.43434
G1 X105.834 Y81.824 E61.70244
G1 X105.242 Y81.824 E61.71792
G1 X98.255 Y74.836 E61.97606
G1 X98.255 Y75.429 E61.99153
G1 X104.650 Y81.824 E62.22778
G1 X104.057 Y81.824 E62.24326
G1 X98.255 Y76.021 E62.45763
G1 X98.255 Y76.614 E62.47310
G1 X103.465 Y81.824 E62.66558
G1 X102.872 Y81.824 E62.68106
G1 X98.255 Y77.206 E62.85166
G1 X98.255 Y77.798 E62.86713
G1 X102.280 Y81.824 E63.01584
G1 X101.687 Y81.824 E63.03132
G1 X98.255 Y78.391 E63.15814
G1 X98.255 Y78.983 E63.17361
G1 X101.095 Y81.824 E63.27855
G1 X100.503 Y81.824 E63.29403
G1 X98.255 Y79.576 E63.37708
G1 X98.255 Y80.168 E63.39255
G1 X99.910 Y81.824 E63.45371
G1 X99.318 Y81.824 E63.46919
G1 X98.255 Y80.760 E63.50847
G1 X98.255 Y81.353 E63.52394
G1 X98.913 Y82.012 E63.54828
M106 S193.8
G1 Z0.850 F7800.000
G1 X126.020 Y82.142
G1 F3600
G1 X97.941 Y82.142 E64.27990
G1 X97.941 Y74.258 E64.48531
G1 X126.020 Y74.258 E65.21692
G1 X126.020 Y82.082 E65.42077
G1 X126.438 Y82.559 F7800.000
G1 F3600
G1 X97.524 Y82.559 E66.17416
G1 X97.524 Y73.840 E66.40134
G1 X126.438 Y73.840 E67.15473
G1 X126.438 Y82.499 E67.38035
G1 X126.856 Y82.977 F7800.000
G1 F1800
G1 X97.106 Y82.977 E68.15551
G1 X97.106 Y73.422 E68.40447
G1 X126.856 Y73.422 E69.17963
G1 X126.856 Y82.917 E69.42702
G1 X126.458 Y82.936 F7800.000
G1 X125.895 Y81.521
G1 F4800
G1 X124.314 Y79.940 E69.48526
G1 X120.769 Y79.940 E69.57763
G1 X122.657 Y81.828 E69.64720
G1 X119.112 Y81.828 E69.73957
G1 X117.224 Y79.940 E69.80914
G1 X113.679 Y79.940 E69.90151
G1 X115.566 Y81.828 E69.97107
G1 X112.021 Y81.828 E70.06345
G1 X110.133 Y79.940 E70.13301
G1 X106.588 Y79.940 E70.22538
G1 X108.476 Y81.828 E70.29495
G1 X104.931 Y81.828 E70.38732
G1 X103.043 Y79.940 E70.45689
G1 X99.498 Y79.940 E70.54926
G1 X101.573 Y82.016 E70.62575
G1 X102.740 Y82.016 F7800.000
G1 F4800
G1 X111.189 Y79.752 E70.85366
G1 X112.426 Y82.016 F7800.000
G1 F4800
G1 X120.875 Y79.752 E71.08156
G1 X122.112 Y82.016 F7800.000
G1 F4800
G1 X125.895 Y81.003 E71.18362
G1 X125.046 Y79.711 F7800.000
G1 F1200
G1 X125.707 Y79.050 E71.20807
G1 X125.707 Y78.456 E71.22360
G1 X124.641 Y79.523 E71.26307
G1 X124.047 Y79.523 E71.27860
G1 X125.707 Y77.863 E71.34004
G1 X125.707 Y77.269 E71.35557
G1 X123.454 Y79.523 E71.43898
G1 X122.860 Y79.523 E71.45451
G1 X125.707 Y76.676 E71.55989
G1 X125.707 Y76.082 E71.57543
G1 X122.266 Y79.523 E71.70277
G1 X121.673 Y79.523 E71.71831
G1 X125.707 Y75.489 E71.86763
G1 X125.707 Y74.895 E71.88316
G1 X121.079 Y79.523 E72.05445
G1 X120.486 Y79.523 E72.06999
G1 X125.437 Y74.571 E72.25326
G1 X124.843 Y74.571 E72.26879
G1 X119.892 Y79.523 E72.45207
G1 X119.299 Y79.523 E72.46760
G1 X124.250 Y74.571 E72.65088
G1 X123.656 Y74.571 E72.66641
G1 X118.705 Y79.523 E72.84968
G1 X118.112 Y79.523 E72.86522
G1 X123.063 Y74.571 E73.04849
G1 X122.469 Y74.571 E73.06403
G1 X117.518 Y79.523 E73.24730
G1 X116.924 Y79.523 E73.26284
G1 X121.876 Y74.571 E73.44611
G1 X121.282 Y74.571 E73.46165
G1 X116.331 Y79.523 E73.64492
G1 X115.737 Y79.523 E73.66046
G1 X120.689 Y74.571 E73.84373
G1 X120.095 Y74.571 E73.85926
G1 X115.144 Y79.523 E74.04254
G1 X114.550 Y79.523 E74.05807
G1 X119.501 Y74.571 E74.24135
G1 X118.908 Y74.571 E74.25688
G1 X113.957 Y79.523 E74.44015
G1 X113.363 Y79.523 E74.45569
G1 X118.314 Y74.571 E74.63896
G1 X117.721 Y74.571 E74.65450
G1 X112.770 Y79.523 E74.83777
G1 X112.176 Y79.523 E74.85331
G1 X117.127 Y74.571 E75.03658
G1 X116.534 Y74.571 E75.05212
G1 X111.582 Y79.523 E75.23539
G1 X110.989 Y79.523 E75.25093
G1 X115.940 Y74.571 E75.43420
G1 X115.347 Y74.571 E75.44973
G1 X110.395 Y79.523 E75.63301
G1 X109.802 Y79.523 E75.64854
G1 X114.753 Y74.571 E75.83182
G1 X114.159 Y74.571 E75.84735
G1 X109.208 Y79.523 E76.03063
G1 X108.615 Y79.523 E76.04616
G1 X113.566 Y74.571 E76.22943
G1 X112.972 Y74.571 E76.24497
G1 X108.021 Y79.523 E76.42824
G1 X107.428 Y79.523 E76.44378
G1 X112.379 Y74.571 E76.62705
G1 X111.785 Y74.571 E76.64259
G1 X106.834 Y79.523 E76.82586
G1 X106.240 Y79.523 E76.84140
G1 X111.192 Y74.571 E77.02467
G1 X110.598 Y74.571 E77.04020
G1 X105.647 Y79.523 E77.22348
G1 X105.053 Y79.523 E77.23901
G1 X110.005 Y74.571 E77.42229
G1 X109.411 Y74.571 E77.43782
G1 X104.460 Y79.523 E77.62110
