; generated by PrusaSlicer 2.1.1+ on 2021-02-07 at 18:44:26 UTC

; 

; external perimeters extrusion width = 0.45mm
; perimeters extrusion width = 0.45mm
; infill extrusion width = 0.45mm
; solid infill extrusion width = 0.45mm
; top infill extrusion width = 0.40mm
; first layer extrusion width = 0.80mm

M107
M190 S60 ; set bed temperature and wait for it to be reached
M104 S200 ; set temperature
G28 ; home all axes
G1 Z5 F5000 ; lift nozzle
M109 S200 ; set temperature and wait for it to be reached
G21 ; set units to millimeters
G90 ; use absolute coordinates
M82 ; use absolute distances for extrusion
G92 E0
; Filament gcode
G1 Z0.400 F7800.000
G1 E-2.00000 F2400.00000
G92 E0
G1 X85.246 Y80.129 F7800.000
G1 E2.00000 F2400.00000
G1 F1800
G1 X86.376 Y79.127 E2.17934
G1 X87.710 Y78.420 E2.35869
G1 X89.167 Y78.048 E2.53730
G1 X89.981 Y77.993 E2.63414
G1 X110.006 Y77.993 E5.01248
G1 X111.140 Y78.096 E5.14768
G1 X112.237 Y78.400 E5.28288
G1 X113.263 Y78.894 E5.41808
G1 X114.179 Y79.559 E5.55254
G1 X114.962 Y80.376 E5.68700
G1 X115.591 Y81.325 E5.82220
G1 X116.041 Y82.371 E5.95740
G1 X116.297 Y83.480 E6.09260
G1 X116.357 Y84.337 E6.19462
G1 X116.356 Y115.775 E9.92831
G1 X116.153 Y117.246 E10.10472
G1 X115.615 Y118.630 E10.28112
G1 X114.712 Y119.917 E10.46781
G1 X113.521 Y120.943 E10.65450
G1 X112.121 Y121.643 E10.84045
G1 X110.585 Y121.980 E11.02714
G1 X89.807 Y122.004 E13.49488
G1 X88.368 Y121.794 E13.66762
G1 X87.020 Y121.265 E13.83961
G1 X86.330 Y120.841 E13.93572
G1 X85.705 Y120.337 E14.03109
G1 X85.145 Y119.753 E14.12720
G1 X84.663 Y119.103 E14.22330
G1 X84.267 Y118.397 E14.31941
G1 X83.967 Y117.653 E14.41478
G1 X83.761 Y116.870 E14.51089
G1 X83.657 Y116.068 E14.60700
G1 X83.644 Y84.219 E18.38948
G1 X83.848 Y82.748 E18.56589
G1 X84.385 Y81.370 E18.74156
G1 X85.212 Y80.179 E18.91378
G1 E16.91378 F2400.00000
G92 E0
G1 X108.172 Y113.822 F7800.000
G1 E2.00000 F2400.00000
G1 F1800
G1 X104.328 Y113.822 E2.45646
G1 X104.328 Y90.122 E5.27119
G1 X95.672 Y90.122 E6.29930
G1 X95.672 Y113.822 E9.11403
G1 X91.828 Y113.822 E9.57049
G1 X91.828 Y86.178 E12.85356
G1 X108.172 Y86.178 E14.79458
G1 X108.172 Y113.762 E18.07053
G1 E16.07053 F2400.00000
G92 E0
G1 X103.614 Y90.836 F7800.000
G1 E2.00000 F2400.00000
G1 F1800
G1 X96.386 Y90.836 E2.85847
G1 X96.386 Y114.536 E5.67321
G1 X91.114 Y114.536 E6.29930
G1 X91.114 Y85.464 E9.75200
G1 X108.886 Y85.464 E11.86266
G1 X108.886 Y114.536 E15.31536
G1 X103.614 Y114.536 E15.94146
G1 X103.614 Y90.896 E18.74906
G1 X102.900 Y91.550 F7800.000
G1 F1800
G1 X97.100 Y91.550 E19.43790
G1 X97.100 Y115.250 E22.25264
G1 X90.400 Y115.250 E23.04836
G1 X90.400 Y84.750 E26.67070
G1 X109.600 Y84.750 E28.95099
G1 X109.600 Y115.250 E32.57333
G1 X102.900 Y115.250 E33.36906
G1 X102.900 Y91.610 E36.17667
G1 X102.863 Y91.152 F7800.000
G1 X103.816 Y89.907
G1 F1800
G1 X100.623 Y86.714 E36.72385
G1 X99.593 Y86.714 E36.84867
G1 X102.465 Y89.586 E37.34079
G1 X101.434 Y89.586 E37.46561
G1 X98.562 Y86.714 E37.95773
G1 X97.532 Y86.714 E38.08256
G1 X100.404 Y89.586 E38.57467
G1 X99.374 Y89.586 E38.69950
G1 X96.502 Y86.714 E39.19162
G1 X95.471 Y86.714 E39.31644
G1 X98.344 Y89.586 E39.80856
G1 X97.313 Y89.586 E39.93338
G1 X94.441 Y86.714 E40.42550
G1 X93.411 Y86.714 E40.55033
G1 X96.283 Y89.586 E41.04244
G1 X95.253 Y89.586 E41.16727
G1 X92.364 Y86.714 E41.66081
G1 X92.364 Y87.728 E41.78362
G1 X95.136 Y90.500 E42.25861
G1 X95.136 Y91.530 E42.38343
G1 X92.364 Y88.758 E42.85842
G1 X92.364 Y89.788 E42.98324
G1 X95.136 Y92.560 E43.45822
G1 X95.136 Y93.591 E43.58305
G1 X92.364 Y90.819 E44.05803
G1 X92.364 Y91.849 E44.18286
G1 X95.136 Y94.621 E44.65784
G1 X95.136 Y95.651 E44.78267
G1 X92.364 Y92.879 E45.25765
G1 X92.364 Y93.909 E45.38248
G1 X95.136 Y96.682 E45.85746
G1 X95.136 Y97.712 E45.98228
G1 X92.364 Y94.940 E46.45727
G1 X92.364 Y95.970 E46.58209
G1 X95.136 Y98.742 E47.05707
G1 X95.136 Y99.772 E47.18190
G1 X92.364 Y97.000 E47.65688
G1 X92.364 Y98.031 E47.78171
G1 X95.136 Y100.803 E48.25669
G1 X95.136 Y101.833 E48.38152
G1 X92.364 Y99.061 E48.85650
G1 X92.364 Y100.091 E48.98133
G1 X95.136 Y102.863 E49.45631
G1 X95.136 Y103.894 E49.58114
G1 X92.364 Y101.122 E50.05612
G1 X92.364 Y102.152 E50.18094
G1 X95.136 Y104.924 E50.65593
G1 X95.136 Y105.954 E50.78075
G1 X92.364 Y103.182 E51.25573
G1 X92.364 Y104.212 E51.38056
G1 X95.136 Y106.985 E51.85554
G1 X95.136 Y108.015 E51.98037
G1 X92.364 Y105.243 E52.45535
G1 X92.364 Y106.273 E52.58018
G1 X95.136 Y109.045 E53.05516
G1 X95.136 Y110.075 E53.17999
G1 X92.364 Y107.303 E53.65497
G1 X92.364 Y108.334 E53.77979
G1 X95.136 Y111.106 E54.25478
G1 X95.136 Y112.136 E54.37960
G1 X92.364 Y109.364 E54.85459
G1 X92.364 Y110.394 E54.97941
G1 X95.136 Y113.166 E55.45439
G1 X95.136 Y113.286 E55.46890
G1 X94.225 Y113.286 E55.57922
G1 X92.364 Y111.425 E55.89818
G1 X92.364 Y112.455 E56.02301
G1 X93.517 Y113.607 E56.22050
G1 E54.22050 F2400.00000
G92 E0
G1 X105.880 Y113.607 F7800.000
G1 E2.00000 F2400.00000
G1 F1800
G1 X104.864 Y112.591 E2.17412
G1 X104.864 Y111.561 E2.29895
G1 X106.589 Y113.286 E2.59454
G1 X107.619 Y113.286 E2.71937
G1 X104.864 Y110.531 E3.19149
G1 X104.864 Y109.500 E3.31632
G1 X107.636 Y112.272 E3.79130
G1 X107.636 Y111.242 E3.91613
G1 X104.864 Y108.470 E4.39111
G1 X104.864 Y107.440 E4.51593
G1 X107.636 Y110.212 E4.99092
G1 X107.636 Y109.182 E5.11574
G1 X104.864 Y106.409 E5.59072
G1 X104.864 Y105.379 E5.71555
G1 X107.636 Y108.151 E6.19053
G1 X107.636 Y107.121 E6.31536
G1 X104.864 Y104.349 E6.79034
G1 X104.864 Y103.319 E6.91517
G1 X107.636 Y106.091 E7.39015
G1 X107.636 Y105.060 E7.51498
G1 X104.864 Y102.288 E7.98996
G1 X104.864 Y101.258 E8.11478
G1 X107.636 Y104.030 E8.58977
G1 X107.636 Y103.000 E8.71459
G1 X104.864 Y100.228 E9.18958
G1 X104.864 Y99.197 E9.31440
G1 X107.636 Y101.969 E9.78938
G1 X107.636 Y100.939 E9.91421
G1 X104.864 Y98.167 E10.38919
G1 X104.864 Y97.137 E10.51402
G1 X107.636 Y99.909 E10.98900
G1 X107.636 Y98.879 E11.11383
G1 X104.864 Y96.106 E11.58881
G1 X104.864 Y95.076 E11.71364
G1 X107.636 Y97.848 E12.18862
G1 X107.636 Y96.818 E12.31344
G1 X104.864 Y94.046 E12.78843
G1 X104.864 Y93.016 E12.91325
G1 X107.636 Y95.788 E13.38823
G1 X107.636 Y94.757 E13.51306
G1 X104.864 Y91.985 E13.98804
G1 X104.864 Y90.955 E14.11287
G1 X107.636 Y93.727 E14.58785
G1 X107.636 Y92.697 E14.71268
G1 X101.653 Y86.714 E15.73778
G1 X102.684 Y86.714 E15.86261
G1 X107.636 Y91.666 E16.71118
G1 X107.636 Y90.636 E16.83600
G1 X103.714 Y86.714 E17.50804
G1 X104.744 Y86.714 E17.63287
G1 X107.636 Y89.606 E18.12837
G1 X107.636 Y88.576 E18.25320
G1 X105.774 Y86.714 E18.57218
G1 X106.805 Y86.714 E18.69700
G1 X107.957 Y87.867 E18.89451
G1 Z0.550 F7800.000
M140 S55 ; set bed temperature
G1 X103.561 Y90.889
G1 F3600
G1 X96.439 Y90.889 E19.08006
G1 X96.439 Y114.589 E19.69758
G1 X91.061 Y114.589 E19.83773
G1 X91.061 Y85.411 E20.59801
G1 X108.939 Y85.411 E21.06385
G1 X108.939 Y114.589 E21.82413
G1 X103.561 Y114.589 E21.96427
G1 X103.561 Y90.949 E22.58023
G1 X103.143 Y91.307 F7800.000
G1 F3600
G1 X96.857 Y91.307 E22.74401
G1 X96.857 Y115.007 E23.36153
G1 X90.643 Y115.007 E23.52345
G1 X90.643 Y84.993 E24.30550
G1 X109.357 Y84.993 E24.79312
G1 X109.357 Y115.007 E25.57516
G1 X103.143 Y115.007 E25.73708
G1 X103.143 Y91.367 E26.35304
G1 X102.725 Y91.725 F7800.000
G1 F1800
G1 X97.275 Y91.725 E26.49505
G1 X97.275 Y115.425 E27.11257
G1 X90.225 Y115.425 E27.29626
G1 X90.225 Y84.575 E28.10008
G1 X109.775 Y84.575 E28.60947
G1 X109.775 Y115.425 E29.41329
G1 X102.725 Y115.425 E29.59699
G1 X102.725 Y91.785 E30.21294
G1 X102.687 Y91.327 F7800.000
G1 E28.21294 F2400.00000
G92 E0
G1 X91.186 Y95.360 F7800.000
G1 E2.00000 F2400.00000
G1 F1200
G1 X100.822 Y85.724 E2.35933
G1 X100.224 Y85.724 E2.37510
G1 X91.374 Y94.574 E2.70513
G1 X91.374 Y93.976 E2.72089
G1 X99.626 Y85.724 E3.02862
G1 X99.028 Y85.724 E3.04439
G1 X91.374 Y93.378 E3.32982
G1 X91.374 Y92.780 E3.34558
G1 X98.430 Y85.724 E3.60872
G1 X97.833 Y85.724 E3.62449
G1 X91.374 Y92.183 E3.86532
G1 X91.374 Y91.585 E3.88109
G1 X97.235 Y85.724 E4.09963
G1 X96.637 Y85.724 E4.11540
G1 X91.374 Y90.987 E4.31164
G1 X91.374 Y90.389 E4.32740
G1 X96.039 Y85.724 E4.50135
G1 X95.441 Y85.724 E4.51712
G1 X91.374 Y89.791 E4.66877
G1 X91.374 Y89.193 E4.68453
G1 X94.843 Y85.724 E4.81388
G1 X94.245 Y85.724 E4.82965
G1 X91.374 Y88.595 E4.93671
G1 X91.374 Y87.997 E4.95247
G1 X93.647 Y85.724 E5.03723
G1 X93.049 Y85.724 E5.05300
G1 X91.374 Y87.399 E5.11546
G1 X91.374 Y86.801 E5.13122
G1 X92.451 Y85.724 E5.17139
G1 X91.853 Y85.724 E5.18715
G1 X91.186 Y86.391 E5.21203
G1 X95.402 Y114.464 F7800.000
G1 F1200
G1 X96.126 Y113.740 E5.23903
G1 X96.126 Y113.142 E5.25480
G1 X94.992 Y114.276 E5.29708
G1 X94.394 Y114.276 E5.31285
G1 X96.126 Y112.544 E5.37743
G1 X96.126 Y111.946 E5.39320
G1 X93.796 Y114.276 E5.48008
G1 X93.198 Y114.276 E5.49584
G1 X96.126 Y111.348 E5.60502
G1 X96.126 Y110.750 E5.62079
G1 X92.600 Y114.276 E5.75226
G1 X92.002 Y114.276 E5.76803
G1 X96.126 Y110.152 E5.92180
G1 X96.126 Y109.554 E5.93756
G1 X91.404 Y114.276 E6.11363
G1 X91.374 Y114.276 E6.11443
G1 X91.374 Y113.709 E6.12940
G1 X96.126 Y108.956 E6.30660
G1 X96.126 Y108.359 E6.32237
G1 X91.374 Y113.111 E6.49957
G1 X91.374 Y112.513 E6.51534
G1 X96.126 Y107.761 E6.69254
G1 X96.126 Y107.163 E6.70831
G1 X91.374 Y111.915 E6.88551
G1 X91.374 Y111.317 E6.90128
G1 X96.126 Y106.565 E7.07848
G1 X96.126 Y105.967 E7.09425
G1 X91.374 Y110.719 E7.27145
G1 X91.374 Y110.121 E7.28721
G1 X96.126 Y105.369 E7.46442
G1 X96.126 Y104.771 E7.48018
G1 X91.374 Y109.523 E7.65739
G1 X91.374 Y108.925 E7.67315
G1 X96.126 Y104.173 E7.85036
G1 X96.126 Y103.575 E7.86612
G1 X91.374 Y108.327 E8.04333
G1 X91.374 Y107.729 E8.05909
G1 X96.126 Y102.977 E8.23630
G1 X96.126 Y102.379 E8.25206
G1 X91.374 Y107.131 E8.42927
G1 X91.374 Y106.533 E8.44503
G1 X96.126 Y101.781 E8.62224
G1 X96.126 Y101.183 E8.63800
G1 X91.374 Y105.935 E8.81520
G1 X91.374 Y105.337 E8.83097
G1 X96.126 Y100.585 E9.00817
G1 X96.126 Y99.987 E9.02394
G1 X91.374 Y104.739 E9.20114
G1 X91.374 Y104.141 E9.21691
G1 X96.126 Y99.389 E9.39411
G1 X96.126 Y98.791 E9.40988
G1 X91.374 Y103.543 E9.58708
G1 X91.374 Y102.946 E9.60285
G1 X96.126 Y98.193 E9.78005
G1 X96.126 Y97.596 E9.79582
G1 X91.374 Y102.348 E9.97302
G1 X91.374 Y101.750 E9.98879
G1 X96.126 Y96.998 E10.16599
G1 X96.126 Y96.400 E10.18176
G1 X91.374 Y101.152 E10.35896
G1 X91.374 Y100.554 E10.37473
G1 X96.126 Y95.802 E10.55193
G1 X96.126 Y95.204 E10.56770
G1 X91.374 Y99.956 E10.74490
G1 X91.374 Y99.358 E10.76067
G1 X96.126 Y94.606 E10.93787
G1 X96.126 Y94.008 E10.95364
G1 X91.374 Y98.760 E11.13084
G1 X91.374 Y98.162 E11.14661
G1 X96.126 Y93.410 E11.32381
G1 X96.126 Y92.812 E11.33958
G1 X91.374 Y97.564 E11.51678
G1 X91.374 Y96.966 E11.53255
G1 X96.126 Y92.214 E11.70975
G1 X96.126 Y91.616 E11.72552
G1 X91.374 Y96.368 E11.90272
G1 X91.374 Y95.770 E11.91848
G1 X96.126 Y91.018 E12.09569
G1 X96.126 Y90.576 E12.10734
G1 X96.568 Y90.576 E12.11900
G1 X101.420 Y85.724 E12.29993
G1 X102.018 Y85.724 E12.31570
G1 X97.166 Y90.576 E12.49663
G1 X97.764 Y90.576 E12.51240
G1 X102.616 Y85.724 E12.69333
G1 X103.214 Y85.724 E12.70910
G1 X98.362 Y90.576 E12.89003
G1 X98.960 Y90.576 E12.90579
G1 X103.812 Y85.724 E13.08673
G1 X104.410 Y85.724 E13.10249
G1 X99.558 Y90.576 E13.28343
G1 X100.156 Y90.576 E13.29919
G1 X105.008 Y85.724 E13.48012
G1 X105.606 Y85.724 E13.49589
G1 X100.754 Y90.576 E13.67682
G1 X101.352 Y90.576 E13.69259
G1 X106.204 Y85.724 E13.87352
G1 X106.802 Y85.724 E13.88929
G1 X101.950 Y90.576 E14.07022
G1 X102.548 Y90.576 E14.08599
G1 X107.400 Y85.724 E14.26692
G1 X107.998 Y85.724 E14.28268
G1 X103.146 Y90.576 E14.46362
G1 X103.743 Y90.576 E14.47938
G1 X108.596 Y85.724 E14.66032
G1 X108.626 Y85.724 E14.66112
G1 X108.626 Y86.291 E14.67608
G1 X103.874 Y91.043 E14.85329
G1 X103.874 Y91.641 E14.86905
G1 X108.626 Y86.889 E15.04626
G1 X108.626 Y87.487 E15.06202
G1 X103.874 Y92.239 E15.23922
G1 X103.874 Y92.837 E15.25499
G1 X108.626 Y88.085 E15.43219
G1 X108.626 Y88.683 E15.44796
G1 X103.874 Y93.435 E15.62516
G1 X103.874 Y94.033 E15.64093
G1 X108.626 Y89.281 E15.81813
G1 X108.626 Y89.879 E15.83390
G1 X103.874 Y94.631 E16.01110
G1 X103.874 Y95.229 E16.02687
G1 X108.626 Y90.477 E16.20407
G1 X108.626 Y91.075 E16.21984
G1 X103.874 Y95.827 E16.39704
G1 X103.874 Y96.425 E16.41281
G1 X108.626 Y91.673 E16.59001
G1 X108.626 Y92.271 E16.60578
G1 X103.874 Y97.023 E16.78298
G1 X103.874 Y97.621 E16.79875
G1 X108.626 Y92.869 E16.97595
G1 X108.626 Y93.467 E16.99172
G1 X103.874 Y98.219 E17.16892
G1 X103.874 Y98.817 E17.18469
G1 X108.626 Y94.065 E17.36189
G1 X108.626 Y94.663 E17.37766
G1 X103.874 Y99.415 E17.55486
G1 X103.874 Y100.013 E17.57063
G1 X108.626 Y95.261 E17.74783
G1 X108.626 Y95.859 E17.76360
G1 X103.874 Y100.611 E17.94080
G1 X103.874 Y101.209 E17.95657
G1 X108.626 Y96.456 E18.13377
G1 X108.626 Y97.054 E18.14953
G1 X103.874 Y101.806 E18.32674
G1 X103.874 Y102.404 E18.34250
G1 X108.626 Y97.652 E18.51971
G1 X108.626 Y98.250 E18.53547
G1 X103.874 Y103.002 E18.71268
G1 X103.874 Y103.600 E18.72844
G1 X108.626 Y98.848 E18.90565
G1 X108.626 Y99.446 E18.92141
G1 X103.874 Y104.198 E19.09862
G1 X103.874 Y104.796 E19.11438
G1 X108.626 Y100.044 E19.29159
G1 X108.626 Y100.642 E19.30735
G1 X103.874 Y105.394 E19.48456
G1 X103.874 Y105.992 E19.50032
G1 X108.626 Y101.240 E19.67753
G1 X108.626 Y101.838 E19.69329
G1 X103.874 Y106.590 E19.87049
G1 X103.874 Y107.188 E19.88626
G1 X108.626 Y102.436 E20.06346
G1 X108.626 Y103.034 E20.07923
G1 X103.874 Y107.786 E20.25643
G1 X103.874 Y108.384 E20.27220
G1 X108.626 Y103.632 E20.44940
G1 X108.626 Y104.230 E20.46517
G1 X103.874 Y108.982 E20.64237
G1 X103.874 Y109.580 E20.65814
G1 X108.626 Y104.828 E20.83534
G1 X108.626 Y105.426 E20.85111
G1 X103.874 Y110.178 E21.02831
G1 X103.874 Y110.776 E21.04408
G1 X108.626 Y106.024 E21.22128
G1 X108.626 Y106.622 E21.23705
G1 X103.874 Y111.374 E21.41425
G1 X103.874 Y111.972 E21.43002
G1 X108.626 Y107.219 E21.60722
G1 X108.626 Y107.817 E21.62299
G1 X103.874 Y112.570 E21.80019
G1 X103.874 Y113.167 E21.81596
G1 X108.626 Y108.415 E21.99316
G1 X108.626 Y109.013 E22.00893
G1 X103.874 Y113.765 E22.18613
G1 X103.874 Y114.276 E22.19959
G1 X103.961 Y114.276 E22.20190
G1 X108.626 Y109.611 E22.37584
G1 X108.626 Y110.209 E22.39161
G1 X104.559 Y114.276 E22.54326
G1 X105.157 Y114.276 E22.55903
G1 X108.626 Y110.807 E22.68838
G1 X108.626 Y111.405 E22.70415
G1 X105.755 Y114.276 E22.81120
G1 X106.353 Y114.276 E22.82697
G1 X108.626 Y112.003 E22.91173
G1 X108.626 Y112.601 E22.92750
G1 X106.951 Y114.276 E22.98996
G1 X107.549 Y114.276 E23.00573
G1 X108.626 Y113.199 E23.04589
G1 X108.626 Y113.797 E23.06166
G1 X107.959 Y114.464 E23.08654
G1 Z0.700 F7800.000
G1 X103.561 Y90.889
G1 F3600
G1 X96.439 Y90.889 E23.27209
G1 X96.439 Y114.589 E23.88961
G1 X91.061 Y114.589 E24.02976
G1 X91.061 Y85.411 E24.79003
G1 X108.939 Y85.411 E25.25588
G1 X108.939 Y114.589 E26.01615
G1 X103.561 Y114.589 E26.15630
G1 X103.561 Y90.949 E26.77226
G1 X103.143 Y91.307 F7800.000
G1 F3600
G1 X96.857 Y91.307 E26.93603
G1 X96.857 Y115.007 E27.55356
G1 X90.643 Y115.007 E27.71548
G1 X90.643 Y84.993 E28.49752
G1 X109.357 Y84.993 E28.98514
G1 X109.357 Y115.007 E29.76719
G1 X103.143 Y115.007 E29.92911
G1 X103.143 Y91.367 E30.54507
G1 X102.725 Y91.725 F7800.000
G1 F1800
G1 X97.275 Y91.725 E30.68707
G1 X97.275 Y115.425 E31.30459
G1 X90.225 Y115.425 E31.48829
G1 X90.225 Y84.575 E32.29211
G1 X109.775 Y84.575 E32.80150
G1 X109.775 Y115.425 E33.60532
G1 X102.725 Y115.425 E33.78901
G1 X102.725 Y91.785 E34.40497
G1 X102.687 Y91.327 F7800.000
G1 X103.620 Y90.764
G1 F1200
G1 X98.580 Y85.724 E34.59291
G1 X97.982 Y85.724 E34.60868
G1 X102.834 Y90.576 E34.78961
G1 X102.236 Y90.576 E34.80538
G1 X97.384 Y85.724 E34.98631
G1 X96.786 Y85.724 E35.00208
G1 X101.638 Y90.576 E35.18301
G1 X101.040 Y90.576 E35.19877
G1 X96.188 Y85.724 E35.37971
G1 X95.590 Y85.724 E35.39547
G1 X100.442 Y90.576 E35.57640
G1 X99.844 Y90.576 E35.59217
G1 X94.992 Y85.724 E35.77310
G1 X94.394 Y85.724 E35.78887
G1 X99.246 Y90.576 E35.96980
G1 X98.648 Y90.576 E35.98557
G1 X93.796 Y85.724 E36.16650
G1 X93.198 Y85.724 E36.18227
G1 X98.050 Y90.576 E36.36320
G1 X97.452 Y90.576 E36.37897
G1 X92.600 Y85.724 E36.55990
