; generated by PrusaSlicer 2.1.1+ on 2021-01-22 at 20:42:51 UTC

; 

; external perimeters extrusion width = 0.45mm
; perimeters extrusion width = 0.45mm
; infill extrusion width = 0.45mm
; solid infill extrusion width = 0.45mm
; top infill extrusion width = 0.40mm
; first layer extrusion width = 0.80mm

M107
M190 S55 ; set bed temperature and wait for it to be reached
M104 S200 ; set temperature
G28 ; home all axes
G1 Z5 F5000 ; lift nozzle
M109 S200 ; set temperature and wait for it to be reached
G21 ; set units to millimeters
G90 ; use absolute coordinates
M82 ; use absolute distances for extrusion
G92 E0
; Filament gcode
G1 Z0.400 F7800.000
G1 E-2.00000 F2400.00000
G92 E0
G1 X98.944 Y107.982 F7800.000
G1 E2.00000 F2400.00000
G1 F1601
G1 X98.943 Y115.937 E2.99231
G1 X99.007 Y116.140 E3.01894
G1
G1 X99.093 Y116.412 E3.06256
G1 X99.318 Y116.437 E3.09725
G1 X100.818 Y116.437 E3.32722
G1 X101.043 Y116.412 E3.36188
G1 X101.107 Y116.208 E3.39460
G1
G1 X101.129 Y116.140 E3.40550
G1
G1 X101.150 Y116.072 E3.41590
G1
G1 X101.172 Y116.005 E3.42579
G1
G1 X101.193 Y115.937 E3.43517
G1
G1 X101.194 Y110.454 E4.11911
G1 E2.11911 F2400.00000
G92 E0
G1 X93.757 Y102.281 F7800.000
G1 E2.00000 F2400.00000
G1 F1601
G1 X85.649 Y106.962 E3.16768
G1 X85.505 Y107.119 E3.19431
G1
G1 X85.313 Y107.329 E3.23793
G1 X85.404 Y107.537 E3.27259
G1 X86.154 Y108.836 E3.50253
G1 X86.288 Y109.018 E3.53720
G1 X86.496 Y108.972 E3.56992
G1
G1 X86.566 Y108.956 E3.58083
G1
G1 X86.635 Y108.941 E3.59123
G1
G1 X86.705 Y108.926 E3.60112
G1
G1 X86.774 Y108.910 E3.61050
G1
G1 X95.307 Y103.985 E4.83941
G1 E2.83941 F2400.00000
G92 E0
G1 X85.305 Y93.077 F7800.000
G1 E2.00000 F2400.00000
G1 F1601
G1 X84.687 Y92.579 E2.02329
G1 E0.02329 F2400.00000
G92 E0
G1 X95.996 Y104.742 F7800.000
G1 E2.00000 F2400.00000
G1 F1601
G1 X91.093 Y113.230 E3.22270
G1 X91.047 Y113.439 E3.24932
G1
G1 X90.986 Y113.717 E3.29295
G1 X91.168 Y113.851 E3.32762
G1 X92.467 Y114.601 E3.55757
G1 X92.674 Y114.692 E3.59222
G1 X92.832 Y114.548 E3.62494
G1
G1 X92.884 Y114.500 E3.63585
G1
G1 X92.937 Y114.452 E3.64625
G1
G1 X92.989 Y114.404 E3.65614
G1
G1 X93.042 Y114.356 E3.66552
G1
G1 X97.586 Y106.488 E4.79868
G1 E2.79868 F2400.00000
G92 E0
G1 X90.599 Y98.810 F7800.000
G1 E2.00000 F2400.00000
G1 F1601
G1 X84.069 Y98.810 E2.81445
G1 X83.866 Y98.875 E2.84107
G1
G1 X83.595 Y98.961 E2.88469
G1 X83.569 Y99.185 E2.91935
G1 X83.569 Y100.685 E3.14931
G1 X83.594 Y100.910 E3.18399
G1 X83.798 Y100.975 E3.21671
G1
G1 X83.866 Y100.996 E3.22762
G1
G1 X83.934 Y101.018 E3.23801
G1
G1 X84.001 Y101.039 E3.24790
G1
G1 X84.069 Y101.061 E3.25729
G1
G1 X92.646 Y101.061 E4.32717
G1 Z0.550 F7800.000
M140 S60 ; set bed temperature
G1 E2.32717 F2400.00000
G92 E0
G1 X83.841 Y98.964 F7800.000
G1 E2.00000 F2400.00000
G1 F1800
G1 X83.840 Y100.914 E2.05081
G1 X92.784 Y100.914 E2.28383
G1 F3600
G1 X96.056 Y100.914 E2.45481
G1 X96.106 Y101.100 E2.46486
G1 X94.039 Y102.293 E2.58958
G1 F1800
G1 X85.526 Y107.208 E2.84569
G1 X86.500 Y108.897 E2.89650
G1 X95.382 Y103.769 E3.16371
G1 F3600
G1 X97.081 Y102.789 E3.26619
G1 X97.217 Y102.925 E3.27624
G1 X96.206 Y104.675 E3.38183
G1 F1800
G1 X91.107 Y113.504 E3.64748
G1 X92.796 Y114.479 E3.69829
G1 X97.583 Y106.189 E3.94773
G1 F3600
G1 X98.905 Y103.900 E4.08583
G1 X99.091 Y103.950 E4.09588
G1 X99.091 Y107.845 E4.29940
G1 F1800
G1 X99.089 Y116.165 E4.51619
G1 X101.039 Y116.165 E4.56700
G1 X101.040 Y109.988 E4.72796
G1 F3600
G1 X101.041 Y103.949 E5.04343
G1 X101.227 Y103.900 E5.05348
G1 X107.333 Y114.479 E5.69165
G1 X109.022 Y113.504 E5.79354
G1 X102.916 Y102.925 E6.43171
G1 X103.052 Y102.789 E6.44176
G1 X113.631 Y108.897 E7.07993
G1 X114.606 Y107.208 E7.18182
G1 X104.028 Y101.100 E7.81999
G1 X104.077 Y100.914 E7.83004
G1 X112.064 Y100.914 E8.24728
G1 X112.337 Y101.214 E8.26848
G1 X105.638 Y101.214 E8.61845
G1 X105.529 Y101.620 E8.64042
G1 X115.232 Y107.223 E9.22579
G1 X113.957 Y109.431 E9.35904
G1 X104.254 Y103.829 E9.94442
G1 X103.956 Y104.126 E9.96639
G1 X109.557 Y113.830 E10.55176
G1 X107.348 Y115.105 E10.68501
G1 X101.747 Y105.401 E11.27039
G1 X101.341 Y105.510 E11.29235
G1 X101.340 Y110.317 E11.54351
G1 F1800
G1 X101.339 Y116.715 E11.71022
G1 X98.789 Y116.715 E11.77667
G1 X98.791 Y107.515 E12.01638
G1 F3600
G1 X98.791 Y105.510 E12.12114
G1 X98.385 Y105.401 E12.14311
G1 X97.795 Y106.422 E12.20468
G1 F1800
G1 X92.780 Y115.105 E12.46596
G1 X90.572 Y113.830 E12.53240
G1 X95.994 Y104.442 E12.81488
G1 F3600
G1 X96.176 Y104.126 E12.83393
G1 X95.879 Y103.829 E12.85590
G1 X95.589 Y103.997 E12.87343
G1 F1800
G1 X86.174 Y109.431 E13.15668
G1 X84.899 Y107.223 E13.22312
G1 X93.832 Y102.066 E13.49187
G1 F3600
G1 X94.604 Y101.620 E13.53846
G1 X94.496 Y101.214 E13.56043
G1 X93.057 Y101.214 E13.63561
G1 F1800
G1 X83.290 Y101.214 E13.89008
G1 X83.291 Y98.664 E13.95653
G1 X90.736 Y98.664 E14.15052
G1 F3600
G1 X94.496 Y98.664 E14.34697
G1 X94.605 Y98.258 E14.36894
G1 X85.674 Y93.101 E14.90776
G1 F1800
G1 X84.902 Y92.655 E14.93098
G1 X85.044 Y92.409 E14.93839
G1 F3600
G1 X86.177 Y90.447 E15.05678
G1 X95.881 Y96.049 E15.64216
G1 X96.178 Y95.752 E15.66413
G1 X90.577 Y86.048 E16.24950
G1 X92.786 Y84.773 E16.38275
G1 X98.387 Y94.477 E16.96812
G1 X98.793 Y94.368 E16.99009
G1 X98.794 Y86.332 E17.40993
G1 X99.094 Y86.662 E17.43322
G1 X99.093 Y95.929 E17.91736
G1 X98.907 Y95.978 E17.92741
G1 X92.801 Y85.399 E18.56558
G1 X91.112 Y86.374 E18.66747
G1 X97.218 Y96.953 E19.30564
G1 X97.082 Y97.089 E19.31569
G1 X86.504 Y90.981 E19.95386
G1 X85.528 Y92.670 E20.05575
G1 X96.106 Y98.778 E20.69392
G1 X96.057 Y98.964 E20.70397
G1 X91.009 Y98.964 E20.96769
G1 F1800
G1 X83.901 Y98.964 E21.15290
G1 E19.15290 F2400.00000
G92 E0
G1 X97.978 Y101.691 F7800.000
G1 E2.00000 F2400.00000
G1 F900
G1 X97.706 Y101.302 E2.02482
G1 X97.505 Y100.871 E2.04965
G1 X97.382 Y100.412 E2.07447
G1 X97.341 Y99.939 E2.09930
G1 X97.382 Y99.466 E2.12413
G1 X97.506 Y99.007 E2.14895
G1 X97.603 Y98.797 E2.16104
G1 X97.706 Y98.576 E2.17378
G1 X97.979 Y98.187 E2.19861
G1 X98.315 Y97.851 E2.22344
G1 X98.704 Y97.578 E2.24826
G1 X99.135 Y97.377 E2.27310
G1 X99.600 Y97.254 E2.29823
G1 X100.067 Y97.213 E2.32274
G1 X100.541 Y97.254 E2.34757
G1 X101.000 Y97.377 E2.37239
G1 X101.430 Y97.578 E2.39722
G1 X101.820 Y97.851 E2.42204
G1 X102.156 Y98.187 E2.44687
G1 X102.428 Y98.576 E2.47169
G1 X102.629 Y99.007 E2.49651
G1 X102.752 Y99.466 E2.52134
G1 X102.793 Y99.939 E2.54617
G1 X102.752 Y100.412 E2.57099
G1 X102.629 Y100.872 E2.59583
G1 X102.424 Y101.307 E2.62098
G1 X102.155 Y101.691 E2.64547
G1 X101.819 Y102.027 E2.67030
G1 X101.430 Y102.300 E2.69512
G1 X100.999 Y102.501 E2.71995
G1 X100.540 Y102.624 E2.74478
G1 X100.067 Y102.665 E2.76960
G1 X99.593 Y102.624 E2.79443
G1 X99.134 Y102.501 E2.81928
G1 X98.696 Y102.295 E2.84456
G1 X98.314 Y102.027 E2.86890
G1 X98.021 Y101.734 E2.89059
G1 E0.89059 F2400.00000
G92 E0
G1 X98.784 Y97.080 F7800.000
G1 E2.00000 F2400.00000
G1 F900
G1 X98.673 Y96.867 E2.01254
G1 X99.168 Y96.581 E2.04240
G1 X99.740 Y96.581 E2.07230
G1 X99.751 Y96.821 E2.08483
G1 X99.528 Y96.841 E2.09653
G1 X98.992 Y96.983 E2.12548
G1 X98.838 Y97.055 E2.13435
G1 X97.324 Y97.976 F7800.000
G1 F900
G1 X97.610 Y97.481 E2.16421
G1 X98.104 Y97.196 E2.19405
G1 X98.233 Y97.398 E2.20659
G1 X98.046 Y97.529 E2.21856
G1 X97.658 Y97.917 E2.24721
G1 X97.526 Y98.105 E2.25919
G1 X97.374 Y98.008 E2.26859
G1 X96.710 Y99.612 F7800.000
G1 F900
G1 X96.710 Y99.039 E2.29851
G1 X96.996 Y98.544 E2.32838
G1 X97.208 Y98.655 E2.34091
G1 X97.111 Y98.863 E2.35289
G1 X96.969 Y99.393 E2.38154
G1 X96.949 Y99.623 E2.39360
G1 X96.769 Y99.615 E2.40300
G1 X96.996 Y101.336 F7800.000
G1 F900
G1 X96.709 Y100.839 E2.43298
G1 X96.709 Y100.266 E2.46292
G1 X96.949 Y100.255 E2.47546
G1 X96.969 Y100.485 E2.48752
G1 X97.111 Y101.015 E2.51616
G1 X97.209 Y101.225 E2.52828
G1 X97.049 Y101.308 E2.53769
G1 X97.609 Y102.397 F7800.000
G1 F900
G1 X97.322 Y101.900 E2.56768
G1 X97.524 Y101.771 E2.58022
G1 X97.657 Y101.961 E2.59234
G1 X98.045 Y102.349 E2.62099
G1 X98.235 Y102.482 E2.63310
G1 X98.106 Y102.684 E2.64564
G1 X97.661 Y102.427 E2.67249
G1 X98.691 Y102.963 F7800.000
G1 F900
G1 X98.779 Y102.795 E2.68238
G1 X98.990 Y102.894 E2.69454
G1 X99.520 Y103.037 E2.72324
G1 X99.750 Y103.057 E2.73528
G1 X99.740 Y103.296 E2.74782
G1 X99.167 Y103.296 E2.77775
G1 X98.675 Y103.013 E2.80739
G1 X100.394 Y103.296 F7800.000
G1 F900
G1 X100.383 Y103.057 E2.81993
G1 X100.613 Y103.037 E2.83197
G1 X101.142 Y102.895 E2.86061
G1 X101.350 Y102.798 E2.87259
G1 X101.461 Y103.011 E2.88513
G1 X100.966 Y103.296 E2.91498
G1 X100.454 Y103.296 E2.94175
G1 X101.901 Y102.480 F7800.000
G1 F900
G1 X102.089 Y102.349 E2.95373
G1 X102.476 Y101.961 E2.98237
G1 X102.608 Y101.773 E2.99435
G1 X102.810 Y101.902 E3.00689
G1 X102.524 Y102.397 E3.03674
G1 X102.030 Y102.682 E3.06659
G1 X101.933 Y102.531 E3.07599
G1 X102.925 Y101.224 F7800.000
G1 F900
G1 X103.022 Y101.016 E3.08800
G1 X103.165 Y100.485 E3.11669
G1 X103.185 Y100.255 E3.12875
G1 X103.425 Y100.266 E3.14129
G1 X103.424 Y100.839 E3.17120
G1 X103.138 Y101.335 E3.20116
G1 X102.978 Y101.252 E3.21057
G1 X103.185 Y99.623 F7800.000
G1 F900
G1 X103.165 Y99.393 E3.22263
G1 X103.023 Y98.863 E3.25128
G1 X102.925 Y98.653 E3.26340
G1 X103.138 Y98.542 E3.27594
G1 X103.425 Y99.039 E3.30592
G1 X103.425 Y99.612 E3.33586
G1 X103.245 Y99.620 E3.34526
G1 E1.34526 F2400.00000
G92 E0
G1 X101.899 Y97.396 F7800.000
G1 E2.00000 F2400.00000
G1 F900
G1 X102.028 Y97.194 E2.01254
G1 X102.525 Y97.481 E2.04253
G1 X102.812 Y97.978 E2.07252
G1 X102.610 Y98.107 E2.08506
G1 X102.477 Y97.917 E2.09718
G1 X102.089 Y97.529 E2.12582
G1 X101.949 Y97.431 E2.13480
G1 X100.384 Y96.821 F7800.000
G1 F900
G1 X100.395 Y96.581 E2.14734
G1 X100.967 Y96.581 E2.17727
G1 X101.464 Y96.868 E2.20724
G1 X101.353 Y97.081 E2.21978
G1 X101.143 Y96.983 E2.23189
G1 X100.614 Y96.841 E2.26054
G1 X100.444 Y96.826 E2.26945
G1 E0.26945 F2400.00000
G92 E0
G1 X97.303 Y102.703 F7800.000
G1 E2.00000 F2400.00000
G1 F900
G1 X96.291 Y100.951 E2.10569
G1 X96.292 Y98.927 E2.21139
G1 X97.304 Y97.175 E2.31710
G1 X99.056 Y96.164 E2.42282
G1 X101.079 Y96.164 E2.52852
G1 X102.831 Y97.175 E2.63421
G1 X103.843 Y98.927 E2.73991
G1 X103.842 Y100.951 E2.84561
G1 X102.830 Y102.703 E2.95132
G1 X101.078 Y103.714 E3.05703
G1 X99.055 Y103.714 E3.16273
G1 X97.355 Y102.733 E3.26529
G1 E1.26529 F2400.00000
G92 E0
G1 X102.985 Y97.021 F7800.000
G1 E2.00000 F2400.00000
G1 F900
G1 X102.917 Y96.953 E2.00502
G1 X105.069 Y93.228 E2.22980
G1 X105.281 Y93.460 E2.24625
G1 X103.958 Y95.752 E2.38449
G1 X104.255 Y96.049 E2.40646
G1 X106.472 Y94.769 E2.54020
G1 X106.679 Y94.996 E2.55624
G1 X103.053 Y97.089 E2.77494
G1 X103.028 Y97.064 E2.77683
G1 X104.028 Y98.778 F7800.000
G1 F900
G1 X108.022 Y96.473 E3.01776
G1 X108.229 Y96.700 E3.03381
G1 X105.530 Y98.258 E3.19662
G1 X105.639 Y98.664 E3.21859
G1 X110.016 Y98.664 E3.44729
G1 X110.289 Y98.964 E3.46848
G1 X104.078 Y98.964 E3.79299
G1 X104.044 Y98.836 E3.79990
G1 E1.79990 F2400.00000
G92 E0
G1 X101.229 Y95.978 F7800.000
G1 E2.00000 F2400.00000
G1 F900
G1 X101.043 Y95.928 E2.01005
G1 X101.044 Y88.804 E2.38224
G1 X101.344 Y89.134 E2.40553
G1 X101.343 Y94.368 E2.67897
G1 X101.749 Y94.477 E2.70094
G1 X103.480 Y91.481 E2.88169
G1 X103.692 Y91.714 E2.89814
G1 X101.259 Y95.926 E3.15229
G1 X101.851 Y96.850 F7800.000
G1 F1200
G1 X101.587 Y97.308 E3.16022
G1 X102.698 Y98.420 F7800.000
G1 F1200
G1 X103.156 Y98.156 E3.16814
G1 X103.107 Y99.939 F7800.000
G1 F1200
G1 X103.634 Y99.939 E3.17612
G1 X102.699 Y101.459 F7800.000
G1 F1200
G1 X103.155 Y101.723 E3.18413
G1 X101.587 Y102.573 F7800.000
G1 F1200
G1 X101.850 Y103.028 E3.19218
G1 X100.067 Y102.979 F7800.000
G1 F1200
G1 X100.067 Y103.505 E3.20017
G1 X98.282 Y103.027 F7800.000
G1 F1200
G1 X98.548 Y102.568 E3.20688
G1 X98.514 Y102.432 E3.20865
G1 X97.436 Y101.458 F7800.000
G1 F1200
G1 X96.978 Y101.722 E3.21657
G1 X97.028 Y99.939 F7800.000
G1 F1200
G1 X96.501 Y99.939 E3.22455
G1 X97.434 Y98.418 F7800.000
G1 F1200
G1 X96.979 Y98.156 E3.23259
G1 X98.547 Y97.305 F7800.000
G1 F1200
G1 X98.284 Y96.850 E3.24064
G1 X100.067 Y96.899 F7800.000
G1 F1200
G1 X100.067 Y96.373 E3.24864
G1 E1.24864 F2400.00000
G92 E0
G1 X92.742 Y85.115 F7800.000
G1 E2.00000 F2400.00000
G1 F1200
G1 X90.895 Y86.182 E2.01758
G1 E0.01758 F2400.00000
G92 E0
G1 X86.311 Y90.765 F7800.000
G1 E2.00000 F2400.00000
G1 F1200
G1 X85.244 Y92.612 E2.01758
G1 E0.01758 F2400.00000
G92 E0
G1 X83.566 Y98.873 F7800.000
G1 E2.00000 F2400.00000
G1 F1200
G1 X83.565 Y101.005 E2.01759
G1 E0.01759 F2400.00000
G92 E0
G1 X85.242 Y107.266 F7800.000
G1 E2.00000 F2400.00000
G1 F1200
G1 X86.308 Y109.113 E2.01760
G1 E0.01760 F2400.00000
G92 E0
G1 X90.890 Y113.696 F7800.000
G1 E2.00000 F2400.00000
G1 F1200
G1 X92.737 Y114.763 E2.01760
G1 E0.01760 F2400.00000
G92 E0
G1 X98.998 Y116.440 F7800.000
G1 E2.00000 F2400.00000
G1 F1200
G1 X101.130 Y116.440 E2.01759
G1 E0.01759 F2400.00000
G92 E0
G1 X107.392 Y114.763 F7800.000
G1 E2.00000 F2400.00000
G1 F1200
G1 X109.239 Y113.696 E2.01758
G1 E0.01758 F2400.00000
G92 E0
G1 X113.823 Y109.113 F7800.000
G1 E2.00000 F2400.00000
G1 F1200
G1 X114.890 Y107.266 E2.01758
G1 Z0.700 F7800.000
G1 E0.01758 F2400.00000
G92 E0
G1 X101.228 Y95.978 F7800.000
G1 E2.00000 F2400.00000
G1 F1800
G1 X101.041 Y95.930 E2.00503
G1 X101.042 Y88.171 E2.20721
G1 F3600
G1 X101.043 Y83.715 E2.44002
G1 X99.093 Y83.715 E2.54190
G1 X99.092 Y86.028 E2.66277
G1 F1800
G1 X99.091 Y95.930 E2.92078
G1 X98.905 Y95.980 E2.92580
G1 X92.799 Y85.401 E3.24406
G1 X91.110 Y86.376 E3.29488
G1 X97.216 Y96.955 E3.61315
G1 X97.080 Y97.091 E3.61816
G1 X86.501 Y90.983 E3.93643
G1 X85.526 Y92.672 E3.98725
G1 X96.104 Y98.780 E4.30552
G1 X96.055 Y98.966 E4.31053
G1 X83.839 Y98.966 E4.62883
G1 X83.838 Y100.916 E4.67964
G1 X96.054 Y100.916 E4.99793
G1 X96.104 Y101.102 E5.00294
G1 X85.524 Y107.210 E5.32126
G1 X86.498 Y108.898 E5.37207
G1 X97.079 Y102.791 E5.69038
G1 X97.215 Y102.927 E5.69540
G1 X91.105 Y113.506 E6.01371
G1 X92.794 Y114.481 E6.06452
G1 X98.903 Y103.902 E6.38283
G1 X99.089 Y103.951 E6.38784
G1 X99.087 Y116.167 E6.70613
G1 X101.037 Y116.167 E6.75694
G1 X101.039 Y103.951 E7.07523
G1 X101.225 Y103.902 E7.08025
G1 X107.331 Y114.481 E7.39852
G1 X109.020 Y113.506 E7.44933
G1 X102.914 Y102.927 E7.76760
G1 X103.050 Y102.791 E7.77261
G1 X113.628 Y108.898 E8.09089
G1 X114.604 Y107.210 E8.14170
G1 X104.026 Y101.102 E8.45997
G1 X104.075 Y100.916 E8.46498
G1 X112.640 Y100.916 E8.68814
G1 F3600
G1 X116.291 Y100.916 E8.87890
G1 X116.292 Y98.966 E8.98079
G1 X110.865 Y98.966 E9.26428
G1 F1800
G1 X104.076 Y98.966 E9.44119
G1 X104.026 Y98.780 E9.44620
G1 X108.399 Y96.256 E9.57777
G1 F3600
G1 X114.606 Y92.672 E9.95222
G1 X113.766 Y91.216 E10.04007
G1 X113.948 Y91.083 E10.05183
G1 X114.978 Y92.215 E10.13182
G1 X115.233 Y92.657 E10.15845
G1 X108.606 Y96.483 E10.55823
G1 F1800
G1 X105.528 Y98.260 E10.65084
G1 X105.636 Y98.666 E10.66180
G1 X110.592 Y98.666 E10.79093
G1 F3600
G1 X116.842 Y98.666 E11.11743
G1 X116.841 Y101.216 E11.25066
G1 X112.913 Y101.216 E11.45590
G1 F1800
G1 X105.636 Y101.216 E11.64551
G1 X105.527 Y101.622 E11.65647
G1 X115.230 Y107.225 E11.94841
G1 X113.955 Y109.433 E12.01486
G1 X104.252 Y103.831 E12.30680
G1 X103.954 Y104.128 E12.31776
G1 X109.555 Y113.832 E12.60970
G1 X107.346 Y115.107 E12.67616
G1 X101.745 Y105.403 E12.96809
G1 X101.339 Y105.512 E12.97905
G1 X101.337 Y116.717 E13.27101
G1 X98.787 Y116.717 E13.33746
G1 X98.789 Y105.512 E13.62942
G1 X98.383 Y105.403 E13.64038
G1 X92.778 Y115.107 E13.93236
G1 X90.570 Y113.832 E13.99880
G1 X96.174 Y104.128 E14.29079
G1 X95.877 Y103.831 E14.30174
G1 X86.172 Y109.433 E14.59373
G1 X84.897 Y107.225 E14.66017
G1 X94.602 Y101.622 E14.95216
G1 X94.493 Y101.216 E14.96312
G1 X83.288 Y101.216 E15.25508
G1 X83.289 Y98.666 E15.32153
G1 X94.494 Y98.666 E15.61349
G1 X94.603 Y98.260 E15.62445
G1 X84.900 Y92.657 E15.91639
G1 X86.175 Y90.448 E15.98285
G1 X95.878 Y96.051 E16.27479
G1 X96.176 Y95.754 E16.28574
G1 X90.575 Y86.050 E16.57768
G1 X92.784 Y84.775 E16.64414
G1 X98.385 Y94.479 E16.93608
G1 X98.791 Y94.370 E16.94703
G1 X98.792 Y85.698 E17.17297
G1 F3600
G1 X98.793 Y83.165 E17.30535
G1 X101.343 Y83.165 E17.43859
G1 X101.342 Y88.500 E17.71737
