; generated by PrusaSlicer 2.1.1+ on 2021-01-22 at 23:37:09 UTC

; 

; external perimeters extrusion width = 0.45mm
; perimeters extrusion width = 0.45mm
; infill extrusion width = 0.45mm
; solid infill extrusion width = 0.45mm
; top infill extrusion width = 0.40mm
; first layer extrusion width = 0.80mm

M107
M190 S60 ; set bed temperature and wait for it to be reached
M104 S200 ; set temperature
G28 ; home all axes
G1 Z5 F5000 ; lift nozzle
M109 S200 ; set temperature and wait for it to be reached
G21 ; set units to millimeters
G90 ; use absolute coordinates
M82 ; use absolute distances for extrusion
G92 E0
; Filament gcode
G1 Z0.400 F7800.000
G1 E-2.00000 F2400.00000
G92 E0
G1 X57.286 Y94.027 F7800.000
G1 E2.00000 F2400.00000
G1 F1800
G1 X58.719 Y93.820 E2.17200
G1 X146.846 Y91.924 E12.64079
G1 X147.647 Y91.976 E12.73616
G1 X148.429 Y92.126 E12.83079
G1 X149.907 Y92.713 E13.01968
G1 X182.830 Y111.728 E17.53500
G1 X184.013 Y112.706 E17.71728
G1 X184.927 Y113.938 E17.89956
G1 X185.519 Y115.354 E18.08185
G1 X185.755 Y116.865 E18.26339
G1 X185.757 Y154.812 E22.77018
G1 X185.690 Y155.612 E22.86555
G1 X185.524 Y156.391 E22.96018
G1 X185.262 Y157.144 E23.05481
G1 X184.905 Y157.863 E23.15018
G1 X183.943 Y159.130 E23.33907
G1 X183.350 Y159.663 E23.43370
G1 X182.691 Y160.121 E23.52907
G1 X149.805 Y179.104 E28.03876
G1 X148.377 Y179.649 E28.22030
G1 X146.866 Y179.838 E28.40112
G1 X58.874 Y179.532 E38.85166
G1 X57.863 Y179.446 E38.97212
G1 X56.790 Y179.171 E39.10364
G1 X55.782 Y178.713 E39.23515
G1 X24.039 Y160.386 E43.58835
G1 X23.323 Y159.890 E43.69184
G1 X22.681 Y159.300 E43.79533
G1 X22.126 Y158.628 E43.89882
G1 X21.668 Y157.887 E44.00230
G1 X21.136 Y156.507 E44.17798
G1 X20.937 Y155.041 E44.35365
G1 X20.936 Y118.419 E48.70316
G1 X21.132 Y116.859 E48.88985
G1 X21.701 Y115.400 E49.07580
G1 X22.149 Y114.689 E49.17560
G1 X22.687 Y114.044 E49.27540
G1 X23.300 Y113.478 E49.37446
G1 X23.987 Y112.995 E49.47426
G1 X55.936 Y94.552 E53.85548
G1 X57.230 Y94.048 E54.02035
G1 E52.02035 F2400.00000
G92 E0
G1 X58.902 Y171.064 F7800.000
G1 E2.00000 F2400.00000
G1 F1800
G1 X29.121 Y153.869 E6.08410
G1 X29.121 Y119.480 E10.16830
G1 X58.902 Y102.286 E14.25240
G1 X88.683 Y119.480 E18.33650
G1 X88.683 Y153.869 E22.42070
G1 X58.954 Y171.034 E26.49767
G1 X58.902 Y171.888 F7800.000
G1 F1800
G1 X28.407 Y154.281 E30.67971
G1 X28.407 Y119.068 E34.86185
G1 X58.902 Y101.461 E39.04389
G1 X89.397 Y119.068 E43.22592
G1 X89.397 Y154.281 E47.40806
G1 X58.954 Y171.858 E51.58297
G1 X58.902 Y172.713 F7800.000
G1 F1800
G1 X27.693 Y154.694 E55.86295
G1 X27.693 Y118.656 E60.14303
G1 X58.902 Y100.637 E64.42300
G1 X90.111 Y118.656 E68.70298
G1 X90.111 Y154.694 E72.98306
G1 X58.954 Y172.683 E77.25591
G1 X58.702 Y172.366 F7800.000
G1 X58.989 Y170.766
G1 F1800
G1 X29.657 Y141.435 E82.20730
G1 X29.657 Y140.420 E82.32847
G1 X59.397 Y170.159 E87.34878
G1 X60.040 Y169.788 E87.43748
G1 X29.657 Y139.405 E92.56642
G1 X29.657 Y138.389 E92.68759
G1 X60.684 Y169.416 E97.92516
G1 X61.327 Y169.045 E98.01386
G1 X29.657 Y137.374 E103.36007
G1 X29.657 Y136.359 E103.48123
G1 X61.971 Y168.673 E108.93607
G1 X62.614 Y168.302 E109.02477
G1 X29.657 Y135.344 E114.58825
G1 X29.657 Y134.329 E114.70941
G1 X63.258 Y167.930 E120.38151
G1 X63.901 Y167.559 E120.47021
G1 X29.657 Y133.314 E126.25095
G1 X29.657 Y132.299 E126.37211
G1 X64.545 Y167.187 E132.26148
G1 X65.188 Y166.816 E132.35018
G1 X29.657 Y131.284 E138.34818
G1 X29.657 Y130.269 E138.46935
G1 X65.832 Y166.444 E144.57598
G1 X66.476 Y166.072 E144.66468
G1 X29.657 Y129.254 E150.87994
G1 X29.657 Y128.239 E151.00111
G1 X67.119 Y165.701 E157.32501
G1 X67.763 Y165.329 E157.41370
G1 X29.657 Y127.224 E163.84623
G1 X29.657 Y126.209 E163.96740
G1 X68.406 Y164.958 E170.50856
G1 X69.050 Y164.586 E170.59726
G1 X29.657 Y125.194 E177.24705
G1 X29.657 Y124.178 E177.36822
G1 X69.693 Y164.215 E184.12664
G1 X70.337 Y163.843 E184.21534
G1 X29.657 Y123.163 E191.08240
G1 X29.657 Y122.148 E191.20356
G1 X70.980 Y163.472 E198.17925
G1 X71.624 Y163.100 E198.26795
G1 X29.657 Y121.133 E205.35227
G1 X29.657 Y120.118 E205.47344
G1 X72.267 Y162.728 E212.66639
G1 X72.911 Y162.357 E212.75509
G1 X30.092 Y119.538 E219.98321
G1 X30.736 Y119.167 E220.07191
G1 X73.554 Y161.985 E227.30003
G1 X74.198 Y161.614 E227.38873
G1 X31.379 Y118.795 E234.61685
G1 X32.023 Y118.424 E234.70555
G1 X74.841 Y161.242 E241.93367
G1 X75.485 Y160.871 E242.02237
G1 X32.666 Y118.052 E249.25049
G1 X33.310 Y117.680 E249.33919
G1 X76.128 Y160.499 E256.56731
G1 X76.772 Y160.128 E256.65601
G1 X33.953 Y117.309 E263.88413
G1 X34.597 Y116.937 E263.97283
G1 X77.415 Y159.756 E271.20095
G1 X78.059 Y159.384 E271.28965
G1 X35.240 Y116.566 E278.51777
G1 X35.884 Y116.194 E278.60647
G1 X78.703 Y159.013 E285.83459
G1 X79.346 Y158.641 E285.92329
G1 X36.527 Y115.823 E293.15141
G1 X37.171 Y115.451 E293.24011
G1 X79.990 Y158.270 E300.46823
G1 X80.633 Y157.898 E300.55693
G1 X37.814 Y115.080 E307.78505
G1 X38.458 Y114.708 E307.87375
G1 X81.277 Y157.527 E315.10187
G1 X81.920 Y157.155 E315.19057
G1 X39.102 Y114.337 E322.41869
G1 X39.745 Y113.965 E322.50739
G1 X82.564 Y156.784 E329.73551
G1 X83.207 Y156.412 E329.82421
G1 X40.389 Y113.593 E337.05233
G1 X41.032 Y113.222 E337.14103
G1 X83.851 Y156.041 E344.36915
G1 X84.494 Y155.669 E344.45785
G1 X41.676 Y112.850 E351.68597
G1 X42.319 Y112.479 E351.77467
G1 X85.138 Y155.297 E359.00279
G1 X85.781 Y154.926 E359.09149
G1 X42.963 Y112.107 E366.31961
G1 X43.606 Y111.736 E366.40831
G1 X86.425 Y154.554 E373.63643
G1 X87.068 Y154.183 E373.72513
G1 X44.250 Y111.364 E380.95325
G1 X44.893 Y110.993 E381.04195
G1 X87.712 Y153.811 E388.27007
G1 X88.147 Y153.560 E388.33006
G1 X88.147 Y153.231 E388.36928
G1 X45.537 Y110.621 E395.56224
G1 X46.180 Y110.249 E395.65094
G1 X88.147 Y152.216 E402.73527
G1 X88.147 Y151.201 E402.85643
G1 X46.824 Y109.878 E409.83213
G1 X47.467 Y109.506 E409.92083
G1 X88.147 Y150.186 E416.78789
G1 X88.147 Y149.171 E416.90905
G1 X48.111 Y109.135 E423.66749
G1 X48.754 Y108.763 E423.75619
G1 X88.147 Y148.156 E430.40599
G1 X88.147 Y147.141 E430.52715
G1 X49.398 Y108.392 E437.06832
G1 X50.041 Y108.020 E437.15702
G1 X88.147 Y146.126 E443.58955
G1 X88.147 Y145.111 E443.71072
G1 X50.685 Y107.649 E450.03462
G1 X51.328 Y107.277 E450.12332
G1 X88.147 Y144.096 E456.33859
G1 X88.147 Y143.081 E456.45976
G1 X51.972 Y106.906 E462.56640
G1 X52.616 Y106.534 E462.65509
G1 X88.147 Y142.066 E468.65310
G1 X88.147 Y141.050 E468.77427
G1 X53.259 Y106.162 E474.66364
G1 X53.903 Y105.791 E474.75234
G1 X88.147 Y140.035 E480.53308
G1 X88.147 Y139.020 E480.65425
G1 X54.546 Y105.419 E486.32636
G1 X55.190 Y105.048 E486.41506
G1 X88.147 Y138.005 E491.97854
G1 X88.147 Y136.990 E492.09970
G1 X55.833 Y104.676 E497.55455
G1 X56.477 Y104.305 E497.64325
G1 X88.147 Y135.975 E502.98946
G1 X88.147 Y134.960 E503.11063
G1 X57.120 Y103.933 E508.34821
G1 X57.764 Y103.562 E508.43691
G1 X88.147 Y133.945 E513.56586
G1 X88.147 Y132.930 E513.68702
G1 X58.407 Y103.190 E518.70734
G1 X58.902 Y102.904 E518.77554
G1 X59.457 Y103.225 E518.85206
G1 X88.468 Y132.236 E523.74939
G1 X88.468 Y131.221 F7800.000
G1 F1800
G1 X60.981 Y103.734 E528.38949
G1 E526.38949 F2400.00000
G92 E0
G1 X63.383 Y105.120 F7800.000
G1 E2.00000 F2400.00000
G1 F1800
G1 X88.468 Y130.206 E6.23466
G1 X88.468 Y129.191 F7800.000
G1 F1800
G1 X65.785 Y106.507 E10.06389
G1 E8.06389 F2400.00000
G92 E0
G1 X68.186 Y107.894 F7800.000
G1 E2.00000 F2400.00000
G1 F1800
G1 X88.468 Y128.176 E5.42378
G1 X88.468 Y127.161 F7800.000
G1 F1800
G1 X70.588 Y109.280 E8.44212
G1 E6.44212 F2400.00000
G92 E0
G1 X72.990 Y110.667 F7800.000
G1 E2.00000 F2400.00000
G1 F1800
G1 X88.468 Y126.146 E4.61290
G1 X88.468 Y125.131 F7800.000
G1 F1800
G1 X75.392 Y112.054 E6.82036
G1 E4.82036 F2400.00000
G92 E0
G1 X77.794 Y113.441 F7800.000
G1 E2.00000 F2400.00000
G1 F1800
G1 X88.468 Y124.116 E3.80202
G1 X88.468 Y123.100 F7800.000
G1 F1800
G1 X80.195 Y114.827 E5.19859
G1 E3.19859 F2400.00000
G92 E0
G1 X82.597 Y116.214 F7800.000
G1 E2.00000 F2400.00000
G1 F1800
G1 X88.468 Y122.085 E2.99114
G1 X88.468 Y121.070 F7800.000
G1 F1800
G1 X84.999 Y117.601 E3.57683
G1 E1.57683 F2400.00000
G92 E0
G1 X54.421 Y168.229 F7800.000
G1 E2.00000 F2400.00000
G1 F1800
G1 X29.657 Y143.465 E6.18039
G1 X29.657 Y142.450 E6.30156
G1 X56.823 Y169.616 E10.88739
G1 E8.88739 F2400.00000
G92 E0
G1 X52.019 Y166.842 F7800.000
G1 E2.00000 F2400.00000
G1 F1800
G1 X29.657 Y144.480 E5.77495
G1 X29.657 Y145.495 E5.89611
G1 X49.618 Y165.456 E9.26562
G1 E7.26562 F2400.00000
G92 E0
G1 X47.216 Y164.069 F7800.000
G1 E2.00000 F2400.00000
G1 F1800
G1 X29.657 Y146.510 E4.96407
G1 X29.657 Y147.525 E5.08523
G1 X44.814 Y162.682 E7.64386
G1 E5.64386 F2400.00000
G92 E0
G1 X42.412 Y161.295 F7800.000
G1 E2.00000 F2400.00000
G1 F1800
G1 X29.657 Y148.540 E4.15318
G1 X29.657 Y149.555 E4.27435
G1 X40.010 Y159.909 E6.02209
G1 E4.02209 F2400.00000
G92 E0
G1 X37.609 Y158.522 F7800.000
G1 E2.00000 F2400.00000
G1 F1800
G1 X29.657 Y150.570 E3.34230
G1 X29.657 Y151.585 E3.46347
G1 X35.207 Y157.135 E4.40033
G1 E2.40033 F2400.00000
G92 E0
G1 X32.805 Y155.749 F7800.000
G1 E2.00000 F2400.00000
G1 F1800
G1 X29.336 Y152.279 E2.58567
G1 Z0.550 F7800.000
M140 S55 ; set bed temperature
G1 X58.902 Y171.950
G1 F3600
G1 X28.354 Y154.312 E3.50477
G1 X28.354 Y119.037 E4.42390
G1 X58.902 Y101.399 E5.34300
G1 X89.450 Y119.037 E6.26211
G1 X89.450 Y154.312 E7.18123
G1 X58.954 Y171.920 E8.09877
G1 X58.902 Y172.432 F7800.000
G1 F3600
G1 X27.936 Y154.554 E9.03045
G1 X27.936 Y118.796 E9.96214
G1 X58.902 Y100.917 E10.89382
G1 X89.868 Y118.796 E11.82549
G1 X89.868 Y154.554 E12.75719
G1 X58.954 Y172.402 E13.68730
G1 X58.902 Y172.915 F7800.000
G1 F1800
G1 X27.518 Y154.795 E14.63154
G1 X27.518 Y118.555 E15.57581
G1 X58.902 Y100.435 E16.52006
G1 X90.286 Y118.555 E17.46430
G1 X90.286 Y154.795 E18.40857
G1 X58.954 Y172.885 E19.35125
G1 X58.702 Y172.569 F7800.000
G1 X58.722 Y171.701
G1 F1200
G1 X73.787 Y156.636 E19.90935
G1 X73.193 Y156.636 E19.92491
G1 X58.483 Y171.346 E20.46987
G1 X58.106 Y171.129 E20.48126
G1 X72.599 Y156.636 E21.01816
G1 X72.005 Y156.636 E21.03372
G1 X57.729 Y170.911 E21.56256
G1 X57.353 Y170.694 E21.57395
G1 X71.411 Y156.636 E22.09474
G1 X70.817 Y156.636 E22.11030
G1 X56.976 Y170.476 E22.62303
G1 X56.600 Y170.259 E22.63442
G1 X70.406 Y156.452 E23.14590
G1 X70.109 Y156.155 E23.15690
G1 X56.223 Y170.041 E23.67133
G1 X55.846 Y169.824 E23.68272
G1 X69.812 Y155.858 E24.20009
G1 X69.515 Y155.561 E24.21109
G1 X55.470 Y169.607 E24.73141
G1 X55.093 Y169.389 E24.74281
G1 X69.218 Y155.264 E25.26607
G1 X68.921 Y154.967 E25.27708
G1 X54.717 Y169.172 E25.80329
G1 X54.340 Y168.954 E25.81468
G1 X68.710 Y154.584 E26.34703
G1 X68.710 Y153.990 E26.36259
G1 X53.963 Y168.737 E26.90889
G1 X53.587 Y168.519 E26.92028
G1 X68.710 Y153.396 E27.48053
G1 X68.710 Y152.802 E27.49609
G1 X53.210 Y168.302 E28.07029
G1 X52.834 Y168.085 E28.08168
G1 X68.710 Y152.208 E28.66983
G1 X68.710 Y151.614 E28.68539
G1 X52.457 Y167.867 E29.28750
G1 X52.080 Y167.650 E29.29889
G1 X68.710 Y151.020 E29.91494
G1 X68.710 Y150.426 E29.93050
G1 X51.704 Y167.432 E30.56051
G1 X51.327 Y167.215 E30.57190
G1 X68.710 Y149.832 E31.21585
G1 X68.710 Y149.238 E31.23141
G1 X50.951 Y166.997 E31.88932
G1 X50.574 Y166.780 E31.90071
G1 X68.710 Y148.644 E32.57257
G1 X68.710 Y148.050 E32.58813
G1 X50.197 Y166.562 E33.27394
G1 X49.821 Y166.345 E33.28533
G1 X68.710 Y147.456 E33.98509
G1 X68.710 Y146.862 E34.00065
G1 X49.444 Y166.128 E34.71436
G1 X49.068 Y165.910 E34.72575
G1 X68.710 Y146.268 E35.45341
G1 X68.710 Y145.674 E35.46897
G1 X48.691 Y165.693 E36.21058
G1 X48.314 Y165.475 E36.22198
G1 X68.710 Y145.080 E36.97754
G1 X68.710 Y144.486 E36.99310
G1 X47.938 Y165.258 E37.76262
G1 X47.561 Y165.040 E37.77401
G1 X68.710 Y143.892 E38.55747
G1 X68.710 Y143.298 E38.57303
G1 X47.185 Y164.823 E39.37045
G1 X46.808 Y164.606 E39.38184
G1 X68.710 Y142.704 E40.19321
G1 X68.710 Y142.109 E40.20877
G1 X46.432 Y164.388 E41.03409
G1 X46.055 Y164.171 E41.04548
G1 X68.710 Y141.515 E41.88475
G1 X68.710 Y140.921 E41.90031
G1 X45.678 Y163.953 E42.75353
G1 X45.302 Y163.736 E42.76492
G1 X68.710 Y140.327 E43.63210
G1 X68.710 Y139.733 E43.64766
G1 X44.925 Y163.518 E44.52878
G1 X44.549 Y163.301 E44.54017
G1 X68.710 Y139.139 E45.43525
G1 X68.710 Y138.545 E45.45081
G1 X44.172 Y163.084 E46.35983
G1 X43.795 Y162.866 E46.37122
G1 X68.710 Y137.951 E47.29420
G1 X68.710 Y137.357 E47.30976
G1 X43.419 Y162.649 E48.24669
G1 X43.042 Y162.431 E48.25808
G1 X68.710 Y136.763 E49.20896
G1 X68.710 Y136.169 E49.22452
G1 X42.666 Y162.214 E50.18935
G1 X42.289 Y161.996 E50.20074
G1 X86.557 Y117.728 E51.84066
G1 X86.934 Y117.946 E51.85205
G1 X70.917 Y133.963 E52.44541
G1 X71.511 Y133.963 E52.46097
G1 X87.310 Y118.163 E53.04628
G1 X87.687 Y118.381 E53.05767
G1 X72.105 Y133.963 E53.63492
G1 X72.699 Y133.963 E53.65048
G1 X88.063 Y118.598 E54.21967
G1 X88.440 Y118.815 E54.23106
G1 X73.293 Y133.963 E54.79220
G1 X73.887 Y133.963 E54.80776
G1 X88.817 Y119.033 E55.36085
G1 X89.137 Y119.218 E55.37054
G1 X89.137 Y119.306 E55.37286
G1 X74.481 Y133.963 E55.91581
G1 X75.075 Y133.963 E55.93137
G1 X89.137 Y119.901 E56.45231
G1 X89.137 Y120.495 E56.46787
G1 X75.669 Y133.963 E56.96681
G1 X76.263 Y133.963 E56.98237
G1 X89.137 Y121.089 E57.45931
G1 X89.137 Y121.683 E57.47487
G1 X76.857 Y133.963 E57.92979
G1 X77.451 Y133.963 E57.94535
G1 X89.137 Y122.277 E58.37827
G1 X89.137 Y122.871 E58.39384
G1 X78.045 Y133.963 E58.80475
G1 X78.639 Y133.963 E58.82031
G1 X89.137 Y123.465 E59.20922
G1 X89.137 Y124.059 E59.22478
G1 X79.233 Y133.963 E59.59168
G1 X79.827 Y133.963 E59.60724
G1 X89.137 Y124.653 E59.95214
G1 X89.137 Y125.247 E59.96770
G1 X80.421 Y133.963 E60.29059
G1 X81.015 Y133.963 E60.30615
G1 X89.137 Y125.841 E60.60704
G1 X89.137 Y126.435 E60.62260
G1 X81.609 Y133.963 E60.90148
G1 X82.203 Y133.963 E60.91704
G1 X89.137 Y127.029 E61.17391
G1 X89.137 Y127.623 E61.18947
G1 X82.797 Y133.963 E61.42434
G1 X83.391 Y133.963 E61.43990
G1 X89.137 Y128.217 E61.65276
G1 X89.137 Y128.811 E61.66832
G1 X83.985 Y133.963 E61.85917
G1 X84.579 Y133.963 E61.87473
G1 X89.137 Y129.405 E62.04358
G1 X89.137 Y129.999 E62.05914
G1 X85.173 Y133.963 E62.20599
G1 X85.767 Y133.963 E62.22155
G1 X89.137 Y130.593 E62.34638
G1 X89.137 Y131.187 E62.36194
G1 X86.361 Y133.963 E62.46478
G1 X86.955 Y133.963 E62.48034
G1 X89.137 Y131.781 E62.56116
G1 X89.137 Y132.375 E62.57672
G1 X87.549 Y133.963 E62.63554
G1 X88.143 Y133.963 E62.65110
G1 X89.137 Y132.969 E62.68791
G1 X89.137 Y133.563 E62.70348
G1 X88.549 Y134.151 E62.72525
G1 X70.920 Y134.190 F7800.000
G1 F900
G1 X69.103 Y136.007 E62.78458
G1 X69.103 Y136.531 E62.79667
G1 X71.278 Y134.356 E62.86770
G1 X71.802 Y134.356 E62.87979
G1 X69.103 Y137.054 E62.96791
G1 X69.103 Y137.578 E62.98001
G1 X72.325 Y134.356 E63.08523
G1 X72.849 Y134.356 E63.09732
G1 X69.103 Y138.102 E63.21965
G1 X69.103 Y138.625 E63.23174
G1 X73.373 Y134.356 E63.37117
G1 X73.896 Y134.356 E63.38326
G1 X69.103 Y139.149 E63.53979
G1 X69.103 Y139.673 E63.55188
G1 X74.420 Y134.356 E63.72551
G1 X74.943 Y134.356 E63.73760
G1 X69.103 Y140.196 E63.92833
G1 X69.103 Y140.720 E63.94042
G1 X75.467 Y134.356 E64.14825
G1 X75.991 Y134.356 E64.16034
G1 X69.103 Y141.243 E64.38527
G1 X69.103 Y141.767 E64.39736
G1 X76.514 Y134.356 E64.63939
G1 X77.038 Y134.356 E64.65148
G1 X69.103 Y142.291 E64.91061
G1 X69.103 Y142.814 E64.92270
G1 X77.562 Y134.356 E65.19893
G1 X78.085 Y134.356 E65.21102
G1 X69.103 Y143.338 E65.50435
G1 X69.103 Y143.862 E65.51644
G1 X78.609 Y134.356 E65.82687
G1 X79.133 Y134.356 E65.83896
G1 X69.103 Y144.385 E66.16649
G1 X69.103 Y144.909 E66.17858
G1 X79.656 Y134.356 E66.52321
G1 X80.180 Y134.356 E66.53530
G1 X69.103 Y145.433 E66.89703
G1 X69.103 Y145.956 E66.90912
G1 X80.704 Y134.356 E67.28795
G1 X81.227 Y134.356 E67.30004
G1 X69.103 Y146.480 E67.69597
G1 X69.103 Y147.004 E67.70807
G1 X81.751 Y134.356 E68.12110
G1 X82.275 Y134.356 E68.13319
G1 X69.103 Y147.527 E68.56332
G1 X69.103 Y148.051 E68.57541
G1 X82.798 Y134.356 E69.02264
G1 X83.322 Y134.356 E69.03473
G1 X69.103 Y148.575 E69.49906
G1 X69.103 Y149.098 E69.51115
G1 X83.845 Y134.356 E69.99259
G1 X84.369 Y134.356 E70.00468
G1 X69.103 Y149.622 E70.50321
