; generated by PrusaSlicer 2.1.1+ on 2021-05-07 at 20:11:00 UTC

; 

; external perimeters extrusion width = 0.45mm
; perimeters extrusion width = 0.45mm
; infill extrusion width = 0.45mm
; solid infill extrusion width = 0.45mm
; top infill extrusion width = 0.40mm
; first layer extrusion width = 0.80mm

M107
M190 S60 ; set bed temperature and wait for it to be reached
M104 S200 ; set temperature
G28 ; home all axes
G1 Z5 F5000 ; lift nozzle
M109 S200 ; set temperature and wait for it to be reached
G21 ; set units to millimeters
G90 ; use absolute coordinates
M82 ; use absolute distances for extrusion
G92 E0
; Filament gcode
G1 Z0.400 F7800.000
G1 E-2.00000 F2400.00000
G92 E0
G1 X83.645 Y75.831 F7800.000
G1 E2.00000 F2400.00000
G1 F1800
G1 X85.029 Y74.625 E2.21806
G1 X85.702 Y74.143 E2.31638
G1 X87.286 Y73.194 E2.53568
G1 X89.107 Y72.428 E2.77033
G1 X91.397 Y71.843 E3.05102
G1 X93.473 Y71.651 E3.29861
G1 X106.228 Y71.643 E4.81345
G1 X108.444 Y71.817 E5.07752
G1 X110.634 Y72.337 E5.34476
G1 X112.712 Y73.193 E5.61166
G1 X114.565 Y74.318 E5.86912
G1 X116.320 Y75.796 E6.14172
G1 X117.751 Y77.447 E6.40115
G1 X118.956 Y79.370 E6.67068
G1 X119.714 Y81.120 E6.89716
G1 X119.967 Y81.876 E6.99179
G1 X120.379 Y83.619 E7.20458
G1 X120.578 Y85.983 E7.48627
G1 X120.573 Y100.286 E9.18498
G1 X120.373 Y102.417 E9.43918
G1 X119.721 Y104.863 E9.73981
G1 X118.972 Y106.600 E9.96451
G1 X117.832 Y108.444 E10.22197
G1 X116.424 Y110.102 E10.48036
G1 X114.937 Y111.403 E10.71498
G1 X92.354 Y126.989 E13.97381
G1 X91.515 Y127.474 E14.08892
G1 X90.560 Y127.879 E14.21205
G1 X89.515 Y128.171 E14.34100
G1 X88.728 Y128.300 E14.43563
G1 X85.287 Y128.338 E14.84434
G1 X84.322 Y128.188 E14.96038
G1 X83.385 Y127.890 E15.07715
G1 X82.586 Y127.498 E15.18285
G1 X81.849 Y126.998 E15.28855
G1 X81.194 Y126.405 E15.39352
G1 X80.624 Y125.722 E15.49922
G1 X80.158 Y124.971 E15.60419
G1 X79.798 Y124.157 E15.70989
G1 X79.555 Y123.300 E15.81559
G1 X79.434 Y122.419 E15.92130
G1 X79.422 Y85.869 E20.26210
G1 X79.620 Y83.630 E20.52902
G1 X80.023 Y81.906 E20.73940
G1 X80.279 Y81.138 E20.83550
G1 X80.982 Y79.493 E21.04796
G1 X81.929 Y77.907 E21.26740
G1 X83.606 Y75.877 E21.58007
G1 E19.58007 F2400.00000
G92 E0
G1 X106.932 Y106.110 F7800.000
G1 E2.00000 F2400.00000
G1 F1800
G1 X106.870 Y105.719 E2.04704
G1 X107.581 Y105.548 E2.13377
G1 X108.426 Y105.198 E2.24250
G1 X109.207 Y104.720 E2.35122
G1 X109.904 Y104.124 E2.46017
G1 X110.503 Y103.420 E2.56988
G1 X110.976 Y102.649 E2.67738
G1 X111.326 Y101.803 E2.78611
G1 X111.540 Y100.913 E2.89483
G1 X111.606 Y100.072 E2.99500
G1 X111.606 Y85.928 E4.67477
G1 X111.540 Y85.087 E4.77494
G1 X111.326 Y84.197 E4.88366
G1 X110.976 Y83.351 E4.99239
G1 X110.498 Y82.571 E5.10111
G1 X109.903 Y81.875 E5.20984
G1 X109.205 Y81.279 E5.31879
G1 X108.417 Y80.798 E5.42849
G1 X107.581 Y80.452 E5.53600
G1 X106.870 Y80.281 E5.62273
G1 X106.932 Y79.890 E5.66977
G1 X107.172 Y79.909 E5.69831
G1 X108.129 Y80.136 E5.81519
G1 X109.022 Y80.506 E5.92988
G1 X109.847 Y81.012 E6.04479
G1 X110.582 Y81.640 E6.15970
G1 X111.211 Y82.376 E6.27462
G1 X111.716 Y83.201 E6.38953
G1 X112.086 Y84.095 E6.50444
G1 X112.312 Y85.035 E6.61935
G1 X112.394 Y86.072 E6.74282
G1 X112.394 Y99.928 E8.38847
G1 X112.312 Y100.965 E8.51194
G1 X112.086 Y101.905 E8.62686
G1 X111.716 Y102.799 E8.74177
G1 X111.211 Y103.624 E8.85668
G1 X110.582 Y104.360 E8.97159
G1 X109.858 Y104.979 E9.08474
G1 X109.020 Y105.495 E9.20162
G1 X108.128 Y105.864 E9.31631
G1 X107.187 Y106.090 E9.43122
G1 X106.992 Y106.105 E9.45440
G1 E7.45440 F2400.00000
G92 E0
G1 X86.892 Y120.886 F7800.000
G1 E2.00000 F2400.00000
G1 F1800
G1 X86.892 Y86.044 E6.13802
G1 X86.980 Y84.923 E6.27150
G1 X87.232 Y83.873 E6.39977
G1 X87.646 Y82.875 E6.52803
G1 X88.210 Y81.955 E6.65629
G1 X88.901 Y81.145 E6.78270
G1 X89.733 Y80.431 E6.91293
G1 X90.653 Y79.868 E7.04106
G1 X91.651 Y79.454 E7.16932
G1 X92.701 Y79.202 E7.29758
G1 X93.822 Y79.114 E7.43106
G1 X106.178 Y79.114 E8.89863
G1 X107.283 Y79.201 E9.03026
G1 X108.350 Y79.455 E9.16048
G1 X109.347 Y79.868 E9.28861
G1 X110.268 Y80.432 E9.41687
G1 X111.089 Y81.133 E9.54514
G1 X111.790 Y81.955 E9.67340
G1 X112.354 Y82.875 E9.80166
G1 X112.768 Y83.873 E9.92993
G1 X113.020 Y84.923 E10.05819
G1 X113.108 Y86.044 E10.19167
G1 X113.108 Y99.956 E11.84398
G1 X113.020 Y101.077 E11.97746
G1 X112.768 Y102.127 E12.10572
G1 X112.354 Y103.125 E12.23399
G1 X111.790 Y104.045 E12.36225
G1 X111.089 Y104.867 E12.49051
G1 X110.279 Y105.558 E12.61693
G1 X109.346 Y106.133 E12.74715
G1 X108.349 Y106.546 E12.87528
G1 X107.299 Y106.798 E13.00354
G1 X106.178 Y106.886 E13.13702
G1 X101.824 Y106.886 E13.65419
G1 X101.633 Y106.870 E13.67699
G1 X101.358 Y106.776 E13.71147
G1 X101.129 Y106.597 E13.74595
G1 X100.970 Y106.354 E13.78044
G1 X100.923 Y106.217 E13.79774
G1 X100.899 Y105.927 E13.83222
G1 X100.970 Y105.646 E13.86671
G1 X101.129 Y105.403 E13.90119
G1 X101.358 Y105.224 E13.93567
G1 X101.633 Y105.130 E13.97016
G1 X101.824 Y105.114 E13.99295
G1 X105.822 Y105.114 E14.46774
G1 X106.578 Y105.055 E14.55790
G1 X107.359 Y104.867 E14.65327
G1 X108.101 Y104.560 E14.74864
G1 X108.786 Y104.140 E14.84402
G1 X109.397 Y103.618 E14.93953
G1 X109.923 Y103.000 E15.03588
G1 X110.338 Y102.323 E15.13013
G1 X110.645 Y101.581 E15.22550
G1 X110.832 Y100.801 E15.32087
G1 X110.892 Y100.044 E15.41103
G1 X110.892 Y85.956 E17.08414
G1 X110.832 Y85.199 E17.17430
G1 X110.645 Y84.419 E17.26968
G1 X110.338 Y83.677 E17.36505
G1 X109.918 Y82.992 E17.46042
G1 X109.396 Y82.381 E17.55580
G1 X108.785 Y81.859 E17.65131
G1 X108.092 Y81.437 E17.74766
G1 X107.359 Y81.133 E17.84191
G1 X106.578 Y80.945 E17.93728
G1 X105.822 Y80.886 E18.02744
G1 X93.734 Y80.886 E19.46302
G1 X92.977 Y80.945 E19.55318
G1 X92.196 Y81.133 E19.64855
G1 X91.454 Y81.440 E19.74393
G1 X90.769 Y81.860 E19.83944
G1 X90.153 Y82.389 E19.93579
G1 X89.638 Y82.992 E20.03003
G1 X89.217 Y83.678 E20.12555
G1 X88.908 Y84.428 E20.22190
G1 X88.723 Y85.199 E20.31614
G1 X88.664 Y85.956 E20.40630
G1 X88.664 Y119.956 E24.44432
G1 X88.649 Y120.138 E24.46598
G1 X88.564 Y120.401 E24.49877
G1 X88.402 Y120.624 E24.53155
G1 X88.178 Y120.786 E24.56434
G1 X87.916 Y120.872 E24.59713
G1 X86.952 Y120.886 E24.71162
G1 X86.178 Y121.600 F7800.000
G1 F1800
G1 X86.178 Y86.016 E28.93779
G1 X86.273 Y84.811 E29.08128
G1 X86.551 Y83.652 E29.22289
G1 X87.007 Y82.550 E29.36451
G1 X87.630 Y81.534 E29.50612
G1 X88.394 Y80.639 E29.64579
G1 X89.312 Y79.852 E29.78937
G1 X90.328 Y79.229 E29.93094
G1 X91.430 Y78.773 E30.07255
G1 X92.589 Y78.495 E30.21416
G1 X93.793 Y78.400 E30.35765
G1 X106.207 Y78.400 E31.83188
G1 X107.395 Y78.494 E31.97343
G1 X108.571 Y78.773 E32.11701
G1 X109.672 Y79.229 E32.25857
G1 X110.689 Y79.852 E32.40019
G1 X111.595 Y80.627 E32.54180
G1 X112.370 Y81.534 E32.68341
G1 X112.993 Y82.550 E32.82503
G1 X113.449 Y83.652 E32.96664
G1 X113.727 Y84.811 E33.10825
G1 X113.822 Y86.016 E33.25174
G1 X113.822 Y99.984 E34.91072
G1 X113.727 Y101.189 E35.05421
G1 X113.449 Y102.348 E35.19582
G1 X112.993 Y103.450 E35.33743
G1 X112.370 Y104.466 E35.47905
G1 X111.595 Y105.373 E35.62066
G1 X110.701 Y106.137 E35.76034
G1 X109.672 Y106.771 E35.90391
G1 X108.570 Y107.227 E36.04548
G1 X107.411 Y107.505 E36.18709
G1 X106.207 Y107.600 E36.33058
G1 X101.794 Y107.600 E36.85459
G1 X101.515 Y107.577 E36.88792
G1 X101.259 Y107.512 E36.91928
G1 X101.017 Y107.406 E36.95064
G1 X100.796 Y107.262 E36.98199
G1 X100.602 Y107.083 E37.01335
G1 X100.439 Y106.874 E37.04471
G1 X100.314 Y106.642 E37.07606
G1 X100.228 Y106.392 E37.10742
G1 X100.185 Y106.132 E37.13878
G1 X100.185 Y105.868 E37.17014
G1 X100.228 Y105.608 E37.20149
G1 X100.314 Y105.358 E37.23285
G1 X100.439 Y105.126 E37.26421
G1 X100.602 Y104.917 E37.29557
G1 X100.796 Y104.738 E37.32692
G1 X101.017 Y104.594 E37.35828
G1 X101.259 Y104.488 E37.38964
G1 X101.515 Y104.423 E37.42099
G1 X101.794 Y104.400 E37.45432
G1 X105.793 Y104.400 E37.92929
G1 X106.466 Y104.347 E38.00944
G1 X107.138 Y104.186 E38.09146
G1 X107.776 Y103.922 E38.17348
G1 X108.365 Y103.561 E38.25551
G1 X108.890 Y103.112 E38.33758
G1 X109.343 Y102.579 E38.42058
G1 X109.699 Y101.998 E38.50156
G1 X109.964 Y101.360 E38.58359
G1 X110.125 Y100.689 E38.66561
G1 X110.178 Y100.016 E38.74576
G1 X110.178 Y85.984 E40.41221
G1 X110.125 Y85.311 E40.49236
G1 X109.964 Y84.640 E40.57438
G1 X109.699 Y84.002 E40.65640
G1 X109.338 Y83.413 E40.73843
G1 X108.890 Y82.888 E40.82045
G1 X108.364 Y82.439 E40.90252
G1 X107.768 Y82.075 E40.98553
G1 X107.138 Y81.814 E41.06651
G1 X106.466 Y81.653 E41.14853
G1 X105.793 Y81.600 E41.22868
G1 X93.762 Y81.600 E42.65760
G1 X93.089 Y81.653 E42.73775
G1 X92.418 Y81.814 E42.81977
G1 X91.780 Y82.078 E42.90180
G1 X91.190 Y82.440 E42.98387
G1 X90.660 Y82.895 E43.06687
G1 X90.217 Y83.413 E43.14785
G1 X89.856 Y84.002 E43.22993
G1 X89.590 Y84.648 E43.31293
G1 X89.431 Y85.311 E43.39391
G1 X89.378 Y85.984 E43.47406
G1 X89.378 Y119.984 E47.51208
G1 X89.357 Y120.250 E47.54375
G1 X89.298 Y120.494 E47.57354
G1 X89.202 Y120.726 E47.60334
G1 X89.071 Y120.940 E47.63313
G1 X88.908 Y121.130 E47.66293
G1 X88.718 Y121.293 E47.69272
G1 X88.504 Y121.425 E47.72252
G1 X88.272 Y121.521 E47.75231
G1 X88.028 Y121.579 E47.78211
G1 X87.762 Y121.600 E47.81378
G1 X86.238 Y121.600 E47.99481
G1 X86.376 Y121.253 F7800.000
G1 E45.99481 F2400.00000
G92 E0
G1 X87.778 Y120.000 F7800.000
G1 E2.00000 F2400.00000
G1 F1800
G1 X87.775 Y119.997 E2.00073
G1 X87.778 Y119.921 E2.01404
G1 X87.778 Y86.079 E7.96588
G1 X87.783 Y85.942 E7.98988
G1 X87.786 Y85.901 E7.99703
G1 X87.848 Y85.102 E8.13630
G1 X87.852 Y85.062 E8.14345
G1 X87.861 Y85.021 E8.15060
G1 X88.060 Y84.196 E8.29824
G1 X88.073 Y84.146 E8.30711
G1 X88.084 Y84.118 E8.31237
G1 X88.415 Y83.316 E8.46338
G1 X88.432 Y83.276 E8.47098
G1 X88.452 Y83.242 E8.47787
G1 X88.902 Y82.508 E8.62749
G1 X88.924 Y82.474 E8.63464
G1 X88.950 Y82.442 E8.64179
G1 X89.502 Y81.796 E8.78942
G1 X89.526 Y81.769 E8.79574
G1 X89.559 Y81.739 E8.80352
G1 X90.218 Y81.174 E8.95422
G1 X90.253 Y81.145 E8.96217
G1 X90.285 Y81.125 E8.96870
G1 X91.019 Y80.675 E9.11831
G1 X91.054 Y80.655 E9.12546
G1 X91.092 Y80.638 E9.13261
G1 X91.886 Y80.309 E9.28197
G1 X91.924 Y80.294 E9.28911
G1 X91.964 Y80.284 E9.29627
G1 X92.799 Y80.083 E9.44562
G1 X92.839 Y80.075 E9.45277
G1 X92.880 Y80.071 E9.45992
G1 X93.679 Y80.008 E9.59919
G1 X93.720 Y80.005 E9.60634
G1 X93.856 Y80.000 E9.63035
G1 X105.836 Y80.000 E11.73710
G1 X105.877 Y80.001 E11.74442
G1 X106.549 Y80.027 E11.86405
G1 E9.86405 F2400.00000
G92 E0
G1 X106.549 Y105.973 F7800.000
G1 E2.00000 F2400.00000
G1 F1800
G1 X105.877 Y105.999 E2.11963
G1 X105.836 Y106.000 E2.12695
G1 X101.861 Y106.000 E2.82604
G1 X101.860 Y106.000 F7800.000
G1 F1800
G1 X101.778 Y106.000 E2.84058
G1 Z0.550 F7800.000
M140 S55 ; set bed temperature
G1 E0.84058 F2400.00000
G92 E0
G1 X86.838 Y120.939 F7800.000
G1 E2.00000 F2400.00000
G1 F3600
G1 X86.838 Y86.042 E2.90929
G1 X86.927 Y84.915 E2.93873
G1 X87.181 Y83.857 E2.96709
G1 X87.598 Y82.851 E2.99545
G1 X88.166 Y81.923 E3.02381
G1 X88.873 Y81.095 E3.05217
G1 X89.701 Y80.389 E3.08053
G1 X90.629 Y79.820 E3.10889
G1 X91.634 Y79.403 E3.13725
G1 X92.693 Y79.149 E3.16561
G1 X93.819 Y79.061 E3.19506
G1 X106.181 Y79.061 E3.51713
G1 X107.270 Y79.146 E3.54561
G1 X108.368 Y79.404 E3.57500
G1 X109.371 Y79.820 E3.60329
G1 X110.299 Y80.389 E3.63165
G1 X111.127 Y81.095 E3.66001
G1 X111.834 Y81.923 E3.68837
G1 X112.402 Y82.851 E3.71672
G1 X112.819 Y83.857 E3.74508
G1 X113.073 Y84.915 E3.77344
G1 X113.162 Y86.042 E3.80289
G1 X113.162 Y99.958 E4.16550
G1 X113.073 Y101.085 E4.19495
G1 X112.819 Y102.143 E4.22331
G1 X112.402 Y103.149 E4.25167
G1 X111.834 Y104.077 E4.28003
G1 X111.127 Y104.905 E4.30838
G1 X110.327 Y105.587 E4.33577
G1 X109.369 Y106.181 E4.36516
G1 X108.366 Y106.597 E4.39345
G1 X107.307 Y106.851 E4.42181
G1 X106.181 Y106.939 E4.45126
G1 X101.822 Y106.939 E4.56483
G1 X101.624 Y106.923 E4.57001
G1 X101.340 Y106.826 E4.57783
G1 X101.201 Y106.737 E4.58213
G1 X101.089 Y106.634 E4.58608
G1 X100.994 Y106.512 E4.59011
G1 X100.873 Y106.237 E4.59793
G1 X100.845 Y106.075 E4.60223
G1 X100.845 Y105.923 E4.60619
G1 X100.871 Y105.770 E4.61021
G1 X100.921 Y105.624 E4.61424
G1 X101.085 Y105.372 E4.62206
G1 X101.205 Y105.260 E4.62636
G1 X101.332 Y105.177 E4.63032
G1 X101.474 Y105.115 E4.63434
G1 X101.624 Y105.077 E4.63837
G1 X101.822 Y105.061 E4.64354
G1 X105.819 Y105.061 E4.74771
G1 X106.570 Y105.002 E4.76733
G1 X107.343 Y104.816 E4.78803
G1 X108.077 Y104.512 E4.80873
G1 X108.754 Y104.097 E4.82944
G1 X109.358 Y103.581 E4.85014
G1 X109.875 Y102.976 E4.87085
G1 X110.290 Y102.299 E4.89155
G1 X110.594 Y101.565 E4.91226
G1 X110.779 Y100.792 E4.93296
G1 X110.838 Y100.042 E4.95258
G1 X110.838 Y85.958 E5.31953
G1 X110.779 Y85.208 E5.33914
G1 X110.594 Y84.435 E5.35985
G1 X110.290 Y83.701 E5.38055
G1 X109.875 Y83.024 E5.40126
G1 X109.358 Y82.419 E5.42196
G1 X108.754 Y81.903 E5.44266
G1 X108.077 Y81.488 E5.46337
G1 X107.343 Y81.184 E5.48407
G1 X106.570 Y80.998 E5.50478
G1 X105.819 Y80.939 E5.52439
G1 X93.736 Y80.939 E5.83923
G1 X92.986 Y80.998 E5.85885
G1 X92.213 Y81.184 E5.87955
G1 X91.479 Y81.488 E5.90026
G1 X90.801 Y81.903 E5.92096
G1 X90.197 Y82.419 E5.94167
G1 X89.681 Y83.024 E5.96237
G1 X89.266 Y83.701 E5.98308
G1 X88.962 Y84.435 E6.00378
G1 X88.776 Y85.208 E6.02448
G1 X88.717 Y85.958 E6.04410
G1 X88.717 Y119.958 E6.93000
G1 X88.702 Y120.146 E6.93491
G1 X88.612 Y120.425 E6.94254
G1 X88.440 Y120.662 E6.95017
G1 X88.200 Y120.835 E6.95787
G1 X87.924 Y120.925 E6.96543
G1 X86.898 Y120.939 E6.99217
G1 X86.421 Y121.357 F7800.000
G1 F3600
G1 X86.421 Y86.025 E7.91277
G1 X86.513 Y84.849 E7.94350
G1 X86.783 Y83.727 E7.97357
G1 X87.224 Y82.661 E8.00364
G1 X87.827 Y81.677 E8.03372
G1 X88.577 Y80.799 E8.06379
G1 X89.454 Y80.050 E8.09386
G1 X90.439 Y79.446 E8.12394
G1 X91.505 Y79.005 E8.15401
G1 X92.627 Y78.735 E8.18408
G1 X93.803 Y78.643 E8.21481
G1 X106.197 Y78.643 E8.53775
G1 X107.335 Y78.732 E8.56748
G1 X108.497 Y79.005 E8.59858
G1 X109.561 Y79.446 E8.62861
G1 X110.546 Y80.050 E8.65868
G1 X111.423 Y80.799 E8.68876
G1 X112.173 Y81.677 E8.71883
G1 X112.776 Y82.661 E8.74890
G1 X113.217 Y83.727 E8.77898
G1 X113.487 Y84.849 E8.80905
G1 X113.579 Y86.025 E8.83978
G1 X113.579 Y99.975 E9.20325
G1 X113.487 Y101.151 E9.23398
G1 X113.217 Y102.273 E9.26405
G1 X112.776 Y103.339 E9.29412
G1 X112.173 Y104.323 E9.32420
G1 X111.423 Y105.201 E9.35427
G1 X110.575 Y105.926 E9.38335
G1 X109.560 Y106.554 E9.41444
G1 X108.495 Y106.995 E9.44447
G1 X107.373 Y107.265 E9.47455
G1 X106.197 Y107.357 E9.50528
G1 X101.804 Y107.357 E9.61973
G1 X101.555 Y107.337 E9.62626
G1 X101.338 Y107.282 E9.63209
G1 X101.141 Y107.195 E9.63769
G1 X100.944 Y107.068 E9.64379
G1 X100.781 Y106.918 E9.64958
G1 X100.643 Y106.741 E9.65541
G1 X100.537 Y106.544 E9.66124
G1 X100.467 Y106.341 E9.66684
G1 X100.427 Y106.110 E9.67294
G1 X100.427 Y105.888 E9.67873
G1 X100.464 Y105.667 E9.68456
G1 X100.537 Y105.456 E9.69039
G1 X100.643 Y105.259 E9.69622
G1 X100.775 Y105.089 E9.70182
G1 X100.947 Y104.930 E9.70792
G1 X101.133 Y104.808 E9.71371
G1 X101.338 Y104.718 E9.71954
G1 X101.555 Y104.663 E9.72537
G1 X101.804 Y104.643 E9.73190
G1 X105.803 Y104.643 E9.83609
G1 X106.504 Y104.588 E9.85442
G1 X107.213 Y104.417 E9.87341
G1 X107.886 Y104.139 E9.89240
G1 X108.508 Y103.758 E9.91139
G1 X109.062 Y103.284 E9.93038
G1 X109.535 Y102.730 E9.94937
G1 X109.916 Y102.109 E9.96836
G1 X110.195 Y101.435 E9.98736
G1 X110.365 Y100.727 E10.00635
G1 X110.421 Y100.025 E10.02468
G1 X110.421 Y85.975 E10.39077
G1 X110.365 Y85.273 E10.40910
G1 X110.195 Y84.565 E10.42810
G1 X109.916 Y83.891 E10.44709
G1 X109.535 Y83.270 E10.46608
G1 X109.062 Y82.716 E10.48507
G1 X108.508 Y82.242 E10.50406
G1 X107.886 Y81.861 E10.52305
G1 X107.213 Y81.583 E10.54204
G1 X106.504 Y81.412 E10.56103
G1 X105.803 Y81.357 E10.57936
G1 X93.753 Y81.357 E10.89335
G1 X93.051 Y81.412 E10.91168
G1 X92.342 Y81.583 E10.93067
G1 X91.669 Y81.861 E10.94966
G1 X91.048 Y82.242 E10.96865
G1 X90.493 Y82.716 E10.98764
G1 X90.020 Y83.270 E11.00663
G1 X89.639 Y83.891 E11.02562
G1 X89.360 Y84.565 E11.04461
G1 X89.190 Y85.273 E11.06360
G1 X89.135 Y85.975 E11.08193
G1 X89.135 Y119.975 E11.96783
G1 X89.116 Y120.212 E11.97403
