; generated by PrusaSlicer 2.1.1+ on 2021-05-07 at 21:15:54 UTC

; 

; external perimeters extrusion width = 0.45mm
; perimeters extrusion width = 0.45mm
; infill extrusion width = 0.45mm
; solid infill extrusion width = 0.45mm
; top infill extrusion width = 0.40mm
; first layer extrusion width = 0.80mm

M107
M190 S60 ; set bed temperature and wait for it to be reached
M104 S200 ; set temperature
G28 ; home all axes
G1 Z5 F5000 ; lift nozzle
M109 S200 ; set temperature and wait for it to be reached
G21 ; set units to millimeters
G90 ; use absolute coordinates
M82 ; use absolute distances for extrusion
G92 E0
; Filament gcode
G1 Z0.400 F7800.000
G1 E-2.00000 F2400.00000
G92 E0
G1 X70.825 Y64.206 F7800.000
G1 E2.00000 F2400.00000
G1 F1800
G1 X71.991 Y63.400 E2.16832
G1 X73.307 Y62.872 E2.33664
G1 X74.700 Y62.650 E2.50423
G1 X125.007 Y62.643 E8.47891
G1 X126.196 Y62.756 E8.62074
G1 X127.336 Y63.088 E8.76184
G1 X128.396 Y63.625 E8.90293
G1 X129.336 Y64.351 E9.04402
G1 X130.129 Y65.244 E9.18585
G1 X130.739 Y66.264 E9.32695
G1 X131.148 Y67.379 E9.46804
G1 X131.342 Y68.551 E9.60913
G1 X131.356 Y131.119 E17.04004
G1 X131.264 Y132.086 E17.15533
G1 X131.024 Y133.033 E17.27137
G1 X130.642 Y133.932 E17.38740
G1 X130.130 Y134.757 E17.50269
G1 X129.142 Y135.824 E17.67542
G1 X127.943 Y136.636 E17.84742
G1 X126.591 Y137.156 E18.01942
G1 X125.151 Y137.356 E18.19215
G1 X74.856 Y137.356 E24.16536
G1 X73.896 Y137.262 E24.27992
G1 X72.956 Y137.021 E24.39521
G1 X72.069 Y136.642 E24.50977
G1 X71.244 Y136.130 E24.62507
G1 X70.176 Y135.142 E24.79780
G1 X69.359 Y133.932 E24.97126
G1 X68.840 Y132.573 E25.14400
G1 X68.644 Y131.126 E25.31746
G1 X68.644 Y68.882 E32.70994
G1 X68.736 Y67.915 E32.82524
G1 X68.976 Y66.968 E32.94127
G1 X69.358 Y66.069 E33.05730
G1 X69.870 Y65.244 E33.17260
G1 X70.785 Y64.250 E33.33306
G1 E31.33306 F2400.00000
G92 E0
G1 X81.651 Y126.752 F7800.000
G1 E2.00000 F2400.00000
G1 F1800
G1 X81.330 Y127.955 E2.14789
G1 X80.449 Y128.834 E2.29566
G1 X79.248 Y129.157 E2.44339
G1 X78.045 Y128.834 E2.59133
G1 X77.166 Y127.955 E2.73895
G1 X76.843 Y126.752 E2.88689
G1 X77.166 Y125.551 E3.03462
G1 X78.045 Y124.670 E3.18239
G1 X79.248 Y124.349 E3.33028
G1 X80.449 Y124.670 E3.47795
G1 X81.330 Y125.551 E3.62588
G1 X81.635 Y126.694 E3.76642
G1 X80.912 Y126.752 F7800.000
G1 F1800
G1 X80.689 Y127.585 E3.86884
G1 X80.079 Y128.194 E3.97115
G1 X79.248 Y128.417 E4.07345
G1 X78.414 Y128.194 E4.17591
G1 X77.806 Y127.585 E4.27810
G1 X77.582 Y126.752 E4.38056
G1 X77.806 Y125.920 E4.48286
G1 X78.414 Y125.310 E4.58517
G1 X79.248 Y125.088 E4.68758
G1 X80.079 Y125.310 E4.78985
G1 X80.689 Y125.920 E4.89227
G1 X80.896 Y126.694 E4.98740
G1 X81.258 Y126.952 F7800.000
G1 E2.98740 F2400.00000
G92 E0
G1 X118.348 Y126.252 F7800.000
G1 E2.00000 F2400.00000
G1 F1800
G1 X118.669 Y125.051 E2.14767
G1 X119.550 Y124.170 E2.29560
G1 X120.751 Y123.849 E2.44327
G1 X121.954 Y124.170 E2.59116
G1 X122.833 Y125.051 E2.73893
G1 X123.156 Y126.252 E2.88666
G1 X122.833 Y127.455 E3.03460
G1 X121.954 Y128.334 E3.18222
G1 X120.751 Y128.657 E3.33016
G1 X119.550 Y128.334 E3.47789
G1 X118.669 Y127.455 E3.62566
G1 X118.364 Y126.310 E3.76642
G1 X119.087 Y126.252 F7800.000
G1 F1800
G1 X119.310 Y125.420 E3.86869
G1 X119.920 Y124.810 E3.97110
G1 X120.751 Y124.588 E4.07337
G1 X121.585 Y124.810 E4.17578
G1 X122.193 Y125.420 E4.27809
G1 X122.417 Y126.252 E4.38039
G1 X122.193 Y127.085 E4.48285
G1 X121.585 Y127.694 E4.58505
G1 X120.751 Y127.917 E4.68750
G1 X119.920 Y127.694 E4.78981
G1 X119.310 Y127.085 E4.89212
G1 X119.103 Y126.310 E4.98740
G1 X118.741 Y126.052 F7800.000
G1 E2.98740 F2400.00000
G92 E0
G1 X122.125 Y129.173 F7800.000
G1 E2.00000 F2400.00000
G1 F1800
G1 X123.172 Y128.126 E2.17581
G1 X123.172 Y129.173 E2.30012
G1 X122.185 Y129.173 E2.41731
G1 E0.41731 F2400.00000
G92 E0
G1 X119.380 Y129.173 F7800.000
G1 E2.00000 F2400.00000
G1 F1800
G1 X81.120 Y129.173 E6.54388
G1 X81.970 Y128.325 E6.68647
G1 X82.390 Y126.752 E6.87982
G1 X81.970 Y125.181 E7.07289
G1 X80.818 Y124.029 E7.26635
G1 X79.248 Y123.610 E7.45942
G1 X77.675 Y124.029 E7.65278
G1 X76.828 Y124.878 E7.79519
G1 X76.828 Y75.622 E13.64513
G1 X77.675 Y76.471 E13.78754
G1 X79.248 Y76.890 E13.98090
G1 X80.818 Y76.471 E14.17397
G1 X81.970 Y75.319 E14.36743
G1 X82.390 Y73.748 E14.56050
G1 X81.970 Y72.175 E14.75385
G1 X80.620 Y70.828 E14.98034
G1 X118.878 Y70.828 E19.52399
G1 X118.029 Y71.675 E19.66641
G1 X117.609 Y73.248 E19.85976
G1 X118.029 Y74.819 E20.05283
G1 X119.181 Y75.971 E20.24629
G1 X120.751 Y76.390 E20.43936
G1 X122.324 Y75.971 E20.63272
G1 X123.172 Y75.121 E20.77530
G1 X123.172 Y124.379 E26.62547
G1 X122.324 Y123.529 E26.76806
G1 X120.751 Y123.110 E26.96141
G1 X119.181 Y123.529 E27.15449
G1 X118.029 Y124.681 E27.34794
G1 X117.609 Y126.252 E27.54101
G1 X118.029 Y127.825 E27.73437
G1 X119.337 Y129.130 E27.95390
G1 E25.95390 F2400.00000
G92 E0
G1 X120.751 Y75.651 F7800.000
G1 E2.00000 F2400.00000
G1 F1800
G1 X119.550 Y75.330 E2.14767
G1 X118.669 Y74.449 E2.29560
G1 X118.348 Y73.248 E2.44327
G1 X118.669 Y72.045 E2.59116
G1 X119.550 Y71.166 E2.73893
G1 X120.751 Y70.843 E2.88666
G1 X121.954 Y71.166 E3.03460
G1 X122.833 Y72.045 E3.18222
G1 X123.156 Y73.248 E3.33016
G1 X122.833 Y74.449 E3.47789
G1 X121.954 Y75.330 E3.62566
G1 X120.809 Y75.636 E3.76642
G1 X120.751 Y74.912 F7800.000
G1 F1800
G1 X119.920 Y74.690 E3.86869
G1 X119.310 Y74.080 E3.97111
G1 X119.087 Y73.248 E4.07337
G1 X119.310 Y72.415 E4.17578
G1 X119.920 Y71.806 E4.27809
G1 X120.751 Y71.583 E4.38039
G1 X121.585 Y71.806 E4.48285
G1 X122.193 Y72.415 E4.58505
G1 X122.417 Y73.248 E4.68750
G1 X122.193 Y74.080 E4.78981
G1 X121.585 Y74.690 E4.89211
G1 X120.809 Y74.897 E4.98740
G1 X120.552 Y75.259 F7800.000
G1 E2.98740 F2400.00000
G92 E0
G1 X81.651 Y73.748 F7800.000
G1 E2.00000 F2400.00000
G1 F1800
G1 X81.330 Y74.949 E2.14767
G1 X80.449 Y75.830 E2.29560
G1 X79.248 Y76.151 E2.44327
G1 X78.045 Y75.830 E2.59116
G1 X77.166 Y74.949 E2.73893
G1 X76.843 Y73.748 E2.88666
G1 X77.166 Y72.545 E3.03460
G1 X78.045 Y71.666 E3.18222
G1 X79.248 Y71.343 E3.33016
G1 X80.449 Y71.666 E3.47789
G1 X81.330 Y72.545 E3.62566
G1 X81.635 Y73.690 E3.76642
G1 X80.912 Y73.748 F7800.000
G1 F1800
G1 X80.689 Y74.580 E3.86869
G1 X80.079 Y75.190 E3.97110
G1 X79.248 Y75.412 E4.07337
G1 X78.414 Y75.190 E4.17578
G1 X77.806 Y74.580 E4.27809
G1 X77.582 Y73.748 E4.38039
G1 X77.806 Y72.915 E4.48285
G1 X78.414 Y72.306 E4.58505
G1 X79.248 Y72.083 E4.68750
G1 X80.079 Y72.306 E4.78981
G1 X80.689 Y72.915 E4.89211
G1 X80.896 Y73.690 E4.98740
G1 X81.258 Y73.948 F7800.000
G1 E2.98740 F2400.00000
G92 E0
G1 X77.873 Y70.828 F7800.000
G1 E2.00000 F2400.00000
G1 F1800
G1 X76.828 Y71.873 E2.17547
G1 X76.828 Y70.828 E2.29955
G1 X77.813 Y70.828 E2.41650
G1 X76.114 Y70.114 F7800.000
G1 F1800
G1 X123.886 Y70.114 E8.09023
G1 X123.886 Y129.887 E15.18915
G1 X76.114 Y129.887 E20.86288
G1 X76.114 Y70.174 E27.95467
G1 X75.400 Y69.400 F7800.000
G1 F1800
G1 X124.601 Y69.400 E33.79803
G1 X124.601 Y130.601 E41.06658
G1 X75.400 Y130.601 E46.90994
G1 X75.400 Y69.460 E54.17137
G1 X75.782 Y69.517 F7800.000
G1 E52.17137 F2400.00000
G92 E0
G1 X78.372 Y70.833 F7800.000
G1 E2.00000 F2400.00000
G1 F1800
G1 X79.182 Y70.727 E2.06938
G1 X79.314 Y70.727 E2.08065
G1 X79.717 Y70.780 E2.11803
G1 X80.120 Y70.833 E2.15826
G1 E0.15826 F2400.00000
G92 E0
G1 X76.626 Y72.580 F7800.000
G1 E2.00000 F2400.00000
G1 F1800
G1 X76.598 Y72.795 E2.00923
G1 X76.569 Y73.010 E2.01701
G1 X76.541 Y73.226 E2.02336
G1 X76.512 Y73.441 E2.02826
G1 X76.512 Y74.055 F7800.000
G1 F1800
G1 X76.541 Y74.270 E2.03315
G1 X76.569 Y74.485 E2.03947
G1 X76.597 Y74.699 E2.04723
G1 X76.626 Y74.914 E2.05642
G1 E0.05642 F2400.00000
G92 E0
G1 X117.761 Y71.850 F7800.000
G1 E2.00000 F2400.00000
G1 F1800
G1 X117.275 Y71.364 E2.08244
G1 X116.254 Y71.364 E2.20484
G1 X117.283 Y72.393 E2.37939
G1 X117.068 Y73.198 E2.47939
G1 X115.234 Y71.364 E2.79058
G1 X114.214 Y71.364 E2.91298
G1 X122.637 Y79.787 E4.34205
G1 X122.637 Y80.807 E4.46445
G1 X113.194 Y71.364 E6.06661
G1 X112.173 Y71.364 E6.18902
G1 X122.637 Y81.827 E7.96429
G1 X122.637 Y82.847 E8.08669
G1 X111.153 Y71.364 E10.03506
G1 X110.133 Y71.364 E10.15747
G1 X122.637 Y83.868 E12.27894
G1 X122.637 Y84.888 E12.40135
G1 X109.113 Y71.364 E14.69593
G1 X108.092 Y71.364 E14.81833
G1 X122.637 Y85.908 E17.28601
G1 X122.637 Y86.928 E17.40842
G1 X107.072 Y71.364 E20.04921
G1 X106.052 Y71.364 E20.17161
G1 X122.637 Y87.949 E22.98550
G1 X122.637 Y88.969 E23.10790
G1 X105.032 Y71.364 E26.09490
G1 X104.011 Y71.364 E26.21730
G1 X122.637 Y89.989 E29.37740
G1 X122.637 Y91.009 E29.49981
G1 X102.991 Y71.364 E32.83301
G1 X101.971 Y71.364 E32.95541
G1 X122.637 Y92.030 E36.46172
G1 X122.637 Y93.050 E36.58412
G1 X100.951 Y71.364 E40.26353
G1 X99.930 Y71.364 E40.38594
G1 X122.637 Y94.070 E44.23845
G1 X122.637 Y95.090 E44.36086
G1 X98.910 Y71.364 E48.38647
G1 X97.890 Y71.364 E48.50888
G1 X122.637 Y96.111 E52.70760
G1 X122.637 Y97.131 E52.83000
G1 X96.870 Y71.364 E57.20183
G1 X95.849 Y71.364 E57.32423
G1 X122.637 Y98.151 E61.86916
G1 X122.637 Y99.171 E61.99157
G1 X94.829 Y71.364 E66.70960
G1 X93.809 Y71.364 E66.83200
G1 X122.637 Y100.192 E71.72314
G1 X122.637 Y101.212 E71.84554
G1 X92.789 Y71.364 E76.90979
G1 X91.768 Y71.364 E77.03219
G1 X122.637 Y102.232 E82.26954
G1 X122.637 Y103.252 E82.39194
G1 X90.748 Y71.364 E87.80239
G1 X89.728 Y71.364 E87.92479
G1 X122.637 Y104.273 E93.50834
G1 X122.637 Y105.293 E93.63075
G1 X88.708 Y71.364 E99.38740
G1 X87.687 Y71.364 E99.50981
G1 X122.637 Y106.313 E105.43957
G1 X122.637 Y107.333 E105.56197
G1 X86.667 Y71.364 E111.66484
G1 X85.647 Y71.364 E111.78724
G1 X122.637 Y108.354 E118.06321
G1 X122.637 Y109.374 E118.18561
G1 X84.627 Y71.364 E124.63468
G1 X83.606 Y71.364 E124.75709
G1 X122.637 Y110.394 E131.37926
G1 X122.637 Y111.414 E131.50167
G1 X82.586 Y71.364 E138.29695
G1 X81.915 Y71.364 E138.37743
G1 X82.451 Y71.898 E138.46814
G1 X82.578 Y72.376 E138.52751
G1 X122.637 Y112.435 E145.32415
G1 X122.637 Y113.455 E145.44656
G1 X82.941 Y73.760 E152.18158
G1 X82.726 Y74.565 E152.28157
G1 X122.637 Y114.475 E159.05310
G1 X122.637 Y115.495 E159.17550
G1 X82.511 Y75.370 E165.98353
G1 X82.451 Y75.596 E166.01162
G1 X82.084 Y75.963 E166.07386
G1 X122.637 Y116.516 E172.95437
G1 X122.637 Y117.536 E173.07678
G1 X81.574 Y76.473 E180.04385
G1 X81.096 Y76.951 E180.12497
G1 X81.045 Y76.965 E180.13124
G1 X122.637 Y118.556 E187.18800
G1 X122.637 Y119.576 E187.31040
G1 X80.240 Y77.180 E194.50377
G1 X79.435 Y77.395 E194.60375
G1 X122.637 Y120.597 E201.93372
G1 X122.637 Y121.617 E202.05612
G1 X78.179 Y77.160 E209.59910
G1 X77.397 Y76.951 E209.69618
G1 X77.363 Y76.917 E209.70197
G1 X77.363 Y77.364 E209.75560
G1 X122.637 Y122.637 E217.43701
G1 X122.637 Y123.084 E217.49064
G1 X122.602 Y123.049 E217.49660
G1 X121.820 Y122.840 E217.59369
G1 X77.363 Y78.384 E225.13648
G1 X77.363 Y79.404 E225.25889
G1 X120.564 Y122.605 E232.58868
G1 X119.759 Y122.820 E232.68866
G1 X77.363 Y80.425 E239.88185
G1 X77.363 Y81.445 E240.00425
G1 X118.954 Y123.035 E247.06083
G1 X118.903 Y123.049 E247.06710
G1 X118.425 Y123.527 E247.14823
G1 X77.363 Y82.465 E254.11512
G1 X77.363 Y83.485 E254.23753
G1 X117.915 Y124.037 E261.11787
G1 X117.548 Y124.404 E261.18010
G1 X117.488 Y124.630 E261.20820
G1 X77.363 Y84.506 E268.01606
G1 X77.363 Y85.526 E268.13846
G1 X117.273 Y125.435 E274.90982
G1 X117.058 Y126.240 E275.00980
G1 X77.363 Y86.546 E281.74466
G1 X77.363 Y87.566 E281.86706
G1 X117.421 Y127.624 E288.66354
G1 X117.548 Y128.102 E288.72290
G1 X118.085 Y128.637 E288.81378
G1 X117.414 Y128.637 E288.89427
G1 X77.363 Y88.587 E295.68954
G1 X77.363 Y89.607 E295.81194
G1 X116.394 Y128.637 E302.43411
G1 X115.373 Y128.637 E302.55651
G1 X77.363 Y90.627 E309.00558
G1 X77.363 Y91.647 E309.12798
G1 X114.353 Y128.637 E315.40394
G1 X113.333 Y128.637 E315.52634
G1 X77.363 Y92.668 E321.62920
G1 X77.363 Y93.688 E321.75160
G1 X112.313 Y128.637 E327.68135
G1 X111.292 Y128.637 E327.80376
G1 X77.363 Y94.708 E333.56041
G1 X77.363 Y95.728 E333.68281
G1 X110.272 Y128.637 E339.26635
G1 X109.252 Y128.637 E339.38876
G1 X77.363 Y96.749 E344.79920
G1 X77.363 Y97.769 E344.92160
G1 X108.232 Y128.637 E350.15894
G1 X107.211 Y128.637 E350.28134
G1 X77.363 Y98.789 E355.34558
G1 X77.363 Y99.809 E355.46798
G1 X106.191 Y128.637 E360.35911
G1 X105.171 Y128.637 E360.48151
G1 X77.363 Y100.830 E365.19954
G1 X77.363 Y101.850 E365.32194
G1 X104.151 Y128.637 E369.86686
G1 X103.130 Y128.637 E369.98927
G1 X77.363 Y102.870 E374.36109
G1 X77.363 Y103.890 E374.48349
G1 X102.110 Y128.637 E378.68221
G1 X101.090 Y128.637 E378.80461
G1 X77.363 Y104.911 E382.83022
G1 X77.363 Y105.931 E382.95262
G1 X100.070 Y128.637 E386.80513
G1 X99.049 Y128.637 E386.92753
G1 X77.363 Y106.951 E390.60694
G1 X77.363 Y107.971 E390.72934
G1 X98.029 Y128.637 E394.23564
G1 X97.009 Y128.637 E394.35804
G1 X77.363 Y108.992 E397.69124
G1 X77.363 Y110.012 E397.81364
G1 X95.989 Y128.637 E400.97374
G1 X94.968 Y128.637 E401.09614
G1 X77.363 Y111.032 E404.08313
G1 X77.363 Y112.052 E404.20553
G1 X93.948 Y128.637 E407.01942
G1 X92.928 Y128.637 E407.14182
G1 X77.363 Y113.073 E409.78260
G1 X77.363 Y114.093 E409.90501
G1 X91.908 Y128.637 E412.37269
G1 X90.887 Y128.637 E412.49509
G1 X77.363 Y115.113 E414.78966
G1 X77.363 Y116.133 E414.91207
G1 X89.867 Y128.637 E417.03354
G1 X88.847 Y128.637 E417.15594
G1 X77.363 Y117.154 E419.10431
G1 X77.363 Y118.174 E419.22671
G1 X87.827 Y128.637 E421.00197
G1 X86.806 Y128.637 E421.12438
G1 X77.363 Y119.194 E422.72654
G1 X77.363 Y120.214 E422.84894
G1 X85.786 Y128.637 E424.27800
G1 X84.766 Y128.637 E424.40040
G1 X82.931 Y126.802 E424.71176
G1 X82.716 Y127.607 E424.81176
G1 X83.746 Y128.637 E424.98647
G1 X82.725 Y128.637 E425.10887
G1 X82.238 Y128.150 E425.19148
G1 E423.19148 F2400.00000
G92 E0
G1 X80.413 Y129.374 F7800.000
G1 E2.00000 F2400.00000
G1 F1800
G1 X80.197 Y129.403 E2.00925
G1 X79.982 Y129.431 E2.01705
G1 X79.767 Y129.460 E2.02341
G1 X79.551 Y129.488 E2.02832
G1 X78.944 Y129.488 F7800.000
G1 F1800
G1 X78.377 Y129.413 E2.04199
G1 X77.810 Y129.339 E2.06928
G1 X77.140 Y129.156 E2.10240
G1 X76.471 Y128.973 E2.15325
G1 X76.844 Y128.859 F7800.000
G1 F1800
G1 X76.661 Y128.189 E2.20066
G1 X76.637 Y128.001 E2.21271
G1 X76.612 Y127.813 E2.22326
G1 X76.587 Y127.624 E2.23230
G1 X76.562 Y127.436 E2.23984
G1 X76.537 Y127.248 E2.24588
G1 X76.512 Y127.059 E2.25041
G1 X76.512 Y126.445 F7800.000
G1 F1800
G1 X76.541 Y126.230 E2.25530
G1 X76.569 Y126.015 E2.26162
G1 X76.597 Y125.801 E2.26938
G1 X76.626 Y125.586 E2.27857
G1 E0.27857 F2400.00000
G92 E0
G1 X77.042 Y122.954 F7800.000
G1 E2.00000 F2400.00000
G1 F1800
G1 X77.587 Y123.498 E2.09241
G1 X78.392 Y123.284 E2.19242
G1 X77.363 Y122.255 E2.36695
G1 X77.363 Y121.235 E2.48935
G1 X79.615 Y123.486 E2.87132
G1 E0.87132 F2400.00000
G92 E0
G1 X76.844 Y128.859 F7800.000
G1 E2.00000 F2400.00000
G1 F1800
G1 X77.027 Y129.530 E2.05075
G1 E0.05075 F2400.00000
G92 E0
G1 X119.880 Y129.167 F7800.000
G1 E2.00000 F2400.00000
G1 F1800
G1 X120.685 Y129.274 E2.06914
G1 X120.818 Y129.274 E2.08045
G1 X121.222 Y129.220 E2.11806
G1 X121.626 Y129.167 E2.15854
G1 E0.15854 F2400.00000
G92 E0
G1 X123.374 Y127.420 F7800.000
G1 E2.00000 F2400.00000
G1 F1800
G1 X123.402 Y127.204 E2.00928
G1 X123.431 Y126.988 E2.01712
G1 X123.459 Y126.772 E2.02350
G1 X123.488 Y126.556 E2.02843
G1 X123.488 Y125.948 F7800.000
G1 F1800
G1 X123.374 Y125.087 E2.04808
G1 E0.04808 F2400.00000
G92 E0
G1 X122.958 Y77.047 F7800.000
G1 E2.00000 F2400.00000
G1 F1800
G1 X122.412 Y76.502 E2.09259
G1 X121.607 Y76.716 E2.19259
G1 X122.637 Y77.746 E2.36730
G1 X122.637 Y78.766 E2.48971
G1 X120.384 Y76.514 E2.87185
G1 E0.87185 F2400.00000
G92 E0
G1 X123.374 Y74.413 F7800.000
G1 E2.00000 F2400.00000
G1 F1800
G1 X123.402 Y74.198 E2.00925
G1 X123.431 Y73.982 E2.01705
G1 X123.459 Y73.767 E2.02341
G1 X123.488 Y73.552 E2.02832
G1 X123.488 Y72.944 F7800.000
G1 F1800
G1 X123.413 Y72.378 E2.04199
G1 X123.338 Y71.811 E2.06927
G1 X123.155 Y71.141 E2.10240
G1 X122.972 Y70.471 E2.15325
G1 X122.859 Y70.845 F7800.000
G1 F1800
G1 X122.189 Y70.662 E2.20066
G1 X122.000 Y70.637 E2.21271
G1 X121.812 Y70.612 E2.22325
G1 X121.624 Y70.587 E2.23230
G1 X121.435 Y70.563 E2.23984
