; generated by PrusaSlicer 2.1.1+ on 2021-06-06 at 19:29:30 UTC

; 

; external perimeters extrusion width = 0.45mm
; perimeters extrusion width = 0.45mm
; infill extrusion width = 0.45mm
; solid infill extrusion width = 0.45mm
; top infill extrusion width = 0.40mm
; first layer extrusion width = 0.80mm

M107
M190 S60 ; set bed temperature and wait for it to be reached
M104 S200 ; set temperature
G28 ; home all axes
G1 Z5 F5000 ; lift nozzle
M109 S200 ; set temperature and wait for it to be reached
G21 ; set units to millimeters
G90 ; use absolute coordinates
M82 ; use absolute distances for extrusion
G92 E0
; Filament gcode
G1 Z0.400 F7800.000
G1 E-2.00000 F2400.00000
G92 E0
G1 X87.940 Y87.941 F7800.000
G1 E2.00000 F2400.00000
G1 F1800
G1 X89.281 Y86.742 E2.21363
G1 X90.524 Y85.820 E2.39749
G1 X92.073 Y84.905 E2.61111
G1 X93.473 Y84.244 E2.79497
G1 X95.170 Y83.649 E3.00860
G1 X96.672 Y83.273 E3.19246
G1 X98.453 Y83.021 E3.40609
G1 X100.006 Y82.945 E3.59069
G1 X101.795 Y83.045 E3.80358
G1 X103.327 Y83.273 E3.98743
G1 X105.069 Y83.721 E4.20106
G1 X106.526 Y84.243 E4.38492
G1 X108.147 Y85.023 E4.59855
G1 X109.475 Y85.819 E4.78241
G1 X110.912 Y86.900 E4.99604
G1 X112.059 Y87.940 E5.17989
G1 X113.258 Y89.281 E5.39352
G1 X114.180 Y90.524 E5.57738
G1 X115.095 Y92.073 E5.79101
G1 X115.756 Y93.473 E5.97487
G1 X116.351 Y95.170 E6.18849
G1 X116.727 Y96.672 E6.37235
G1 X116.979 Y98.453 E6.58598
G1 X117.055 Y99.999 E6.76984
G1 X116.955 Y101.795 E6.98347
G1 X116.727 Y103.327 E7.16732
G1 X116.279 Y105.068 E7.38095
G1 X115.757 Y106.526 E7.56481
G1 X114.977 Y108.147 E7.77844
G1 X114.181 Y109.475 E7.96230
G1 X113.100 Y110.912 E8.17593
G1 X112.060 Y112.059 E8.35978
G1 X110.719 Y113.258 E8.57341
G1 X109.476 Y114.180 E8.75727
G1 X107.927 Y115.095 E8.97089
G1 X106.527 Y115.756 E9.15476
G1 X104.830 Y116.351 E9.36838
G1 X103.328 Y116.727 E9.55224
G1 X101.547 Y116.979 E9.76587
G1 X100.001 Y117.055 E9.94973
G1 X98.205 Y116.955 E10.16336
G1 X96.673 Y116.727 E10.34722
G1 X94.932 Y116.279 E10.56085
G1 X93.474 Y115.757 E10.74471
G1 X91.853 Y114.977 E10.95833
G1 X90.525 Y114.181 E11.14220
G1 X89.088 Y113.100 E11.35582
G1 X87.941 Y112.060 E11.53968
G1 X86.742 Y110.719 E11.75331
G1 X85.820 Y109.476 E11.93717
G1 X84.905 Y107.927 E12.15080
G1 X84.244 Y106.527 E12.33466
G1 X83.649 Y104.830 E12.54828
G1 X83.273 Y103.328 E12.73214
G1 X83.021 Y101.547 E12.94577
G1 X82.945 Y100.001 E13.12963
G1 X83.045 Y98.205 E13.34326
G1 X83.273 Y96.673 E13.52711
G1 X83.721 Y94.931 E13.74074
G1 X84.243 Y93.474 E13.92460
G1 X85.023 Y91.853 E14.13823
G1 X85.819 Y90.525 E14.32209
G1 X86.900 Y89.088 E14.53572
G1 X87.900 Y87.985 E14.71245
G1 E12.71245 F2400.00000
G92 E0
G1 X106.494 Y105.886 F7800.000
G1 E2.00000 F2400.00000
G1 F1800
G1 X105.221 Y107.040 E2.20407
G1 X103.748 Y107.923 E2.40813
G1 X102.130 Y108.502 E2.61220
G1 X100.430 Y108.754 E2.81627
G1 X98.714 Y108.670 E3.02033
G1 X97.047 Y108.253 E3.22440
G1 X95.494 Y107.518 E3.42846
G1 X94.114 Y106.494 E3.63253
G1 X92.960 Y105.221 E3.83660
G1 X92.077 Y103.748 E4.04066
G1 X91.498 Y102.130 E4.24473
G1 X91.246 Y100.430 E4.44880
G1 X91.330 Y98.714 E4.65286
G1 X91.747 Y97.047 E4.85693
G1 X92.482 Y95.494 E5.06099
G1 X93.506 Y94.114 E5.26506
G1 X94.779 Y92.960 E5.46913
G1 X96.252 Y92.077 E5.67319
G1 X97.870 Y91.498 E5.87726
G1 X99.570 Y91.246 E6.08133
G1 X101.286 Y91.330 E6.28539
G1 X102.953 Y91.747 E6.48946
G1 X104.506 Y92.482 E6.69353
G1 X105.886 Y93.506 E6.89759
G1 X107.040 Y94.779 E7.10166
G1 X107.923 Y96.252 E7.30572
G1 X108.502 Y97.870 E7.50979
G1 X108.754 Y99.570 E7.71386
G1 X108.670 Y101.286 E7.91792
G1 X108.253 Y102.953 E8.12199
G1 X107.518 Y104.506 E8.32605
G1 X106.530 Y105.838 E8.52299
G1 X107.068 Y106.312 F7800.000
G1 F1800
G1 X107.026 Y106.368 E8.53135
G1 X105.649 Y107.616 E8.75212
G1 X104.054 Y108.572 E8.97289
G1 X102.304 Y109.198 E9.19367
G1 X100.465 Y109.471 E9.41444
G1 X98.609 Y109.380 E9.63522
G1 X96.805 Y108.928 E9.85599
G1 X95.125 Y108.133 E10.07676
G1 X93.632 Y107.026 E10.29754
G1 X92.384 Y105.649 E10.51831
G1 X91.428 Y104.054 E10.73908
G1 X90.802 Y102.304 E10.95986
G1 X90.529 Y100.465 E11.18063
G1 X90.620 Y98.609 E11.40141
G1 X91.072 Y96.805 E11.62218
G1 X91.867 Y95.125 E11.84295
G1 X92.974 Y93.632 E12.06373
G1 X94.351 Y92.384 E12.28450
G1 X95.946 Y91.428 E12.50528
G1 X97.696 Y90.802 E12.72605
G1 X99.535 Y90.529 E12.94682
G1 X101.391 Y90.620 E13.16760
G1 X103.195 Y91.072 E13.38837
G1 X104.875 Y91.867 E13.60915
G1 X106.368 Y92.974 E13.82992
G1 X107.616 Y94.351 E14.05069
G1 X108.572 Y95.946 E14.27146
G1 X109.198 Y97.696 E14.49224
G1 X109.471 Y99.535 E14.71301
G1 X109.380 Y101.391 E14.93379
G1 X108.928 Y103.195 E15.15456
G1 X108.133 Y104.875 E15.37533
G1 X107.104 Y106.263 E15.58063
G1 X107.407 Y107.143 F7800.000
G1 F1800
G1 X107.255 Y107.124 E15.59879
G1 X106.315 Y107.977 E15.74951
G1 X106.303 Y108.130 E15.76780
G1 X105.871 Y108.450 E15.83166
G1 X105.726 Y108.403 E15.84982
G1 X104.637 Y109.055 E16.00054
G1 X104.596 Y109.204 E16.01883
G1 X104.110 Y109.433 E16.08269
G1 X103.977 Y109.358 E16.10085
G1 X102.782 Y109.786 E16.25158
G1 X102.712 Y109.923 E16.26987
G1 X102.191 Y110.054 E16.33373
G1 X102.075 Y109.954 E16.35189
G1 X100.819 Y110.141 E16.50261
G1 X100.724 Y110.262 E16.52090
G1 X100.187 Y110.288 E16.58477
G1 X100.093 Y110.168 E16.60293
G1 X98.825 Y110.106 E16.75365
G1 X98.708 Y110.206 E16.77194
G1 X98.176 Y110.127 E16.83580
G1 X98.107 Y109.991 E16.85396
G1 X96.876 Y109.682 E17.00468
G1 X96.742 Y109.758 E17.02297
G1 X96.236 Y109.577 E17.08683
G1 X96.194 Y109.429 E17.10499
G1 X95.047 Y108.887 E17.25572
G1 X94.901 Y108.935 E17.27401
G1 X94.440 Y108.658 E17.33787
G1 X94.428 Y108.506 E17.35603
G1 X93.409 Y107.750 E17.50675
G1 X93.256 Y107.768 E17.52504
G1 X92.857 Y107.407 E17.58890
G1 X92.876 Y107.255 E17.60706
G1 X92.023 Y106.315 E17.75779
G1 X91.870 Y106.303 E17.77607
G1 X91.550 Y105.871 E17.83994
G1 X91.597 Y105.726 E17.85810
G1 X90.945 Y104.637 E18.00882
G1 X90.796 Y104.596 E18.02711
G1 X90.567 Y104.110 E18.09097
G1 X90.642 Y103.977 E18.10913
G1 X90.214 Y102.782 E18.25986
G1 X90.077 Y102.712 E18.27814
G1 X89.946 Y102.191 E18.34201
G1 X90.046 Y102.074 E18.36017
G1 X89.859 Y100.819 E18.51089
G1 X89.738 Y100.724 E18.52918
G1 X89.712 Y100.187 E18.59304
G1 X89.832 Y100.093 E18.61120
G1 X89.894 Y98.825 E18.76193
G1 X89.794 Y98.708 E18.78021
G1 X89.873 Y98.176 E18.84407
G1 X90.009 Y98.107 E18.86223
G1 X90.318 Y96.876 E19.01296
G1 X90.242 Y96.742 E19.03125
G1 X90.423 Y96.236 E19.09511
G1 X90.571 Y96.194 E19.11327
G1 X91.113 Y95.047 E19.26399
G1 X91.065 Y94.901 E19.28228
G1 X91.342 Y94.440 E19.34614
G1 X91.494 Y94.428 E19.36430
G1 X92.250 Y93.409 E19.51503
G1 X92.232 Y93.256 E19.53332
G1 X92.593 Y92.857 E19.59718
G1 X92.745 Y92.876 E19.61534
G1 X93.685 Y92.023 E19.76606
G1 X93.697 Y91.870 E19.78435
G1 X94.129 Y91.550 E19.84821
G1 X94.274 Y91.597 E19.86637
G1 X95.363 Y90.945 E20.01710
G1 X95.404 Y90.796 E20.03538
G1 X95.890 Y90.567 E20.09925
G1 X96.023 Y90.642 E20.11741
G1 X97.218 Y90.214 E20.26813
G1 X97.288 Y90.077 E20.28642
G1 X97.809 Y89.946 E20.35028
G1 X97.926 Y90.046 E20.36844
G1 X99.181 Y89.859 E20.51917
G1 X99.276 Y89.738 E20.53745
G1 X99.813 Y89.712 E20.60131
G1 X99.907 Y89.832 E20.61947
G1 X101.175 Y89.894 E20.77020
G1 X101.292 Y89.794 E20.78849
G1 X101.824 Y89.873 E20.85235
G1 X101.893 Y90.009 E20.87051
G1 X103.124 Y90.318 E21.02123
G1 X103.258 Y90.242 E21.03952
G1 X103.764 Y90.423 E21.10338
G1 X103.806 Y90.571 E21.12154
G1 X104.953 Y91.113 E21.27227
G1 X105.099 Y91.065 E21.29056
G1 X105.560 Y91.342 E21.35442
G1 X105.572 Y91.494 E21.37258
G1 X106.591 Y92.250 E21.52330
G1 X106.744 Y92.232 E21.54159
G1 X107.143 Y92.593 E21.60545
G1 X107.124 Y92.745 E21.62361
G1 X107.977 Y93.685 E21.77434
G1 X108.130 Y93.697 E21.79262
G1 X108.450 Y94.129 E21.85649
G1 X108.403 Y94.274 E21.87465
G1 X109.055 Y95.363 E22.02537
G1 X109.204 Y95.404 E22.04366
G1 X109.433 Y95.890 E22.10752
G1 X109.358 Y96.023 E22.12568
G1 X109.786 Y97.218 E22.27640
G1 X109.923 Y97.288 E22.29469
G1 X110.054 Y97.809 E22.35855
G1 X109.954 Y97.926 E22.37671
G1 X110.141 Y99.181 E22.52744
G1 X110.262 Y99.276 E22.54572
G1 X110.288 Y99.813 E22.60959
G1 X110.168 Y99.907 E22.62775
G1 X110.106 Y101.175 E22.77847
G1 X110.206 Y101.292 E22.79676
G1 X110.127 Y101.824 E22.86062
G1 X109.991 Y101.893 E22.87878
G1 X109.682 Y103.124 E23.02951
G1 X109.758 Y103.258 E23.04779
G1 X109.577 Y103.764 E23.11165
G1 X109.429 Y103.806 E23.12981
G1 X108.887 Y104.953 E23.28054
G1 X108.935 Y105.099 E23.29883
G1 X108.658 Y105.560 E23.36269
G1 X108.506 Y105.572 E23.38085
G1 X107.750 Y106.591 E23.53157
G1 X107.768 Y106.744 E23.54986
G1 X107.447 Y107.098 E23.60660
G1 X107.299 Y107.034 F7800.000
G1 E21.60660 F2400.00000
G92 E0
G1 X108.160 Y97.548 F7800.000
G1 E2.00000 F2400.00000
G1 F1800
G1 X102.950 Y92.338 E2.87560
G1 X102.772 Y92.254 E2.89901
G1 X101.548 Y91.948 E3.04886
G1 X108.046 Y98.446 E4.14089
G1 X108.215 Y99.625 E4.28254
G1 X100.413 Y91.823 E5.59379
G1 X99.596 Y91.783 E5.69100
G1 X99.393 Y91.813 E5.71545
G1 X108.168 Y100.589 E7.19027
G1 X108.138 Y101.207 E7.26385
G1 X108.065 Y101.496 E7.29929
G1 X98.513 Y91.944 E8.90473
G1 X98.001 Y92.020 E8.96620
G1 X97.689 Y92.131 E9.00552
G1 X107.863 Y102.305 E10.71529
G1 X107.746 Y102.772 E10.77249
G1 X107.609 Y103.061 E10.81057
G1 X96.945 Y92.398 E12.60274
G1 X96.483 Y92.563 E12.66113
G1 X96.243 Y92.706 E12.69426
G1 X107.284 Y103.747 E14.54983
G1 X107.056 Y104.229 E14.61321
G1 X106.928 Y104.402 E14.63874
G1 X95.612 Y93.085 E16.54067
G1 X95.099 Y93.392 E16.61165
G1 X94.999 Y93.483 E16.62774
G1 X106.498 Y104.982 E18.56031
G1 X106.061 Y105.556 E18.64601
G1 X94.469 Y93.964 E20.59426
G1 X93.939 Y94.444 E20.67929
G1 X105.531 Y106.036 E22.62754
G1 X105.001 Y106.517 E22.71256
G1 X93.502 Y95.018 E24.64513
G1 X93.072 Y95.598 E24.73098
G1 X104.388 Y106.915 E26.63292
G1 X103.756 Y107.294 E26.72046
G1 X92.716 Y96.253 E28.57603
G1 X92.391 Y96.939 E28.66622
G1 X103.055 Y107.602 E30.45838
G1 X102.310 Y107.869 E30.55233
G1 X92.137 Y97.696 E32.26208
G1 X91.935 Y98.504 E32.36109
G1 X101.487 Y108.056 E33.96651
G1 X100.607 Y108.187 E34.07224
G1 X91.832 Y99.411 E35.54704
G1 X91.785 Y100.375 E35.66165
G1 X99.587 Y108.177 E36.97288
G1 X98.793 Y108.138 E37.06731
G1 X98.451 Y108.052 E37.10914
G1 X91.954 Y101.555 E38.20115
G1 X92.020 Y101.999 E38.25453
G1 X92.372 Y102.983 E38.37878
G1 X97.545 Y108.156 E39.24819
G1 Z0.550 F7800.000
M140 S55 ; set bed temperature
G1 X107.151 Y106.617
G1 F3600
G1 X106.988 Y106.598 E39.25247
G1 X105.734 Y107.734 E39.29656
G1 X105.722 Y107.885 E39.30052
G1 X105.566 Y107.834 E39.30479
G1 X104.115 Y108.704 E39.34889
G1 X104.074 Y108.850 E39.35284
G1 X103.931 Y108.770 E39.35711
G1 X102.338 Y109.340 E39.40121
G1 X102.269 Y109.475 E39.40516
G1 X102.145 Y109.368 E39.40943
G1 X100.471 Y109.616 E39.45353
G1 X100.377 Y109.736 E39.45748
G1 X100.276 Y109.606 E39.46176
G1 X98.586 Y109.523 E39.50585
G1 X98.471 Y109.622 E39.50980
G1 X98.396 Y109.476 E39.51408
G1 X96.755 Y109.065 E39.55817
G1 X96.623 Y109.139 E39.56212
G1 X96.579 Y108.981 E39.56640
G1 X95.049 Y108.257 E39.61049
G1 X94.905 Y108.304 E39.61444
G1 X94.892 Y108.141 E39.61872
G1 X93.533 Y107.133 E39.66281
G1 X93.383 Y107.151 E39.66676
G1 X93.402 Y106.988 E39.67104
G1 X92.266 Y105.734 E39.71513
G1 X92.115 Y105.722 E39.71908
G1 X92.166 Y105.566 E39.72336
G1 X91.296 Y104.115 E39.76745
G1 X91.150 Y104.074 E39.77140
G1 X91.230 Y103.931 E39.77568
G1 X90.660 Y102.338 E39.81977
G1 X90.525 Y102.269 E39.82372
G1 X90.632 Y102.145 E39.82800
G1 X90.384 Y100.471 E39.87209
G1 X90.264 Y100.377 E39.87604
G1 X90.394 Y100.276 E39.88032
G1 X90.477 Y98.586 E39.92441
G1 X90.378 Y98.471 E39.92836
G1 X90.524 Y98.396 E39.93264
G1 X90.935 Y96.755 E39.97673
G1 X90.861 Y96.623 E39.98068
G1 X91.019 Y96.579 E39.98496
G1 X91.743 Y95.049 E40.02905
G1 X91.696 Y94.905 E40.03301
G1 X91.859 Y94.892 E40.03728
G1 X92.867 Y93.533 E40.08138
G1 X92.849 Y93.383 E40.08533
G1 X93.012 Y93.402 E40.08961
G1 X94.266 Y92.266 E40.13370
G1 X94.278 Y92.115 E40.13765
G1 X94.434 Y92.166 E40.14193
G1 X95.885 Y91.296 E40.18602
G1 X95.926 Y91.150 E40.18997
G1 X96.069 Y91.230 E40.19425
G1 X97.662 Y90.660 E40.23834
G1 X97.731 Y90.525 E40.24229
G1 X97.855 Y90.632 E40.24657
G1 X99.529 Y90.384 E40.29066
G1 X99.623 Y90.264 E40.29461
G1 X99.724 Y90.394 E40.29889
G1 X101.414 Y90.477 E40.34298
G1 X101.529 Y90.378 E40.34693
G1 X101.604 Y90.524 E40.35121
G1 X103.245 Y90.935 E40.39530
G1 X103.377 Y90.861 E40.39925
G1 X103.421 Y91.019 E40.40353
G1 X104.951 Y91.743 E40.44762
G1 X105.095 Y91.696 E40.45157
G1 X105.108 Y91.859 E40.45585
G1 X106.467 Y92.867 E40.49994
G1 X106.617 Y92.849 E40.50389
G1 X106.598 Y93.012 E40.50817
G1 X107.734 Y94.266 E40.55226
G1 X107.885 Y94.278 E40.55621
G1 X107.834 Y94.434 E40.56049
G1 X108.704 Y95.885 E40.60458
G1 X108.850 Y95.926 E40.60853
G1 X108.770 Y96.069 E40.61281
G1 X109.340 Y97.662 E40.65690
G1 X109.475 Y97.731 E40.66085
G1 X109.368 Y97.855 E40.66513
G1 X109.616 Y99.529 E40.70922
G1 X109.736 Y99.623 E40.71317
G1 X109.606 Y99.724 E40.71745
G1 X109.523 Y101.414 E40.76154
G1 X109.622 Y101.529 E40.76549
G1 X109.476 Y101.604 E40.76977
G1 X109.065 Y103.245 E40.81386
G1 X109.139 Y103.377 E40.81781
G1 X108.981 Y103.421 E40.82209
G1 X108.257 Y104.951 E40.86618
G1 X108.304 Y105.095 E40.87014
G1 X108.141 Y105.108 E40.87441
G1 X107.133 Y106.467 E40.91850
G1 X107.144 Y106.558 E40.92089
G1 X107.567 Y106.582 F7800.000
G1 F3600
G1 X107.613 Y106.963 E40.93089
G1 X107.506 Y107.081 E40.93505
G1 X107.127 Y107.035 E40.94499
G1 X106.138 Y107.932 E40.97978
G1 X106.109 Y108.314 E40.98977
G1 X105.980 Y108.409 E40.99393
G1 X105.618 Y108.291 E41.00388
G1 X104.473 Y108.977 E41.03867
G1 X104.369 Y109.346 E41.04866
G1 X104.225 Y109.415 E41.05282
G1 X103.892 Y109.227 E41.06277
G1 X102.635 Y109.677 E41.09755
G1 X102.462 Y110.019 E41.10754
G1 X102.307 Y110.058 E41.11170
G1 X102.017 Y109.809 E41.12165
G1 X100.697 Y110.005 E41.15644
G1 X100.460 Y110.307 E41.16643
G1 X100.300 Y110.315 E41.17059
G1 X100.065 Y110.014 E41.18054
G1 X98.731 Y109.949 E41.21533
G1 X98.440 Y110.199 E41.22532
G1 X98.282 Y110.175 E41.22948
G1 X98.110 Y109.835 E41.23943
G1 X96.815 Y109.510 E41.27421
G1 X96.481 Y109.698 E41.28420
G1 X96.330 Y109.645 E41.28836
G1 X96.228 Y109.277 E41.29831
G1 X95.021 Y108.706 E41.33310
G1 X94.656 Y108.825 E41.34309
G1 X94.519 Y108.743 E41.34725
G1 X94.490 Y108.363 E41.35720
G1 X93.418 Y107.567 E41.39198
G1 X93.037 Y107.613 E41.40198
G1 X92.919 Y107.506 E41.40614
G1 X92.965 Y107.127 E41.41609
G1 X92.068 Y106.138 E41.45087
G1 X91.686 Y106.109 E41.46086
G1 X91.590 Y105.980 E41.46502
G1 X91.709 Y105.618 E41.47497
G1 X91.023 Y104.473 E41.50976
G1 X90.654 Y104.369 E41.51975
G1 X90.585 Y104.225 E41.52391
G1 X90.773 Y103.892 E41.53386
G1 X90.323 Y102.635 E41.56864
G1 X89.981 Y102.462 E41.57864
G1 X89.942 Y102.307 E41.58280
G1 X90.191 Y102.017 E41.59275
G1 X89.995 Y100.697 E41.62753
G1 X89.693 Y100.460 E41.63752
G1 X89.685 Y100.301 E41.64168
G1 X89.986 Y100.065 E41.65163
G1 X90.051 Y98.731 E41.68642
G1 X89.801 Y98.440 E41.69641
G1 X89.825 Y98.282 E41.70057
G1 X90.165 Y98.110 E41.71052
G1 X90.490 Y96.815 E41.74530
G1 X90.302 Y96.481 E41.75530
G1 X90.355 Y96.330 E41.75946
G1 X90.723 Y96.228 E41.76940
G1 X91.294 Y95.021 E41.80419
G1 X91.175 Y94.656 E41.81418
G1 X91.257 Y94.519 E41.81834
G1 X91.637 Y94.490 E41.82829
G1 X92.433 Y93.418 E41.86308
G1 X92.387 Y93.037 E41.87307
G1 X92.494 Y92.919 E41.87723
G1 X92.873 Y92.965 E41.88718
G1 X93.862 Y92.068 E41.92196
G1 X93.891 Y91.686 E41.93196
G1 X94.020 Y91.590 E41.93612
G1 X94.382 Y91.709 E41.94606
G1 X95.527 Y91.023 E41.98085
G1 X95.631 Y90.654 E41.99084
G1 X95.775 Y90.585 E41.99500
G1 X96.108 Y90.773 E42.00495
G1 X97.365 Y90.323 E42.03973
G1 X97.538 Y89.981 E42.04973
G1 X97.693 Y89.942 E42.05389
G1 X97.983 Y90.191 E42.06384
G1 X99.303 Y89.995 E42.09862
G1 X99.540 Y89.693 E42.10861
G1 X99.700 Y89.685 E42.11277
G1 X99.935 Y89.986 E42.12272
G1 X101.269 Y90.051 E42.15751
G1 X101.560 Y89.801 E42.16750
G1 X101.718 Y89.825 E42.17166
G1 X101.890 Y90.165 E42.18161
G1 X103.185 Y90.490 E42.21639
G1 X103.519 Y90.302 E42.22639
G1 X103.670 Y90.355 E42.23055
G1 X103.772 Y90.723 E42.24050
