; generated by PrusaSlicer 2.1.1+ on 2021-05-07 at 19:00:21 UTC

; 

; external perimeters extrusion width = 0.45mm
; perimeters extrusion width = 0.45mm
; infill extrusion width = 0.45mm
; solid infill extrusion width = 0.45mm
; top infill extrusion width = 0.40mm
; first layer extrusion width = 0.80mm

M107
M190 S60 ; set bed temperature and wait for it to be reached
M104 S200 ; set temperature
G28 ; home all axes
G1 Z5 F5000 ; lift nozzle
M109 S200 ; set temperature and wait for it to be reached
G21 ; set units to millimeters
G90 ; use absolute coordinates
M82 ; use absolute distances for extrusion
G92 E0
; Filament gcode
G1 Z0.400 F7800.000
G1 E-2.00000 F2400.00000
G92 E0
G1 X78.757 Y73.799 F7800.000
G1 E2.00000 F2400.00000
G1 F1800
G1 X79.079 Y72.687 E2.13741
G1 X79.432 Y71.932 E2.23647
G1 X79.886 Y71.224 E2.33627
G1 X80.424 Y70.587 E2.43533
G1 X81.046 Y70.022 E2.53513
G1 X81.737 Y69.544 E2.63493
G1 X82.479 Y69.164 E2.73399
G1 X83.265 Y68.884 E2.83305
G1 X84.087 Y68.709 E2.93285
G1 X84.981 Y68.643 E3.03929
G1 X107.006 Y68.643 E5.65515
G1 X109.273 Y68.824 E5.92517
G1 X111.563 Y69.388 E6.20529
G1 X112.825 Y69.878 E6.36609
G1 X114.024 Y70.480 E6.52539
G1 X115.921 Y71.752 E6.79670
G1 X117.643 Y73.364 E7.07685
G1 X119.033 Y75.169 E7.34741
G1 X120.120 Y77.171 E7.61798
G1 X120.893 Y79.380 E7.89594
G1 X121.259 Y81.332 E8.13180
G1 X121.357 Y82.919 E8.32065
G1 X121.357 Y117.075 E12.37713
G1 X121.281 Y118.478 E12.54399
G1 X121.074 Y119.834 E12.70699
G1 X120.834 Y120.838 E12.82956
G1 X120.393 Y122.171 E12.99626
G1 X119.727 Y123.642 E13.18805
G1 X118.692 Y125.330 E13.42320
G1 X117.671 Y126.605 E13.61721
G1 X116.501 Y127.763 E13.81274
G1 X114.940 Y128.961 E14.04640
G1 X113.519 Y129.792 E14.24190
G1 X112.017 Y130.451 E14.43666
G1 X110.107 Y131.016 E14.67327
G1 X108.550 Y131.273 E14.86066
G1 X107.093 Y131.356 E15.03399
G1 X84.981 Y131.357 E17.66011
G1 X83.811 Y131.245 E17.79973
G1 X82.687 Y130.921 E17.93862
G1 X81.872 Y130.534 E18.04580
G1 X81.120 Y130.036 E18.15298
G1 X80.446 Y129.435 E18.26016
G1 X79.864 Y128.746 E18.36733
G1 X79.385 Y127.981 E18.47451
G1 X79.020 Y127.156 E18.58169
G1 X78.775 Y126.287 E18.68887
G1 X78.655 Y125.393 E18.79605
G1 X78.643 Y74.950 E24.78688
G1 X78.752 Y73.859 E24.91716
G1 E22.91716 F2400.00000
G92 E0
G1 X110.228 Y122.250 F7800.000
G1 E2.00000 F2400.00000
G1 F1800
G1 X109.784 Y122.507 E2.06086
G1 X109.526 Y122.630 E2.09481
G1 X108.888 Y122.874 E2.17596
G1 X108.624 Y122.953 E2.20872
G1 X107.946 Y123.097 E2.29104
G1 X107.663 Y123.135 E2.32497
G1 X106.952 Y123.172 E2.40942
G1 X103.364 Y123.172 E2.83562
G1 X102.824 Y123.138 E2.89986
G1 X102.644 Y123.110 E2.92153
G1 X102.151 Y122.983 E2.98199
G1 X101.979 Y122.921 E3.00368
G1 X101.518 Y122.705 E3.06413
G1 X101.170 Y122.484 E3.11309
G1 X100.777 Y122.159 E3.17366
G1 X100.648 Y122.030 E3.19534
G1 X100.323 Y121.637 E3.25580
G1 X100.221 Y121.486 E3.27749
G1 X99.976 Y121.040 E3.33795
G1 X99.755 Y120.416 E3.41661
G1 X99.667 Y119.954 E3.47245
G1 X99.635 Y119.443 E3.53326
G1 X99.635 Y116.542 E3.87781
G1 X101.455 Y116.542 E4.09399
G1 X101.455 Y117.694 E4.23082
G1 X101.522 Y118.408 E4.31600
G1 X101.743 Y119.178 E4.41116
G1 X102.101 Y119.895 E4.50633
G1 X102.584 Y120.532 E4.60129
G1 X103.137 Y121.036 E4.69008
G1 X103.545 Y121.315 E4.74884
G1 X104.178 Y121.630 E4.83280
G1 X104.647 Y121.786 E4.89156
G1 X105.380 Y121.923 E4.98012
G1 X110.143 Y121.933 E5.54574
G1 X110.212 Y122.192 E5.57761
G1 E3.57761 F2400.00000
G92 E0
G1 X111.832 Y120.317 F7800.000
G1 E2.00000 F2400.00000
G1 F1800
G1 X111.828 Y79.686 E6.82548
G1 X112.135 Y79.595 E6.86348
G1 X112.340 Y79.911 E6.90824
G1 X112.645 Y80.508 E6.98778
G1 X112.754 Y80.772 E7.02173
G1 X112.958 Y81.399 E7.10004
G1 X113.097 Y82.054 E7.17958
G1 X113.135 Y82.337 E7.21351
G1 X113.172 Y83.048 E7.29796
G1 X113.172 Y116.956 E11.32508
G1 X113.135 Y117.648 E11.40742
G1 X113.034 Y118.286 E11.48413
G1 X112.866 Y118.910 E11.56091
G1 X112.630 Y119.526 E11.63922
G1 X112.507 Y119.784 E11.67317
G1 X112.149 Y120.402 E11.75792
G1 X111.890 Y120.332 E11.78983
G1 E9.78983 F2400.00000
G92 E0
G1 X88.172 Y78.172 F7800.000
G1 E2.00000 F2400.00000
G1 F1800
G1 X88.172 Y123.172 E7.34443
G1 X86.828 Y123.172 E7.50398
G1 X86.828 Y76.828 E13.00795
G1 X106.956 Y76.828 E15.39847
G1 X107.662 Y76.865 E15.48242
G1 X107.946 Y76.903 E15.51638
G1 X108.601 Y77.042 E15.59592
G1 X109.228 Y77.246 E15.67422
G1 X109.492 Y77.355 E15.70817
G1 X110.089 Y77.660 E15.78772
G1 X110.405 Y77.865 E15.83247
G1 X110.314 Y78.172 E15.87047
G1 X88.232 Y78.172 E18.49305
G1 X88.886 Y78.886 F7800.000
G1 F1800
G1 X88.886 Y123.886 E23.83748
G1 X86.114 Y123.886 E24.16666
G1 X86.114 Y76.114 E29.84027
G1 X106.975 Y76.114 E32.31783
G1 X107.728 Y76.154 E32.40732
G1 X108.067 Y76.198 E32.44797
G1 X108.786 Y76.351 E32.53529
G1 X109.475 Y76.575 E32.62134
G1 X109.791 Y76.706 E32.66199
G1 X110.446 Y77.040 E32.74932
G1 X111.054 Y77.435 E32.83537
G1 X111.326 Y77.644 E32.87606
G1 X111.864 Y78.128 E32.96210
G1 X112.357 Y78.675 E33.04944
G1 X112.565 Y78.946 E33.09008
G1 X112.960 Y79.554 E33.17613
G1 X113.294 Y80.209 E33.26346
G1 X113.425 Y80.525 E33.30411
G1 X113.649 Y81.214 E33.39016
G1 X113.802 Y81.933 E33.47748
G1 X113.846 Y82.272 E33.51812
G1 X113.886 Y83.029 E33.60811
G1 X113.886 Y116.975 E37.63968
G1 X113.846 Y117.723 E37.72872
G1 X113.733 Y118.435 E37.81432
G1 X113.546 Y119.132 E37.89996
G1 X113.286 Y119.808 E37.98601
G1 X113.139 Y120.117 E38.02666
G1 X112.771 Y120.753 E38.11394
G1 X112.347 Y121.336 E38.19959
G1 X111.872 Y121.864 E38.28395
G1 X111.336 Y122.347 E38.36959
G1 X110.753 Y122.771 E38.45519
G1 X110.117 Y123.139 E38.54248
G1 X109.808 Y123.286 E38.58313
G1 X109.118 Y123.551 E38.67091
G1 X108.800 Y123.646 E38.71031
G1 X108.067 Y123.802 E38.79933
G1 X107.728 Y123.846 E38.83996
G1 X106.971 Y123.886 E38.92995
G1 X103.341 Y123.886 E39.36101
G1 X102.746 Y123.849 E39.43189
G1 X102.499 Y123.810 E39.46157
G1 X101.941 Y123.666 E39.53004
G1 X101.705 Y123.582 E39.55973
G1 X101.184 Y123.336 E39.62819
G1 X100.741 Y123.055 E39.69052
G1 X100.296 Y122.688 E39.75905
G1 X100.119 Y122.511 E39.78874
G1 X99.752 Y122.067 E39.85721
G1 X99.611 Y121.860 E39.88690
G1 X99.334 Y121.355 E39.95536
G1 X99.234 Y121.125 E39.98505
G1 X99.062 Y120.594 E40.05144
G1 X98.957 Y120.043 E40.11796
G1 X98.921 Y119.465 E40.18675
G1 X98.921 Y115.828 E40.61877
G1 X102.169 Y115.828 E41.00459
G1 X102.169 Y117.660 E41.22225
G1 X102.227 Y118.275 E41.29559
G1 X102.411 Y118.918 E41.37502
G1 X102.710 Y119.516 E41.45445
G1 X103.114 Y120.048 E41.53374
G1 X103.581 Y120.474 E41.60885
G1 X103.907 Y120.698 E41.65582
G1 X104.451 Y120.968 E41.72798
G1 X104.827 Y121.093 E41.77496
G1 X105.447 Y121.209 E41.84991
G1 X111.118 Y121.221 E42.52341
G1 X111.114 Y78.886 E47.55133
G1 X88.946 Y78.886 E50.18414
G1 X89.600 Y79.600 F7800.000
G1 F1800
G1 X89.600 Y124.600 E55.52857
G1 X85.400 Y124.600 E56.02739
G1 X85.400 Y75.400 E61.87063
G1 X106.994 Y75.400 E64.43522
G1 X107.793 Y75.442 E64.53025
G1 X108.188 Y75.494 E64.57759
G1 X108.971 Y75.661 E64.67271
G1 X109.722 Y75.905 E64.76650
G1 X110.091 Y76.057 E64.81384
G1 X110.804 Y76.421 E64.90896
G1 X111.466 Y76.851 E65.00275
G1 X111.783 Y77.094 E65.05011
G1 X112.370 Y77.623 E65.14391
G1 X112.906 Y78.217 E65.23902
G1 X113.149 Y78.534 E65.28636
G1 X113.579 Y79.196 E65.38016
G1 X113.943 Y79.909 E65.47527
G1 X114.095 Y80.278 E65.52261
G1 X114.339 Y81.029 E65.61641
G1 X114.506 Y81.812 E65.71152
G1 X114.558 Y82.207 E65.75886
G1 X114.600 Y83.010 E65.85439
G1 X114.600 Y116.994 E69.89042
G1 X114.557 Y117.799 E69.98614
G1 X114.432 Y118.584 E70.08063
G1 X114.226 Y119.353 E70.17514
G1 X113.943 Y120.090 E70.26894
G1 X113.771 Y120.450 E70.31628
G1 X113.371 Y121.143 E70.41138
G1 X112.902 Y121.787 E70.50589
G1 X112.377 Y122.370 E70.59908
G1 X111.786 Y122.903 E70.69358
G1 X111.143 Y123.371 E70.78808
G1 X110.450 Y123.771 E70.88317
G1 X110.090 Y123.943 E70.93051
G1 X109.348 Y124.228 E71.02494
G1 X108.976 Y124.338 E71.07097
G1 X108.188 Y124.506 E71.16669
G1 X107.793 Y124.558 E71.21403
G1 X106.990 Y124.600 E71.30956
G1 X103.319 Y124.600 E71.74547
G1 X102.668 Y124.559 E71.82299
G1 X102.354 Y124.510 E71.86068
G1 X101.731 Y124.350 E71.93716
G1 X101.432 Y124.242 E71.97485
G1 X100.849 Y123.968 E72.05132
G1 X100.311 Y123.627 E72.12702
G1 X99.815 Y123.216 E72.20352
G1 X99.590 Y122.992 E72.24121
G1 X99.180 Y122.496 E72.31768
G1 X99.002 Y122.233 E72.35538
G1 X98.691 Y121.669 E72.43185
G1 X98.565 Y121.378 E72.46954
G1 X98.369 Y120.771 E72.54527
G1 X98.247 Y120.133 E72.62247
G1 X98.207 Y119.488 E72.69924
G1 X98.207 Y115.113 E73.21873
G1 X102.884 Y115.113 E73.77418
G1 X102.884 Y117.627 E74.07270
G1 X102.932 Y118.142 E74.13420
G1 X103.079 Y118.658 E74.19788
G1 X103.319 Y119.138 E74.26157
G1 X103.643 Y119.565 E74.32520
G1 X104.025 Y119.913 E74.38661
G1 X104.270 Y120.080 E74.42181
G1 X104.725 Y120.306 E74.48216
G1 X105.006 Y120.400 E74.51735
G1 X105.514 Y120.495 E74.57871
G1 X110.404 Y120.505 E75.15946
G1 X110.400 Y79.600 E80.01757
G1 X89.660 Y79.600 E82.48075
G1 X89.227 Y79.457 F7800.000
G1 E80.48075 F2400.00000
G92 E0
G1 X87.500 Y77.815 F7800.000
G1 E2.00000 F2400.00000
G1 F1800
G1 X87.500 Y122.815 E6.70867
G1 E4.70867 F2400.00000
G92 E0
G1 X101.316 Y118.465 F7800.000
G1 E2.00000 F2400.00000
G1 F1800
G1 X100.171 Y117.320 E2.21657
G1 X100.171 Y118.457 E2.36862
G1 X103.716 Y122.002 E3.03908
G1 X103.873 Y122.372 F7800.000
G1 F1800
G1 X104.447 Y122.465 E3.10078
G1 X105.030 Y122.520 E3.16293
G1 X105.346 Y122.547 E3.18907
G1 X106.936 Y122.549 E3.31993
G1 X107.846 Y122.517 E3.39487
G1 X108.062 Y122.494 E3.41164
G1 X108.614 Y122.432 E3.44162
G1 X108.732 Y122.415 E3.44739
G1 X109.208 Y122.327 E3.45834
G1 X110.792 Y122.301 F7800.000
G1 F1800
G1 X111.547 Y121.579 E3.48346
G1 X111.932 Y120.713 E3.50996
G1 X112.226 Y119.455 F7800.000
G1 F1800
G1 X112.247 Y119.362 E3.51182
G1 X112.270 Y119.239 E3.51521
G1 X112.293 Y119.116 E3.51955
G1 X112.316 Y118.993 E3.52483
G1 X112.339 Y118.869 E3.53107
G1 X112.361 Y118.746 E3.53826
G1 X112.381 Y118.600 E3.54771
G1 X112.400 Y118.453 E3.55812
G1 X112.420 Y118.306 E3.56948
G1 X112.439 Y118.159 E3.58179
G1 X112.462 Y117.869 E3.60820
G1 X112.485 Y117.580 E3.63682
G1 X112.502 Y116.938 E3.70360
G1 X112.500 Y83.065 E7.24642
G1 X112.483 Y82.397 E7.31630
G1 X112.403 Y81.548 E7.38398
G1 X112.330 Y81.090 E7.41000
G1 X112.228 Y80.545 E7.42761
G1 X112.047 Y79.249 F7800.000
G1 F1800
G1 X111.539 Y78.453 E7.46418
G1 X110.745 Y77.973 E7.50023
G1 X109.455 Y77.772 F7800.000
G1 F1800
G1 X108.910 Y77.670 E7.51785
G1 X108.452 Y77.597 E7.54388
G1 X107.603 Y77.517 E7.61161
G1 X106.939 Y77.500 E7.68107
G1 X87.815 Y77.500 E9.68216
G1 X87.554 Y77.554 E9.71001
G1 X87.500 Y77.815 E9.73786
G1 E7.73786 F2400.00000
G92 E0
G1 X102.219 Y122.779 F7800.000
G1 E2.00000 F2400.00000
G1 F1800
G1 X100.747 Y121.308 E2.27827
G1 X100.678 Y121.206 E2.29468
G1 X100.466 Y120.820 E2.35354
G1 X100.273 Y120.276 E2.43082
G1 X100.199 Y119.887 E2.48374
G1 X100.182 Y119.605 E2.52145
G1 X103.534 Y122.957 E3.15535
G1 Z0.550 F7800.000
M140 S55 ; set bed temperature
G1 X111.064 Y121.167
G1 F3600
G1 X111.061 Y78.939 E4.25563
G1 X88.939 Y78.939 E4.83201
G1 X88.939 Y123.939 E6.00452
G1 X86.061 Y123.939 E6.07953
G1 X86.061 Y76.061 E7.32705
G1 X106.982 Y76.061 E7.87218
G1 X107.723 Y76.099 E7.89151
G1 X108.082 Y76.146 E7.90093
G1 X108.806 Y76.301 E7.92022
G1 X109.486 Y76.522 E7.93884
G1 X109.820 Y76.660 E7.94827
G1 X110.479 Y76.997 E7.96756
G1 X111.078 Y77.387 E7.98618
G1 X111.365 Y77.607 E7.99560
G1 X111.915 Y78.103 E8.01489
G1 X112.393 Y78.634 E8.03351
G1 X112.613 Y78.922 E8.04296
G1 X113.003 Y79.521 E8.06158
G1 X113.340 Y80.180 E8.08087
G1 X113.478 Y80.514 E8.09029
G1 X113.699 Y81.194 E8.10891
G1 X113.854 Y81.918 E8.12820
G1 X113.901 Y82.276 E8.13762
G1 X113.939 Y83.027 E8.15721
G1 X113.939 Y116.982 E9.04191
G1 X113.899 Y117.734 E9.06155
G1 X113.784 Y118.452 E9.08048
G1 X113.595 Y119.154 E9.09944
G1 X113.339 Y119.821 E9.11806
G1 X113.183 Y120.148 E9.12748
G1 X112.813 Y120.788 E9.14675
G1 X112.384 Y121.375 E9.16571
G1 X111.915 Y121.897 E9.18399
G1 X111.375 Y122.385 E9.20294
G1 X110.788 Y122.813 E9.22187
G1 X110.148 Y123.183 E9.24114
G1 X109.821 Y123.339 E9.25056
G1 X109.141 Y123.600 E9.26955
G1 X108.819 Y123.696 E9.27832
G1 X108.082 Y123.854 E9.29795
G1 X107.724 Y123.901 E9.30736
G1 X106.973 Y123.939 E9.32696
G1 X103.340 Y123.939 E9.42162
G1 X102.748 Y123.903 E9.43705
G1 X102.484 Y123.861 E9.44403
G1 X101.932 Y123.720 E9.45886
G1 X101.680 Y123.629 E9.46585
G1 X101.165 Y123.387 E9.48067
G1 X100.921 Y123.243 E9.48807
G1 X100.704 Y123.095 E9.49490
G1 X100.265 Y122.732 E9.50976
G1 X100.075 Y122.542 E9.51675
G1 X99.712 Y122.104 E9.53157
G1 X99.562 Y121.882 E9.53856
G1 X99.288 Y121.383 E9.55339
G1 X99.181 Y121.137 E9.56037
G1 X99.011 Y120.611 E9.57477
G1 X98.903 Y120.041 E9.58988
G1 X98.867 Y119.467 E9.60487
G1 X98.867 Y115.774 E9.70110
G1 X102.223 Y115.774 E9.78853
G1 X102.223 Y117.662 E9.83773
G1 X102.281 Y118.271 E9.85366
G1 X102.464 Y118.905 E9.87086
G1 X102.760 Y119.495 E9.88805
G1 X103.159 Y120.018 E9.90518
G1 X103.610 Y120.429 E9.92109
G1 X103.941 Y120.655 E9.93155
G1 X104.468 Y120.917 E9.94688
G1 X104.849 Y121.044 E9.95735
G1 X105.449 Y121.155 E9.97323
G1 X111.004 Y121.167 E10.11799
G1 X110.646 Y120.749 F7800.000
G1 F3600
G1 X110.643 Y79.357 E11.19647
G1 X89.357 Y79.357 E11.75108
G1 X89.357 Y124.357 E12.92359
G1 X85.643 Y124.357 E13.02037
G1 X85.643 Y75.643 E14.28966
G1 X106.993 Y75.643 E14.84596
G1 X107.761 Y75.683 E14.86601
G1 X108.153 Y75.734 E14.87629
G1 X108.914 Y75.897 E14.89658
G1 X109.630 Y76.130 E14.91619
G1 X109.995 Y76.281 E14.92648
G1 X110.688 Y76.635 E14.94677
G1 X111.320 Y77.045 E14.96638
G1 X111.633 Y77.285 E14.97667
G1 X112.211 Y77.807 E14.99696
G1 X112.714 Y78.367 E15.01657
G1 X112.955 Y78.680 E15.02687
G1 X113.365 Y79.312 E15.04648
G1 X113.719 Y80.005 E15.06677
G1 X113.870 Y80.370 E15.07706
G1 X114.103 Y81.086 E15.09667
G1 X114.266 Y81.847 E15.11696
G1 X114.317 Y82.238 E15.12724
G1 X114.357 Y83.017 E15.14754
G1 X114.357 Y116.993 E16.03282
G1 X114.315 Y117.779 E16.05332
G1 X114.193 Y118.539 E16.07339
G1 X113.993 Y119.284 E16.09348
G1 X113.723 Y119.986 E16.11309
G1 X113.553 Y120.343 E16.12338
G1 X113.163 Y121.016 E16.14366
G1 X112.709 Y121.639 E16.16374
G1 X112.211 Y122.193 E16.18315
G1 X111.639 Y122.709 E16.20324
G1 X111.016 Y123.163 E16.22331
G1 X110.343 Y123.553 E16.24359
G1 X109.986 Y123.723 E16.25387
G1 X109.276 Y123.996 E16.27370
G1 X108.922 Y124.101 E16.28332
G1 X108.153 Y124.266 E16.30381
G1 X107.762 Y124.317 E16.31410
G1 X106.983 Y124.357 E16.33440
G1 X103.327 Y124.357 E16.42968
G1 X102.703 Y124.319 E16.44596
G1 X102.399 Y124.271 E16.45397
G1 X101.810 Y124.120 E16.46983
G1 X101.520 Y124.016 E16.47784
G1 X100.970 Y123.757 E16.49370
G1 X100.697 Y123.596 E16.50196
G1 X100.453 Y123.429 E16.50965
G1 X99.983 Y123.041 E16.52553
G1 X99.766 Y122.823 E16.53354
G1 X99.378 Y122.355 E16.54940
G1 X99.205 Y122.100 E16.55741
G1 X98.912 Y121.567 E16.57327
G1 X98.790 Y121.284 E16.58128
G1 X98.605 Y120.715 E16.59687
G1 X98.488 Y120.094 E16.61336
G1 X98.450 Y119.480 E16.62937
G1 X98.450 Y115.356 E16.73682
G1 X102.641 Y115.356 E16.84603
G1 X102.641 Y117.642 E16.90559
G1 X102.693 Y118.193 E16.92000
G1 X102.854 Y118.752 E16.93517
G1 X103.116 Y119.272 E16.95034
G1 X103.468 Y119.734 E16.96547
G1 X103.870 Y120.100 E16.97963
G1 X104.153 Y120.294 E16.98858
G1 X104.628 Y120.530 E17.00239
G1 X104.954 Y120.638 E17.01134
G1 X105.488 Y120.737 E17.02549
G1 X110.586 Y120.748 E17.15834
G1 X110.229 Y120.330 F7800.000
G1 F1800
G1 X110.225 Y79.775 E18.21503
G1 X89.775 Y79.775 E18.74787
G1 X89.775 Y124.775 E19.92038
G1 X85.225 Y124.775 E20.03893
G1 X85.225 Y75.225 E21.32999
G1 X107.004 Y75.225 E21.89747
G1 X107.800 Y75.267 E21.91822
G1 X108.224 Y75.322 E21.92937
G1 X109.023 Y75.493 E21.95066
G1 X109.775 Y75.737 E21.97126
G1 X110.170 Y75.901 E21.98241
G1 X110.898 Y76.273 E22.00370
G1 X111.561 Y76.704 E22.02430
G1 X111.900 Y76.964 E22.03545
G1 X112.507 Y77.512 E22.05674
G1 X113.036 Y78.099 E22.07734
G1 X113.296 Y78.439 E22.08850
G1 X113.727 Y79.102 E22.10910
G1 X114.099 Y79.830 E22.13039
G1 X114.263 Y80.225 E22.14154
G1 X114.507 Y80.977 E22.16214
G1 X114.678 Y81.776 E22.18343
