; generated by PrusaSlicer 2.1.1+ on 2021-06-21 at 08:56:21 UTC

; 

; external perimeters extrusion width = 0.45mm
; perimeters extrusion width = 0.45mm
; infill extrusion width = 0.45mm
; solid infill extrusion width = 0.45mm
; top infill extrusion width = 0.40mm
; first layer extrusion width = 0.80mm

M107
M190 S60 ; set bed temperature and wait for it to be reached
M104 S200 ; set temperature
G28 ; home all axes
G1 Z5 F5000 ; lift nozzle
M109 S200 ; set temperature and wait for it to be reached
G21 ; set units to millimeters
G90 ; use absolute coordinates
M82 ; use absolute distances for extrusion
G92 E0
; Filament gcode
G1 Z0.400 F7800.000
G1 E-2.00000 F2400.00000
G92 E0
G1 X133.260 Y85.560 F7800.000
G1 E2.00000 F2400.00000
G1 F1800
G1 X134.276 Y84.312 E2.19114
G1 X135.793 Y82.953 E2.43307
G1 X137.403 Y81.955 E2.65799
G1 X139.127 Y81.251 E2.87919
G1 X141.152 Y80.809 E3.12531
G1 X142.540 Y80.717 E3.29054
G1 X170.566 Y80.717 E6.61904
G1 X172.335 Y80.859 E6.82981
G1 X174.154 Y81.304 E7.05218
G1 X175.841 Y82.020 E7.26990
G1 X177.554 Y83.133 E7.51255
G1 X178.912 Y84.389 E7.73219
G1 X179.723 Y85.369 E7.88323
G1 X180.427 Y86.469 E8.03843
G1 X181.281 Y88.333 E8.28186
G1 X181.713 Y89.959 E8.48174
G1 X181.917 Y92.047 E8.73085
G1 X181.917 Y112.599 E11.17167
G1 X181.828 Y113.948 E11.33225
G1 X181.416 Y115.904 E11.56964
G1 X180.790 Y117.498 E11.77312
G1 X179.867 Y119.077 E11.99032
G1 X178.865 Y120.311 E12.17903
G1 X177.252 Y121.750 E12.43578
G1 X175.423 Y122.829 E12.68798
G1 X174.137 Y123.350 E12.85278
G1 X172.804 Y123.699 E13.01637
G1 X170.675 Y123.928 E13.27067
G1 X142.542 Y123.931 E16.61199
G1 X141.273 Y123.849 E16.76298
G1 X139.292 Y123.447 E17.00299
G1 X137.629 Y122.803 E17.21479
G1 X136.054 Y121.879 E17.43164
G1 X134.823 Y120.879 E17.62006
G1 X133.384 Y119.266 E17.87681
G1 X132.307 Y117.442 E18.12828
G1 X131.785 Y116.157 E18.29307
G1 X131.436 Y114.824 E18.45667
G1 X131.206 Y112.702 E18.71024
G1 X131.203 Y92.050 E21.16300
G1 X131.299 Y90.638 E21.33103
G1 X131.702 Y88.753 E21.56003
G1 X132.342 Y87.123 E21.76794
G1 X133.229 Y85.612 E21.97609
G1 E19.97609 F2400.00000
G92 E0
G1 X145.147 Y115.679 F7800.000
G1 E2.00000 F2400.00000
G1 F1800
G1 X145.021 Y115.310 E2.04630
G1 X145.186 Y115.235 E2.06783
G1 X145.655 Y114.918 E2.13501
G1 X146.063 Y114.527 E2.20219
G1 X146.399 Y114.072 E2.26937
G1 X146.654 Y113.567 E2.33654
G1 X146.820 Y113.026 E2.40372
G1 X146.892 Y112.465 E2.47090
G1 X146.868 Y111.900 E2.53808
G1 X146.814 Y111.652 E2.56822
G1 X147.731 Y111.652 E2.67715
G1 X147.731 Y112.502 E2.77809
G1 X147.687 Y113.069 E2.84565
G1 X147.571 Y113.552 E2.90465
G1 X147.381 Y114.011 E2.96365
G1 X147.121 Y114.435 E3.02266
G1 X146.798 Y114.813 E3.08166
G1 X146.421 Y115.135 E3.14066
G1 X145.997 Y115.395 E3.19967
G1 X145.538 Y115.585 E3.25867
G1 X145.206 Y115.665 E3.29928
G1 E1.29928 F2400.00000
G92 E0
G1 X142.106 Y115.347 F7800.000
G1 E2.00000 F2400.00000
G1 F1800
G1 X141.963 Y115.676 E2.04263
G1 X141.581 Y115.585 E2.08922
G1 X141.122 Y115.395 E2.14822
G1 X140.699 Y115.135 E2.20722
G1 X140.321 Y114.813 E2.26623
G1 X139.998 Y114.435 E2.32523
G1 X139.739 Y114.011 E2.38424
G1 X139.549 Y113.552 E2.44324
G1 X139.433 Y113.069 E2.50224
G1 X139.388 Y112.502 E2.56980
G1 X139.388 Y111.652 E2.67074
G1 X140.305 Y111.652 E2.77967
G1 X140.250 Y111.906 E2.81052
G1 X140.230 Y112.481 E2.87889
G1 X140.300 Y113.026 E2.94415
G1 X140.465 Y113.567 E3.01133
G1 X140.720 Y114.072 E3.07851
G1 X141.056 Y114.527 E3.14569
G1 X141.469 Y114.923 E3.21358
G1 X142.056 Y115.314 E3.29743
G1 E1.29743 F2400.00000
G92 E0
G1 X141.305 Y110.938 F7800.000
G1 E2.00000 F2400.00000
G1 F1800
G1 X141.056 Y111.557 E2.07925
G1 X140.962 Y111.995 E2.13243
G1 X140.946 Y112.449 E2.18636
G1 X141.000 Y112.875 E2.23746
G1 X141.130 Y113.300 E2.29020
G1 X141.330 Y113.697 E2.34294
G1 X141.594 Y114.054 E2.39568
G1 X141.917 Y114.363 E2.44885
G1 X142.295 Y114.615 E2.50279
G1 X142.687 Y114.792 E2.55388
G1 X143.117 Y114.904 E2.60663
G1 X143.560 Y114.942 E2.65937
G1 X144.002 Y114.904 E2.71211
G1 X144.432 Y114.792 E2.76485
G1 X144.837 Y114.610 E2.81759
G1 X145.204 Y114.361 E2.87033
G1 X145.525 Y114.054 E2.92307
G1 X145.789 Y113.697 E2.97581
G1 X145.989 Y113.300 E3.02855
G1 X146.119 Y112.875 E3.08129
G1 X146.175 Y112.435 E3.13403
G1 X146.157 Y111.991 E3.18677
G1 X146.063 Y111.557 E3.23952
G1 X145.814 Y110.938 E3.31877
G1 X148.445 Y110.938 E3.63126
G1 X148.445 Y112.530 E3.82035
G1 X148.394 Y113.181 E3.89791
G1 X148.252 Y113.774 E3.97027
G1 X148.019 Y114.336 E4.04262
G1 X147.701 Y114.856 E4.11498
G1 X147.305 Y115.319 E4.18733
G1 X146.842 Y115.715 E4.25968
G1 X146.322 Y116.033 E4.33204
G1 X145.759 Y116.266 E4.40439
G1 X145.167 Y116.408 E4.47675
G1 X144.516 Y116.460 E4.55432
G1 X142.603 Y116.460 E4.78145
G1 X141.952 Y116.408 E4.85902
G1 X141.360 Y116.266 E4.93137
G1 X140.797 Y116.033 E5.00372
G1 X140.278 Y115.715 E5.07608
G1 X139.814 Y115.319 E5.14843
G1 X139.419 Y114.856 E5.22079
G1 X139.100 Y114.336 E5.29314
G1 X138.867 Y113.774 E5.36549
G1 X138.725 Y113.181 E5.43785
G1 X138.674 Y112.530 E5.51542
G1 X138.674 Y110.938 E5.70450
G1 X141.245 Y110.938 E6.00987
G1 X142.777 Y110.224 F7800.000
G1 F1800
G1 X142.860 Y110.544 E6.04921
G1 X142.495 Y110.748 E6.09891
G1 X142.244 Y110.951 E6.13721
G1 X142.031 Y111.193 E6.17552
G1 X141.862 Y111.468 E6.21382
G1 X141.742 Y111.767 E6.25212
G1 X141.673 Y112.084 E6.29058
G1 X141.661 Y112.416 E6.33008
G1 X141.701 Y112.724 E6.36701
G1 X141.795 Y113.033 E6.40532
G1 X141.941 Y113.321 E6.44362
G1 X142.132 Y113.580 E6.48192
G1 X142.366 Y113.804 E6.52038
G1 X142.643 Y113.989 E6.55988
G1 X142.926 Y114.117 E6.59681
G1 X143.238 Y114.198 E6.63512
G1 X143.560 Y114.225 E6.67342
G1 X143.881 Y114.198 E6.71172
G1 X144.193 Y114.117 E6.75003
G1 X144.487 Y113.984 E6.78833
G1 X144.754 Y113.803 E6.82663
G1 X144.987 Y113.580 E6.86493
G1 X145.179 Y113.321 E6.90324
G1 X145.324 Y113.033 E6.94154
G1 X145.418 Y112.724 E6.97984
G1 X145.459 Y112.405 E7.01814
G1 X145.446 Y112.082 E7.05645
G1 X145.378 Y111.767 E7.09475
G1 X145.257 Y111.468 E7.13305
G1 X145.088 Y111.193 E7.17135
G1 X144.875 Y110.951 E7.20966
G1 X144.624 Y110.748 E7.24796
G1 X144.259 Y110.544 E7.29767
G1 X144.342 Y110.224 E7.33700
G1 X149.160 Y110.224 E7.90911
G1 X149.160 Y112.558 E8.18634
G1 X149.102 Y113.293 E8.27392
G1 X148.933 Y113.995 E8.35963
G1 X148.657 Y114.662 E8.44533
G1 X148.280 Y115.277 E8.53103
G1 X147.811 Y115.826 E8.61674
G1 X147.263 Y116.294 E8.70244
G1 X146.647 Y116.671 E8.78815
G1 X145.981 Y116.947 E8.87385
G1 X145.279 Y117.116 E8.95956
G1 X144.544 Y117.174 E9.04713
G1 X142.575 Y117.174 E9.28093
G1 X141.840 Y117.116 E9.36851
G1 X141.139 Y116.947 E9.45421
G1 X140.472 Y116.671 E9.53992
G1 X139.857 Y116.294 E9.62562
G1 X139.308 Y115.826 E9.71132
G1 X138.839 Y115.277 E9.79703
G1 X138.462 Y114.662 E9.88273
G1 X138.186 Y113.995 E9.96844
G1 X138.017 Y113.293 E10.05414
G1 X137.960 Y112.558 E10.14172
G1 X137.960 Y110.224 E10.41895
G1 X142.717 Y110.224 E10.98394
G1 X142.710 Y110.548 F7800.000
G1 X143.350 Y110.836
G1 F1800
G1 X144.013 Y109.903 E11.02563
G1 X143.107 Y109.903 F7800.000
G1 F1800
G1 X143.770 Y110.836 E11.06733
G1 X145.076 Y110.613 F7800.000
G1 F1800
G1 X145.163 Y110.644 E11.06925
G1 X145.174 Y110.648 E11.06952
G1 X145.225 Y110.671 E11.07081
G1 X145.381 Y110.925 E11.07767
G1 E9.07767 F2400.00000
G92 E0
G1 X147.302 Y112.009 F7800.000
G1 E2.00000 F2400.00000
G1 F1800
G1 X147.312 Y112.478 E2.01104
G1 X147.312 Y112.485 E2.01120
G1 X147.312 Y112.488 E2.01126
G1 X147.259 Y113.001 E2.02412
G1 X147.239 Y113.111 E2.02690
G1 X147.236 Y113.122 E2.02717
G1 X147.155 Y113.417 E2.03513
G1 X147.047 Y113.719 E2.04349
G1 X147.043 Y113.729 E2.04372
G1 X147.002 Y113.818 E2.04589
G1 X146.792 Y114.196 E2.05544
G1 X146.762 Y114.240 E2.05631
G1 E0.05631 F2400.00000
G92 E0
G1 X144.743 Y115.600 F7800.000
G1 E2.00000 F2400.00000
G1 F1800
G1 X144.171 Y115.673 E2.08532
G1 X144.099 Y115.679 E2.09569
G1 X143.594 Y115.701 E2.16683
G1 X143.021 Y115.679 E2.24346
G1 X142.385 Y115.601 E2.32903
G1 E0.32903 F2400.00000
G92 E0
G1 X140.357 Y114.240 F7800.000
G1 E2.00000 F2400.00000
G1 F1800
G1 X140.328 Y114.196 E2.00087
G1 X140.117 Y113.818 E2.01043
G1 X140.076 Y113.729 E2.01260
G1 X140.072 Y113.719 E2.01282
G1 X139.964 Y113.417 E2.02118
G1 X139.883 Y113.122 E2.02915
G1 X139.881 Y113.111 E2.02941
G1 X139.861 Y113.001 E2.03219
G1 X139.810 Y112.506 E2.04462
G1 X139.809 Y112.495 E2.04484
G1 X139.809 Y112.485 E2.04505
G1 X139.817 Y112.009 E2.05628
G1 E0.05628 F2400.00000
G92 E0
G1 X141.738 Y110.925 F7800.000
G1 E2.00000 F2400.00000
G1 F1800
G1 X141.816 Y110.798 E2.00343
G1 X141.894 Y110.671 E2.00675
G1 X141.957 Y110.644 E2.00827
G1 X142.043 Y110.613 E2.01019
G1 E0.01019 F2400.00000
G92 E0
G1 X169.806 Y115.407 F7800.000
G1 E2.00000 F2400.00000
G1 F1800
G1 X170.186 Y115.235 E2.04960
G1 X170.655 Y114.919 E2.11678
G1 X171.063 Y114.527 E2.18396
G1 X171.399 Y114.072 E2.25114
G1 X171.654 Y113.567 E2.31832
G1 X171.820 Y113.026 E2.38549
G1 X171.892 Y112.465 E2.45268
G1 X171.868 Y111.900 E2.51985
G1 X171.814 Y111.652 E2.54999
G1 X173.673 Y111.652 E2.77074
G1 X173.731 Y112.502 E2.87191
G1 X173.687 Y113.069 E2.93948
G1 X173.571 Y113.552 E2.99848
G1 X173.381 Y114.011 E3.05748
G1 X173.121 Y114.435 E3.11649
G1 X172.798 Y114.813 E3.17549
G1 X172.421 Y115.135 E3.23449
G1 X172.019 Y115.381 E3.29043
G1 X171.533 Y115.586 E3.35311
G1 X171.055 Y115.701 E3.41146
G1 X170.488 Y115.745 E3.47902
G1 X169.878 Y115.745 E3.55140
G1 X169.818 Y115.466 E3.58536
G1 E1.58536 F2400.00000
G92 E0
G1 X170.814 Y110.938 F7800.000
G1 E2.00000 F2400.00000
G1 F1800
G1 X174.173 Y110.938 E2.39888
G1 X174.253 Y111.128 E2.42333
G1 X174.394 Y111.716 E2.49525
G1 X174.445 Y112.368 E2.57282
G1 X174.394 Y113.181 E2.66964
G1 X174.252 Y113.774 E2.74199
G1 X174.019 Y114.336 E2.81434
G1 X173.701 Y114.856 E2.88670
G1 X173.305 Y115.319 E2.95905
G1 X172.842 Y115.715 E3.03141
G1 X172.346 Y116.018 E3.10043
G1 X171.756 Y116.267 E3.17647
G1 X171.167 Y116.408 E3.24842
G1 X170.516 Y116.460 E3.32599
G1 X168.603 Y116.460 E3.55312
G1 X167.952 Y116.408 E3.63069
G1 X167.360 Y116.266 E3.70305
G1 X166.797 Y116.033 E3.77540
G1 X166.302 Y115.729 E3.84443
G1 X165.812 Y115.317 E3.92046
G1 X165.419 Y114.856 E3.99242
G1 X165.100 Y114.336 E4.06477
G1 X164.867 Y113.774 E4.13713
G1 X164.725 Y113.181 E4.20948
G1 X164.674 Y112.530 E4.28705
G1 X164.674 Y110.938 E4.47613
G1 X166.303 Y110.938 E4.66960
G1 X166.053 Y111.571 E4.75037
G1 X165.963 Y111.991 E4.80147
G1 X165.944 Y112.435 E4.85421
G1 X166.000 Y112.875 E4.90695
G1 X166.130 Y113.300 E4.95969
G1 X166.330 Y113.697 E5.01243
G1 X166.596 Y114.057 E5.06560
G1 X166.926 Y114.369 E5.11954
G1 X167.283 Y114.610 E5.17064
G1 X167.687 Y114.792 E5.22338
G1 X168.117 Y114.904 E5.27612
G1 X168.560 Y114.942 E5.32886
G1 X169.002 Y114.904 E5.38160
G1 X169.432 Y114.792 E5.43434
G1 X169.837 Y114.610 E5.48708
G1 X170.204 Y114.361 E5.53982
G1 X170.525 Y114.054 E5.59256
G1 X170.789 Y113.697 E5.64530
G1 X170.989 Y113.300 E5.69804
G1 X171.119 Y112.875 E5.75078
G1 X171.175 Y112.435 E5.80353
G1 X171.157 Y111.991 E5.85627
G1 X171.063 Y111.557 E5.90901
G1 X170.837 Y110.994 E5.98113
G1 X169.342 Y110.224 F7800.000
G1 F1800
G1 X174.647 Y110.224 E6.61108
G1 X174.934 Y110.904 E6.69876
G1 X175.102 Y111.604 E6.78431
G1 X175.160 Y112.340 E6.87189
G1 X175.160 Y112.558 E6.89784
G1 X175.102 Y113.293 E6.98542
G1 X174.933 Y113.995 E7.07112
G1 X174.657 Y114.662 E7.15683
G1 X174.280 Y115.277 E7.24253
G1 X173.811 Y115.826 E7.32824
G1 X173.263 Y116.294 E7.41394
G1 X172.673 Y116.656 E7.49606
G1 X171.980 Y116.948 E7.58545
G1 X171.279 Y117.116 E7.67101
G1 X170.544 Y117.174 E7.75859
G1 X168.575 Y117.174 E7.99239
G1 X167.840 Y117.116 E8.07996
G1 X167.139 Y116.947 E8.16567
G1 X166.472 Y116.671 E8.25137
G1 X165.882 Y116.310 E8.33349
G1 X165.307 Y115.825 E8.42288
G1 X164.839 Y115.277 E8.50844
G1 X164.462 Y114.662 E8.59415
G1 X164.186 Y113.995 E8.67985
G1 X164.018 Y113.293 E8.76555
G1 X163.960 Y112.558 E8.85313
G1 X163.960 Y110.224 E9.13036
G1 X167.777 Y110.224 E9.58371
G1 X167.860 Y110.544 E9.62304
G1 X167.495 Y110.748 E9.67275
G1 X167.244 Y110.951 E9.71105
G1 X167.031 Y111.193 E9.74936
G1 X166.861 Y111.469 E9.78781
G1 X166.739 Y111.778 E9.82731
G1 X166.674 Y112.082 E9.86425
G1 X166.660 Y112.405 E9.90255
G1 X166.701 Y112.724 E9.94085
G1 X166.795 Y113.033 E9.97915
G1 X166.941 Y113.321 E10.01746
G1 X167.133 Y113.581 E10.05592
G1 X167.375 Y113.810 E10.09541
G1 X167.632 Y113.984 E10.13235
G1 X167.926 Y114.117 E10.17065
G1 X168.238 Y114.198 E10.20895
G1 X168.560 Y114.225 E10.24726
G1 X168.881 Y114.198 E10.28556
G1 X169.193 Y114.117 E10.32386
G1 X169.487 Y113.984 E10.36216
G1 X169.754 Y113.803 E10.40047
G1 X169.987 Y113.580 E10.43877
G1 X170.179 Y113.321 E10.47707
G1 X170.324 Y113.033 E10.51538
G1 X170.418 Y112.724 E10.55368
G1 X170.459 Y112.405 E10.59198
G1 X170.446 Y112.082 E10.63028
G1 X170.378 Y111.767 E10.66859
G1 X170.257 Y111.468 E10.70689
G1 X170.088 Y111.193 E10.74519
G1 X169.875 Y110.951 E10.78349
G1 X169.624 Y110.748 E10.82180
G1 X169.259 Y110.544 E10.87150
G1 X169.327 Y110.282 E10.90371
G1 X169.717 Y110.364 F7800.000
G1 X168.350 Y110.836
G1 F1800
G1 X169.013 Y109.903 E10.94541
G1 X168.107 Y109.903 F7800.000
G1 F1800
G1 X168.770 Y110.836 E10.98711
G1 X170.076 Y110.613 F7800.000
G1 F1800
G1 X170.163 Y110.644 E10.98903
G1 X170.174 Y110.648 E10.98929
G1 X170.225 Y110.671 E10.99059
G1 X170.381 Y110.925 E10.99744
G1 E8.99744 F2400.00000
G92 E0
G1 X172.270 Y112.009 F7800.000
G1 E2.00000 F2400.00000
G1 F1800
G1 X172.785 Y112.549 E2.11771
G1 X172.804 Y112.571 E2.12312
G1 X172.768 Y112.924 E2.19038
G1 X172.722 Y113.173 E2.23841
G1 X172.701 Y113.265 E2.25588
G1 X172.700 Y113.269 E2.25677
G1 X172.580 Y113.603 E2.32236
G1 X172.525 Y113.726 E2.34648
G1 X172.469 Y113.849 E2.36985
G1 X172.431 Y113.925 E2.38417
G1 X172.428 Y113.931 E2.38532
G1 X172.016 Y114.550 E2.50824
G1 X171.605 Y115.168 E2.62571
G1 E0.62571 F2400.00000
G92 E0
G1 X169.396 Y115.200 F7800.000
G1 E2.00000 F2400.00000
G1 F1800
G1 X169.296 Y115.348 E2.02043
G1 X169.196 Y115.495 E2.04210
G1 X169.095 Y115.643 E2.06501
G1 X169.081 Y115.662 E2.06818
G1 X169.067 Y115.681 E2.07133
G1 X168.594 Y115.699 E2.13498
G1 X168.526 Y115.697 E2.14400
G1 X168.071 Y115.659 E2.20459
G1 X168.023 Y115.652 E2.21103
G1 X167.958 Y115.638 E2.21983
G1 X167.594 Y115.547 E2.26933
G1 X167.470 Y115.506 E2.28650
G1 X167.409 Y115.482 E2.29496
G1 X167.138 Y115.365 E2.33340
G1 X166.952 Y115.267 E2.36064
G1 X166.897 Y115.234 E2.36867
G1 X166.735 Y115.129 E2.39317
G1 X166.498 Y114.950 E2.43076
G1 X166.452 Y114.913 E2.43798
G1 X166.047 Y114.502 E2.50521
G1 X165.727 Y114.035 E2.56821
G1 X165.510 Y113.565 E2.62275
G1 X165.498 Y113.526 E2.62707
G1 X165.376 Y113.078 E2.67548
G1 X165.368 Y113.037 E2.67962
G1 X165.361 Y112.988 E2.68451
G1 X165.311 Y112.505 E2.73161
G1 X165.309 Y112.486 E2.73343
G1 X165.308 Y112.438 E2.73780
G1 X165.319 Y111.933 E2.78622
G1 X165.322 Y111.884 E2.79099
G1 X165.354 Y111.590 E2.82113
G1 X165.385 Y111.295 E2.85268
G1 X166.731 Y110.933 F7800.000
G1 F1800
G1 X166.811 Y110.803 E2.85623
G1 X166.890 Y110.673 E2.86089
G1 X166.918 Y110.661 E2.86183
G1 X166.946 Y110.648 E2.86263
G1 X166.957 Y110.644 E2.86290
G1 X167.043 Y110.613 E2.86482
G1 E0.86482 F2400.00000
G92 E0
G1 X171.824 Y92.995 F7800.000
G1 E2.00000 F2400.00000
G1 F1800
G1 X171.892 Y92.465 E2.06348
G1 X171.868 Y91.900 E2.13066
G1 X171.748 Y91.347 E2.19783
G1 X171.537 Y90.822 E2.26501
G1 X171.238 Y90.336 E2.33290
G1 X170.855 Y89.906 E2.40127
G1 X170.427 Y89.561 E2.46653
G1 X169.822 Y89.223 E2.54888
G1 X169.905 Y88.902 E2.58821
G1 X170.488 Y88.902 E2.65740
G1 X171.029 Y88.945 E2.72189
G1 X171.543 Y89.065 E2.78458
G1 X171.997 Y89.253 E2.84292
G1 X172.421 Y89.512 E2.90193
G1 X172.798 Y89.835 E2.96093
G1 X173.104 Y90.193 E3.01686
G1 X173.383 Y90.642 E3.07955
G1 X173.571 Y91.095 E3.13789
G1 X173.687 Y91.579 E3.19690
G1 X173.731 Y92.252 E3.27705
G1 X173.673 Y92.995 E3.36563
G1 X171.884 Y92.995 E3.57812
G1 X170.782 Y93.710 F7800.000
G1 F1800
G1 X170.989 Y93.300 E3.63260
G1 X171.119 Y92.875 E3.68534
G1 X171.175 Y92.435 E3.73808
G1 X171.157 Y91.991 E3.79083
G1 X171.063 Y91.557 E3.84356
G1 X170.897 Y91.145 E3.89631
G1 X170.663 Y90.764 E3.94948
