; generated by PrusaSlicer 2.1.1+ on 2021-02-10 at 20:23:49 UTC

; 

; external perimeters extrusion width = 0.45mm
; perimeters extrusion width = 0.45mm
; infill extrusion width = 0.45mm
; solid infill extrusion width = 0.45mm
; top infill extrusion width = 0.40mm
; support material extrusion width = 0.40mm
; first layer extrusion width = 0.80mm

M107
M190 S60 ; set bed temperature and wait for it to be reached
M104 S200 ; set temperature
G28 ; home all axes
G1 Z5 F5000 ; lift nozzle
M109 S200 ; set temperature and wait for it to be reached
G21 ; set units to millimeters
G90 ; use absolute coordinates
M82 ; use absolute distances for extrusion
G92 E0
; Filament gcode
G1 Z0.400 F7800.000
G1 E-2.00000 F2400.00000
G92 E0
G1 X79.636 Y46.423 F7800.000
G1 E2.00000 F2400.00000
G1 F1800
G1 X80.148 Y45.702 E2.10497
G1 X80.755 Y45.060 E2.20993
G1 X81.444 Y44.507 E2.31490
G1 X82.204 Y44.056 E2.41986
G1 X83.019 Y43.714 E2.52483
G1 X83.941 Y43.476 E2.63791
G1 X84.888 Y43.379 E2.75099
G1 X95.063 Y43.377 E3.95943
G1 X96.234 Y43.485 E4.09905
G1 X97.370 Y43.810 E4.23940
G1 X98.427 Y44.339 E4.37976
G1 X99.363 Y45.051 E4.51938
G1 X109.786 Y55.478 E6.27037
G1 X110.686 Y56.767 E6.45706
G1 X111.242 Y58.237 E6.64375
G1 X111.421 Y59.718 E6.82089
G1 X111.421 Y109.740 E12.76177
G1 X111.367 Y110.560 E12.85936
G1 X111.173 Y111.492 E12.97244
G1 X110.841 Y112.385 E13.08552
G1 X110.381 Y113.218 E13.19860
G1 X109.801 Y113.973 E13.31168
G1 X99.496 Y124.290 E15.04345
G1 X98.887 Y124.812 E15.13882
G1 X98.211 Y125.257 E15.23492
G1 X96.861 Y125.831 E15.40913
G1 X95.415 Y126.081 E15.58333
G1 X85.038 Y126.091 E16.81575
G1 X84.237 Y126.037 E16.91112
G1 X83.174 Y125.803 E17.04042
G1 X82.171 Y125.395 E17.16899
G1 X81.248 Y124.818 E17.29830
G1 X80.436 Y124.093 E17.42760
G1 X79.760 Y123.239 E17.55691
G1 X79.242 Y122.288 E17.68547
G1 X78.892 Y121.258 E17.81478
G1 X78.722 Y120.182 E17.94408
G1 X78.706 Y49.727 E26.31167
G1 X78.760 Y48.907 E26.40926
G1 X78.936 Y48.041 E26.51422
G1 X79.230 Y47.208 E26.61919
G1 X79.609 Y46.476 E26.71703
G1 E24.71703 F2400.00000
G92 E0
G1 X93.235 Y61.562 F7800.000
G1 E2.00000 F2400.00000
G1 F1800
G1 X103.235 Y61.562 E3.18766
G1 X103.235 Y107.905 E8.69163
G1 X93.235 Y107.905 E9.87929
G1 X93.235 Y117.905 E11.06694
G1 X86.892 Y117.905 E11.82031
G1 X86.892 Y51.562 E19.69959
G1 X93.235 Y51.562 E20.45297
G1 X93.235 Y61.502 E21.63349
G1 X93.949 Y60.848 F7800.000
G1 F1800
G1 X103.949 Y60.848 E22.82115
G1 X103.949 Y108.619 E28.49476
G1 X93.949 Y108.619 E29.68242
G1 X93.949 Y118.619 E30.87007
G1 X86.178 Y118.619 E31.79308
G1 X86.178 Y50.848 E39.84199
G1 X93.949 Y50.848 E40.76500
G1 X93.949 Y60.788 E41.94553
G1 X94.663 Y60.134 F7800.000
G1 F1800
G1 X104.663 Y60.134 E43.13318
G1 X104.663 Y109.334 E48.97643
G1 X94.663 Y109.334 E50.16408
G1 X94.663 Y119.334 E51.35174
G1 X85.463 Y119.334 E52.44438
G1 X85.463 Y50.134 E60.66293
G1 X94.663 Y50.134 E61.75557
G1 X94.663 Y60.074 E62.93610
G1 X94.762 Y60.521 F7800.000
G1 E60.93610 F2400.00000
G92 E0
G1 X93.462 Y61.776 F7800.000
G1 E2.00000 F2400.00000
G1 F1800
G1 X102.700 Y71.014 E3.55724
G1 X102.700 Y70.000 E3.67807
G1 X94.797 Y62.098 E5.01024
G1 X95.811 Y62.098 E5.13108
G1 X102.700 Y68.986 E6.29236
G1 X102.700 Y67.972 E6.41320
G1 X96.825 Y62.098 E7.40360
G1 X97.838 Y62.098 E7.52443
G1 X102.700 Y66.959 E8.34394
G1 X102.700 Y65.945 E8.46478
G1 X98.852 Y62.098 E9.11339
G1 X99.866 Y62.098 E9.23423
G1 X102.700 Y64.931 E9.71196
G1 X102.700 Y63.918 E9.83280
G1 X100.879 Y62.098 E10.13964
G1 X101.893 Y62.098 E10.26047
G1 X103.021 Y63.225 E10.45060
G1 E8.45060 F2400.00000
G92 E0
G1 X93.021 Y53.225 F7800.000
G1 E2.00000 F2400.00000
G1 F1800
G1 X91.893 Y52.098 E2.19013
G1 X90.879 Y52.098 E2.31096
G1 X92.700 Y53.918 E2.61780
G1 X92.700 Y54.931 E2.73864
G1 X89.866 Y52.098 E3.21636
G1 X88.852 Y52.098 E3.33720
G1 X92.700 Y55.945 E3.98581
G1 X92.700 Y56.959 E4.10665
G1 X87.838 Y52.098 E4.92615
G1 X87.427 Y52.098 E4.97514
G1 X87.427 Y52.700 E5.04699
G1 X92.700 Y57.972 E5.93577
G1 X92.700 Y58.986 E6.05661
G1 X87.427 Y53.714 E6.94539
G1 X87.427 Y54.728 E7.06622
G1 X92.700 Y60.000 E7.95500
G1 X92.700 Y61.014 E8.07584
G1 X87.427 Y55.741 E8.96462
G1 X87.427 Y56.755 E9.08546
G1 X102.700 Y72.027 E11.66003
G1 X102.700 Y73.041 E11.78087
G1 X87.427 Y57.769 E14.35544
G1 X87.427 Y58.782 E14.47628
G1 X102.700 Y74.055 E17.05086
G1 X102.700 Y75.068 E17.17169
G1 X87.427 Y59.796 E19.74627
G1 X87.427 Y60.810 E19.86710
G1 X102.700 Y76.082 E22.44168
G1 X102.700 Y77.096 E22.56251
G1 X87.427 Y61.824 E25.13709
G1 X87.427 Y62.837 E25.25792
G1 X102.700 Y78.109 E27.83250
G1 X102.700 Y79.123 E27.95334
G1 X87.427 Y63.851 E30.52791
G1 X87.427 Y64.865 E30.64875
G1 X102.700 Y80.137 E33.22332
G1 X102.700 Y81.151 E33.34416
G1 X87.427 Y65.878 E35.91873
G1 X87.427 Y66.892 E36.03957
G1 X102.700 Y82.164 E38.61414
G1 X102.700 Y83.178 E38.73498
G1 X87.427 Y67.906 E41.30955
G1 X87.427 Y68.919 E41.43039
G1 X102.700 Y84.192 E44.00497
G1 X102.700 Y85.205 E44.12580
G1 X87.427 Y69.933 E46.70038
G1 X87.427 Y70.947 E46.82121
G1 X102.700 Y86.219 E49.39579
G1 X102.700 Y87.233 E49.51662
G1 X87.427 Y71.961 E52.09120
G1 X87.427 Y72.974 E52.21203
G1 X102.700 Y88.246 E54.78661
G1 X102.700 Y89.260 E54.90745
G1 X87.427 Y73.988 E57.48202
G1 X87.427 Y75.002 E57.60286
G1 X102.700 Y90.274 E60.17743
G1 X102.700 Y91.288 E60.29827
G1 X87.427 Y76.015 E62.87284
G1 X87.427 Y77.029 E62.99368
G1 X102.700 Y92.301 E65.56825
G1 X102.700 Y93.315 E65.68909
G1 X87.427 Y78.043 E68.26366
G1 X87.427 Y79.056 E68.38450
G1 X102.700 Y94.329 E70.95907
G1 X102.700 Y95.342 E71.07991
G1 X87.427 Y80.070 E73.65449
G1 X87.427 Y81.084 E73.77532
G1 X102.700 Y96.356 E76.34990
G1 X102.700 Y97.370 E76.47073
G1 X87.427 Y82.098 E79.04531
G1 X87.427 Y83.111 E79.16614
G1 X102.700 Y98.383 E81.74072
G1 X102.700 Y99.397 E81.86155
G1 X87.427 Y84.125 E84.43613
G1 X87.427 Y85.139 E84.55697
G1 X102.700 Y100.411 E87.13154
G1 X102.700 Y101.425 E87.25238
G1 X87.427 Y86.152 E89.82695
G1 X87.427 Y87.166 E89.94779
G1 X102.700 Y102.438 E92.52236
G1 X102.700 Y103.452 E92.64320
G1 X87.427 Y88.180 E95.21777
G1 X87.427 Y89.193 E95.33861
G1 X102.700 Y104.466 E97.91318
G1 X102.700 Y105.479 E98.03402
G1 X87.427 Y90.207 E100.60859
G1 X87.427 Y91.221 E100.72943
G1 X102.700 Y106.493 E103.30400
G1 X102.700 Y107.370 E103.40850
G1 X102.562 Y107.370 E103.42484
G1 X87.427 Y92.235 E105.97631
G1 X87.427 Y93.248 E106.09715
G1 X101.549 Y107.370 E108.47773
G1 X100.535 Y107.370 E108.59856
G1 X87.427 Y94.262 E110.80826
G1 X87.427 Y95.276 E110.92909
G1 X99.521 Y107.370 E112.96790
G1 X98.508 Y107.370 E113.08873
G1 X87.427 Y96.289 E114.95665
G1 X87.427 Y97.303 E115.07748
G1 X97.494 Y107.370 E116.77451
G1 X96.480 Y107.370 E116.89535
G1 X87.427 Y98.317 E118.42148
G1 X87.427 Y99.330 E118.54232
G1 X95.467 Y107.370 E119.89757
G1 X94.453 Y107.370 E120.01841
G1 X87.427 Y100.344 E121.20277
G1 X87.427 Y101.358 E121.32360
G1 X93.439 Y107.370 E122.33708
G1 X92.700 Y107.370 E122.42525
G1 X92.700 Y107.644 E122.45791
G1 X87.427 Y102.372 E123.34669
G1 X87.427 Y103.385 E123.46753
G1 X92.700 Y108.657 E124.35631
G1 X92.700 Y109.671 E124.47715
G1 X87.427 Y104.399 E125.36593
G1 X87.427 Y105.413 E125.48676
G1 X92.700 Y110.685 E126.37554
G1 X92.700 Y111.699 E126.49638
G1 X87.427 Y106.426 E127.38516
G1 X87.427 Y107.440 E127.50600
G1 X92.700 Y112.712 E128.39478
G1 X92.700 Y113.726 E128.51561
G1 X87.427 Y108.454 E129.40440
G1 X87.427 Y109.467 E129.52523
G1 X92.700 Y114.740 E130.41401
G1 X92.700 Y115.753 E130.53485
G1 X87.427 Y110.481 E131.42363
G1 X87.427 Y111.495 E131.54447
G1 X92.700 Y116.767 E132.43325
G1 X92.700 Y117.370 E132.50509
G1 X92.288 Y117.370 E132.55408
G1 X87.427 Y112.509 E133.37357
G1 X87.427 Y113.522 E133.49441
G1 X91.275 Y117.370 E134.14301
G1 X90.261 Y117.370 E134.26385
G1 X87.427 Y114.536 E134.74156
G1 X87.427 Y115.550 E134.86239
G1 X89.247 Y117.370 E135.16922
G1 X88.234 Y117.370 E135.29006
G1 X87.106 Y116.242 E135.48017
G1 Z0.550 F7800.000
M140 S55 ; set bed temperature
G1 X94.003 Y60.794
G1 F3600
G1 X104.004 Y60.794 E135.74073
G1 X104.003 Y108.673 E136.98824
G1 X94.003 Y108.673 E137.24880
G1 X94.003 Y118.673 E137.50936
G1 X86.125 Y118.673 E137.71465
G1 X86.125 Y50.794 E139.48328
G1 X94.003 Y50.794 E139.68857
G1 X94.003 Y60.734 E139.94756
G1 X94.421 Y60.376 F7800.000
G1 F3600
G1 X104.421 Y60.376 E140.20812
G1 X104.421 Y109.091 E141.47741
G1 X94.421 Y109.091 E141.73797
G1 X94.421 Y119.091 E141.99853
G1 X85.707 Y119.091 E142.22559
G1 X85.707 Y50.376 E144.01599
G1 X94.421 Y50.376 E144.24306
G1 X94.421 Y60.316 E144.50205
G1 X94.839 Y59.959 F7800.000
G1 F1800
G1 X104.839 Y59.959 E144.76261
G1 X104.839 Y109.509 E146.05367
G1 X94.839 Y109.509 E146.31423
G1 X94.839 Y119.509 E146.57479
G1 X85.289 Y119.509 E146.82362
G1 X85.289 Y49.959 E148.63580
G1 X94.839 Y49.959 E148.88463
G1 X94.839 Y59.899 E149.14363
G1 X94.940 Y60.346 F7800.000
G1 X86.250 Y51.768
G1 F1200
G1 X86.910 Y51.108 E149.16805
G1 X87.503 Y51.108 E149.18357
G1 X86.438 Y52.173 E149.22298
G1 X86.438 Y52.766 E149.23850
G1 X88.097 Y51.108 E149.29986
G1 X88.690 Y51.108 E149.31538
G1 X86.438 Y53.359 E149.39868
G1 X86.438 Y53.953 E149.41420
G1 X89.283 Y51.108 E149.51945
G1 X89.876 Y51.108 E149.53497
G1 X86.438 Y54.546 E149.66217
G1 X86.438 Y55.139 E149.67769
G1 X90.470 Y51.108 E149.82683
G1 X91.063 Y51.108 E149.84235
G1 X86.438 Y55.732 E150.01345
G1 X86.438 Y56.325 E150.02896
G1 X91.656 Y51.108 E150.22200
G1 X92.249 Y51.108 E150.23752
G1 X86.438 Y56.919 E150.45251
G1 X86.438 Y57.512 E150.46802
G1 X92.842 Y51.108 E150.70496
G1 X93.436 Y51.108 E150.72047
G1 X86.438 Y58.105 E150.97935
G1 X86.438 Y58.698 E150.99487
G1 X93.690 Y51.446 E151.26316
G1 X93.690 Y52.039 E151.27868
G1 X86.438 Y59.292 E151.54698
G1 X86.438 Y59.885 E151.56250
G1 X93.690 Y52.633 E151.83079
G1 X93.690 Y53.226 E151.84631
G1 X86.438 Y60.478 E152.11460
G1 X86.438 Y61.071 E152.13012
G1 X93.690 Y53.819 E152.39841
G1 X93.690 Y54.412 E152.41393
G1 X86.438 Y61.665 E152.68223
G1 X86.438 Y62.258 E152.69774
G1 X93.690 Y55.006 E152.96604
G1 X93.690 Y55.599 E152.98156
G1 X86.438 Y62.851 E153.24985
G1 X86.438 Y63.444 E153.26537
G1 X93.690 Y56.192 E153.53366
G1 X93.690 Y56.785 E153.54918
G1 X86.438 Y64.037 E153.81747
G1 X86.438 Y64.631 E153.83299
G1 X93.690 Y57.379 E154.10129
G1 X93.690 Y57.972 E154.11681
G1 X86.438 Y65.224 E154.38510
G1 X86.438 Y65.817 E154.40062
G1 X93.690 Y58.565 E154.66891
G1 X93.690 Y59.158 E154.68443
G1 X86.438 Y66.410 E154.95272
G1 X86.438 Y67.004 E154.96824
G1 X93.690 Y59.751 E155.23654
G1 X93.690 Y60.345 E155.25205
G1 X86.438 Y67.597 E155.52035
G1 X86.438 Y68.190 E155.53587
G1 X93.690 Y60.938 E155.80416
G1 X93.690 Y61.108 E155.80860
G1 X94.114 Y61.108 E155.81968
G1 X86.438 Y68.783 E156.10364
G1 X86.438 Y69.376 E156.11916
G1 X94.707 Y61.108 E156.42507
G1 X95.300 Y61.108 E156.44059
G1 X86.438 Y69.970 E156.76845
G1 X86.438 Y70.563 E156.78396
G1 X95.893 Y61.108 E157.13377
G1 X96.487 Y61.108 E157.14929
G1 X86.438 Y71.156 E157.52103
G1 X86.438 Y71.749 E157.53655
G1 X97.080 Y61.108 E157.93025
G1 X97.673 Y61.108 E157.94577
G1 X86.438 Y72.343 E158.36141
G1 X86.438 Y72.936 E158.37693
G1 X98.266 Y61.108 E158.81452
G1 X98.860 Y61.108 E158.83004
G1 X86.438 Y73.529 E159.28957
G1 X86.438 Y74.122 E159.30509
G1 X99.453 Y61.108 E159.78657
G1 X100.046 Y61.108 E159.80209
G1 X86.438 Y74.715 E160.30552
G1 X86.438 Y75.309 E160.32104
G1 X100.639 Y61.108 E160.84641
G1 X101.232 Y61.108 E160.86193
G1 X86.438 Y75.902 E161.40925
G1 X86.438 Y76.495 E161.42477
G1 X101.826 Y61.108 E161.99404
G1 X102.419 Y61.108 E162.00956
G1 X86.438 Y77.088 E162.60077
G1 X86.438 Y77.682 E162.61629
G1 X103.012 Y61.108 E163.22945
G1 X103.605 Y61.108 E163.24497
G1 X86.438 Y78.275 E163.88008
G1 X86.438 Y78.868 E163.89559
G1 X103.690 Y61.616 E164.53384
G1 X103.690 Y62.209 E164.54936
G1 X86.438 Y79.461 E165.18761
G1 X86.438 Y80.055 E165.20312
G1 X103.690 Y62.802 E165.84137
G1 X103.690 Y63.396 E165.85689
G1 X86.438 Y80.648 E166.49514
G1 X86.438 Y81.241 E166.51066
G1 X103.690 Y63.989 E167.14890
G1 X103.690 Y64.582 E167.16442
G1 X86.438 Y81.834 E167.80267
G1 X86.438 Y82.427 E167.81819
G1 X103.690 Y65.175 E168.45643
G1 X103.690 Y65.768 E168.47195
G1 X86.438 Y83.021 E169.11020
G1 X86.438 Y83.614 E169.12572
G1 X103.690 Y66.362 E169.76396
G1 X103.690 Y66.955 E169.77948
G1 X86.438 Y84.207 E170.41773
G1 X86.438 Y84.800 E170.43325
G1 X103.690 Y67.548 E171.07149
G1 X103.690 Y68.141 E171.08701
G1 X86.438 Y85.394 E171.72526
G1 X86.438 Y85.987 E171.74078
G1 X103.690 Y68.735 E172.37903
G1 X103.690 Y69.328 E172.39454
G1 X86.438 Y86.580 E173.03279
G1 X86.438 Y87.173 E173.04831
G1 X103.690 Y69.921 E173.68656
G1 X103.690 Y70.514 E173.70207
G1 X86.438 Y87.766 E174.34032
G1 X86.438 Y88.360 E174.35584
G1 X103.690 Y71.108 E174.99409
G1 X103.690 Y71.701 E175.00961
G1 X86.438 Y88.953 E175.64785
G1 X86.438 Y89.546 E175.66337
G1 X103.690 Y72.294 E176.30162
G1 X103.690 Y72.887 E176.31714
G1 X86.438 Y90.139 E176.95538
G1 X86.438 Y90.733 E176.97090
G1 X103.690 Y73.480 E177.60915
G1 X103.690 Y74.074 E177.62467
G1 X86.438 Y91.326 E178.26291
G1 X86.438 Y91.919 E178.27843
G1 X103.690 Y74.667 E178.91668
G1 X103.690 Y75.260 E178.93220
G1 X86.438 Y92.512 E179.57044
G1 X86.438 Y93.105 E179.58596
G1 X103.690 Y75.853 E180.22421
G1 X103.690 Y76.447 E180.23973
G1 X86.438 Y93.699 E180.87798
G1 X86.438 Y94.292 E180.89349
G1 X103.690 Y77.040 E181.53174
G1 X103.690 Y77.633 E181.54726
G1 X86.438 Y94.885 E182.18551
G1 X86.438 Y95.478 E182.20102
G1 X103.690 Y78.226 E182.83927
G1 X103.690 Y78.819 E182.85479
G1 X86.438 Y96.072 E183.49304
G1 X86.438 Y96.665 E183.50856
G1 X103.690 Y79.413 E184.14680
G1 X103.690 Y80.006 E184.16232
G1 X86.438 Y97.258 E184.80057
G1 X86.438 Y97.851 E184.81609
G1 X103.690 Y80.599 E185.45433
G1 X103.690 Y81.192 E185.46985
G1 X86.438 Y98.445 E186.10810
G1 X86.438 Y99.038 E186.12362
G1 X103.690 Y81.786 E186.76186
G1 X103.690 Y82.379 E186.77738
G1 X86.438 Y99.631 E187.41563
G1 X86.438 Y100.224 E187.43115
G1 X103.690 Y82.972 E188.06939
G1 X103.690 Y83.565 E188.08491
G1 X86.438 Y100.817 E188.72316
G1 X86.438 Y101.411 E188.73868
G1 X103.690 Y84.158 E189.37693
G1 X103.690 Y84.752 E189.39244
G1 X86.438 Y102.004 E190.03069
G1 X86.438 Y102.597 E190.04621
G1 X103.690 Y85.345 E190.68446
G1 X103.690 Y85.938 E190.69997
G1 X86.438 Y103.190 E191.33822
G1 X86.438 Y103.784 E191.35374
G1 X103.690 Y86.531 E191.99199
G1 X103.690 Y87.125 E192.00751
G1 X86.438 Y104.377 E192.64575
G1 X86.438 Y104.970 E192.66127
G1 X103.690 Y87.718 E193.29952
G1 X103.690 Y88.311 E193.31504
G1 X86.438 Y105.563 E193.95328
G1 X86.438 Y106.156 E193.96880
G1 X103.690 Y88.904 E194.60705
G1 X103.690 Y89.498 E194.62257
G1 X86.438 Y106.750 E195.26081
G1 X86.438 Y107.343 E195.27633
G1 X103.690 Y90.091 E195.91458
G1 X103.690 Y90.684 E195.93010
G1 X86.438 Y107.936 E196.56834
G1 X86.438 Y108.529 E196.58386
G1 X103.690 Y91.277 E197.22211
G1 X103.690 Y91.870 E197.23763
G1 X86.438 Y109.123 E197.87588
G1 X86.438 Y109.716 E197.89139
G1 X103.690 Y92.464 E198.52964
G1 X103.690 Y93.057 E198.54516
G1 X86.438 Y110.309 E199.18341
G1 X86.438 Y110.902 E199.19892
G1 X103.690 Y93.650 E199.83717
G1 X103.690 Y94.243 E199.85269
G1 X86.438 Y111.495 E200.49094
G1 X86.438 Y112.089 E200.50646
G1 X103.690 Y94.837 E201.14470
G1 X103.690 Y95.430 E201.16022
G1 X86.438 Y112.682 E201.79847
G1 X86.438 Y113.275 E201.81399
G1 X103.690 Y96.023 E202.45223
G1 X103.690 Y96.616 E202.46775
G1 X86.438 Y113.868 E203.10600
G1 X86.438 Y114.462 E203.12152
G1 X103.690 Y97.209 E203.75976
G1 X103.690 Y97.803 E203.77528
G1 X86.250 Y115.243 E204.42048
G1 X93.030 Y118.548 F7800.000
G1 F1200
G1 X93.690 Y117.888 E204.44490
G1 X93.690 Y117.294 E204.46042
G1 X92.625 Y118.360 E204.49983
G1 X92.032 Y118.360 E204.51535
G1 X93.690 Y116.701 E204.57671
G1 X93.690 Y116.108 E204.59223
G1 X91.438 Y118.360 E204.67553
G1 X90.845 Y118.360 E204.69105
G1 X93.690 Y115.515 E204.79630
G1 X93.690 Y114.921 E204.81182
G1 X90.252 Y118.360 E204.93901
G1 X89.659 Y118.360 E204.95453
G1 X93.690 Y114.328 E205.10368
G1 X93.690 Y113.735 E205.11920
G1 X89.065 Y118.360 E205.29028
G1 X88.472 Y118.360 E205.30580
G1 X93.690 Y113.142 E205.49884
G1 X93.690 Y112.549 E205.51436
G1 X87.879 Y118.360 E205.72934
