; generated by PrusaSlicer 2.1.1+ on 2021-06-06 at 10:39:23 UTC

; 

; external perimeters extrusion width = 0.45mm
; perimeters extrusion width = 0.45mm
; infill extrusion width = 0.45mm
; solid infill extrusion width = 0.45mm
; top infill extrusion width = 0.40mm
; support material extrusion width = 0.40mm
; first layer extrusion width = 0.80mm

M107
M190 S60 ; set bed temperature and wait for it to be reached
M104 S200 ; set temperature
G28 ; home all axes
G1 Z5 F5000 ; lift nozzle
M109 S200 ; set temperature and wait for it to be reached
G21 ; set units to millimeters
G90 ; use absolute coordinates
M82 ; use absolute distances for extrusion
G92 E0
; Filament gcode
G1 Z0.400 F7800.000
G1 E-2.00000 F2400.00000
G92 E0
G1 X22.433 Y20.753 F7800.000
G1 E2.00000 F2400.00000
G1 F1800
G1 X23.187 Y20.122 E2.11677
G1 X24.035 Y19.612 E2.23428
G1 X24.946 Y19.241 E2.35105
G1 X25.903 Y19.016 E2.46782
G1 X26.883 Y18.941 E2.58459
G1 X36.472 Y19.345 E3.72445
G1 X49.775 Y21.982 E5.33507
G1 X50.991 Y22.405 E5.48794
G1 X52.091 Y23.061 E5.64008
G1 X52.815 Y23.688 E5.75390
G1 X107.204 Y78.614 E14.93420
G1 X147.324 Y121.770 E21.93230
G1 X179.190 Y159.611 E27.80775
G1 X179.636 Y160.345 E27.90977
G1 X179.980 Y161.132 E28.01178
G1 X180.213 Y161.952 E28.11305
G1 X180.334 Y162.803 E28.21507
G1 X180.346 Y175.252 E29.69364
G1 X180.175 Y176.472 E29.83989
G1 X179.775 Y177.630 E29.98540
G1 X179.160 Y178.690 E30.13092
G1 X178.353 Y179.612 E30.27643
G1 X177.406 Y180.349 E30.41899
G1 X176.337 Y180.894 E30.56156
G1 X175.184 Y181.229 E30.70413
G1 X173.989 Y181.342 E30.84669
G1 X162.393 Y180.977 E32.22451
G1 X161.513 Y180.810 E32.33095
G1 X160.664 Y180.521 E32.43739
G1 X159.860 Y180.112 E32.54457
G1 X159.126 Y179.598 E32.65102
G1 X121.515 Y147.765 E38.50305
G1 X78.412 Y107.534 E45.50555
G1 X29.457 Y58.576 E53.72819
G1 X24.605 Y52.235 E54.67647
G1 X23.876 Y50.948 E54.85214
G1 X23.575 Y50.052 E54.96448
G1 X20.706 Y38.532 E56.37435
G1 X20.534 Y37.420 E56.50808
G1 X20.522 Y25.148 E57.96548
G1 X20.620 Y24.176 E58.08151
G1 X20.866 Y23.231 E58.19754
G1 X21.257 Y22.329 E58.31431
G1 X21.782 Y21.497 E58.43108
G1 X22.394 Y20.798 E58.54147
G1 E56.54147 F2400.00000
G92 E0
G1 X26.878 Y25.298 F7800.000
G1 E2.00000 F2400.00000
G1 F1800
G1 X26.878 Y37.008 E3.39080
G1 X28.306 Y37.008 E3.56043
G1 X28.306 Y25.619 E4.91306
G1 X29.734 Y25.619 E5.08270
G1 X29.734 Y48.480 E7.79771
G1 X31.163 Y48.480 E7.96735
G1 X31.163 Y25.619 E10.68236
G1 X32.591 Y25.619 E10.85199
G1 X32.591 Y51.669 E13.94577
G1 E11.94577 F2400.00000
G92 E0
G1 X36.949 Y45.818 F7800.000
G1 E2.00000 F2400.00000
G1 F1800
G1 X36.949 Y34.182 E2.60796
G1 X36.909 Y34.182 E2.61006
G1 X36.909 Y37.049 E2.75989
G1 X36.582 Y37.049 E2.77701
G1 X36.582 Y39.917 E2.92684
G1 X36.214 Y39.917 E2.94606
G1 X36.214 Y37.049 E3.09589
G1 X35.846 Y37.049 E3.11510
G1 X35.846 Y39.917 E3.26494
G1 X35.478 Y39.917 E3.28415
G1 X35.478 Y37.049 E3.43399
G1 X35.110 Y37.049 E3.45320
G1 X35.110 Y39.917 E3.60303
G1 X34.743 Y39.917 E3.62225
G1 X34.743 Y37.049 E3.77208
G1 X34.375 Y37.049 E3.79130
G1 X34.375 Y40.083 E3.94978
G1 E1.94978 F2400.00000
G92 E0
G1 X38.304 Y40.028 F7800.000
G1 E2.00000 F2400.00000
G1 F1800
G1 X38.304 Y41.285 E2.14934
G1 E0.14934 F2400.00000
G92 E0
G1 X40.260 Y44.016 F7800.000
G1 E2.00000 F2400.00000
G1 F1800
G1 X40.260 Y42.943 E2.05606
G1 X40.060 Y42.872 E2.06711
G1 X39.892 Y42.880 E2.07592
G1 X39.892 Y48.521 E2.37064
G1 X39.777 Y48.521 E2.37663
G1 X39.777 Y45.653 E2.52646
G1 X39.524 Y45.653 E2.53968
G1 X39.524 Y43.171 E2.66935
G1 X39.474 Y43.362 E2.67965
G1 X39.486 Y43.699 E2.69726
G1 X39.156 Y43.838 E2.71597
G1 X39.156 Y45.653 E2.81077
G1 X38.789 Y45.653 E2.82998
G1 X38.789 Y43.731 E2.93038
G1 X38.655 Y43.603 E2.94005
G1 X38.421 Y43.295 E2.96025
G1 X38.421 Y45.653 E3.08342
G1 X38.053 Y45.653 E3.10263
G1 X38.053 Y42.826 E3.25031
G1 X37.779 Y42.431 E3.27545
G1 X37.941 Y42.109 E3.29426
G1 X37.878 Y42.181 E3.29926
G1 X37.808 Y41.854 E3.31677
G1 X37.747 Y41.737 E3.32361
G1 X37.784 Y41.741 E3.32552
G1 X37.779 Y41.720 E3.32666
G1 X37.685 Y41.693 E3.33179
G1 X37.685 Y45.653 E3.53869
G1 X37.317 Y45.653 E3.55790
G1 X37.317 Y34.182 E4.15722
G1 X37.685 Y34.182 E4.17644
G1 X37.685 Y39.641 E4.46167
G1 X38.053 Y39.768 E4.48199
G1 X38.053 Y34.182 E4.77383
G1 X38.421 Y34.182 E4.79305
G1 X38.421 Y39.804 E5.08678
G1 X38.562 Y39.799 E5.09417
G1 X38.789 Y39.741 E5.10639
G1 X38.789 Y34.182 E5.39683
G1 X39.156 Y34.182 E5.41605
G1 X39.156 Y39.550 E5.69650
G1 X39.397 Y39.320 E5.71389
G1 X39.524 Y39.135 E5.72560
G1 X39.524 Y34.016 E5.99306
G1 E3.99306 F2400.00000
G92 E0
G1 X39.892 Y37.563 F7800.000
G1 E2.00000 F2400.00000
G1 F1800
G1 X39.892 Y34.182 E2.17668
G1 X40.260 Y34.182 E2.19590
G1 X40.260 Y37.427 E2.36547
G1 X40.628 Y37.467 E2.38480
G1 X40.628 Y34.182 E2.55645
G1 X40.995 Y34.182 E2.57567
G1 X40.995 Y37.507 E2.74940
G1 X41.363 Y37.555 E2.76878
G1 X41.363 Y34.182 E2.94502
G1 X41.731 Y34.182 E2.96423
G1 X41.731 Y37.665 E3.14620
G1 X42.099 Y37.832 E3.16731
G1 X42.099 Y34.182 E3.35802
G1 X42.467 Y34.182 E3.37723
G1 X42.467 Y38.039 E3.57876
G1 X42.834 Y38.286 E3.60191
G1 X42.834 Y37.049 E3.66652
G1 X43.202 Y37.049 E3.68573
G1 X43.202 Y38.561 E3.76473
G1 X43.570 Y38.883 E3.79024
G1 X43.570 Y37.049 E3.88602
G1 X43.938 Y37.049 E3.90524
G1 X43.938 Y39.295 E4.02255
G1 X44.178 Y39.610 E4.04324
G1 X44.306 Y39.811 E4.05570
G1 X44.306 Y37.049 E4.19999
G1 X44.673 Y37.049 E4.21920
G1 X44.673 Y41.070 E4.42927
G1 X44.017 Y42.146 F7800.000
G1 F1800
G1 X44.017 Y39.766 E4.71199
G1 X42.589 Y39.823 F7800.000
G1 F1800
G1 X42.589 Y38.378 E4.88356
G1 X41.363 Y38.337 F7800.000
G1 F1800
G1 X41.363 Y38.922 E4.91416
G1 E2.91416 F2400.00000
G92 E0
G1 X42.834 Y40.932 F7800.000
G1 E2.00000 F2400.00000
G1 F1800
G1 X42.834 Y39.920 E2.05288
G1 X42.972 Y39.880 E2.06035
G1 X43.094 Y39.880 E2.06674
G1 X43.202 Y39.913 E2.07265
G1 X43.202 Y40.944 E2.12651
G1 E0.12651 F2400.00000
G92 E0
G1 X41.161 Y43.416 F7800.000
G1 E2.00000 F2400.00000
G1 F1800
G1 X41.161 Y44.770 E2.16078
G1 X40.260 Y44.541 F7800.000
G1 F1800
G1 X40.260 Y48.521 E2.36871
G1 X40.628 Y48.521 E2.38793
G1 X40.628 Y44.861 E2.57913
G1 X40.995 Y44.964 E2.59909
G1 X40.995 Y48.521 E2.78489
G1 X41.363 Y48.521 E2.80411
G1 X41.363 Y45.029 E2.98655
G1 X41.731 Y45.069 E3.00588
G1 X41.731 Y48.521 E3.18621
G1 X42.099 Y48.521 E3.20543
G1 X42.099 Y45.096 E3.38435
G1 X42.116 Y45.086 E3.38539
G1 X42.467 Y45.087 E3.40372
G1 X42.467 Y48.521 E3.58313
G1 X42.834 Y48.521 E3.60234
G1 X42.834 Y42.157 E3.93483
G1 X43.023 Y42.109 E3.94501
G1 X43.202 Y42.103 E3.95436
G1 X43.202 Y48.521 E4.28964
G1 X43.570 Y48.521 E4.30885
G1 X43.570 Y42.163 E4.64100
G1 X43.729 Y42.221 E4.64987
G1 X43.938 Y42.357 E4.66285
G1 X43.938 Y48.521 E4.98490
G1 X44.306 Y48.521 E5.00411
G1 X44.306 Y42.791 E5.30344
G1 X44.396 Y42.922 E5.31173
G1 X44.673 Y42.837 E5.32689
G1 X44.673 Y48.521 E5.62384
G1 X45.041 Y48.521 E5.64306
G1 X45.041 Y37.049 E6.24237
G1 X45.409 Y37.049 E6.26159
G1 X45.409 Y48.521 E6.86091
G1 X45.513 Y48.521 E6.86633
G1 X45.513 Y42.785 E7.16599
G1 X45.777 Y42.785 E7.17978
G1 X45.777 Y39.917 E7.32961
G1 X46.145 Y39.917 E7.34883
G1 X46.145 Y42.785 E7.49866
G1 X46.512 Y42.785 E7.51788
G1 X46.512 Y39.917 E7.66771
G1 X46.880 Y39.917 E7.68693
G1 X46.880 Y42.785 E7.83676
G1 X47.248 Y42.785 E7.85597
G1 X47.248 Y39.917 E8.00581
G1 X47.616 Y39.917 E8.02502
G1 X47.616 Y42.785 E8.17485
G1 X47.984 Y42.785 E8.19407
G1 X47.984 Y39.917 E8.34390
G1 X48.352 Y39.917 E8.36312
G1 X48.352 Y42.951 E8.52160
G1 E6.52160 F2400.00000
G92 E0
G1 X42.467 Y44.477 F7800.000
G1 E2.00000 F2400.00000
G1 F1800
G1 X42.467 Y42.785 E2.08839
G1 X42.106 Y42.785 E2.10722
G1 X42.099 Y42.800 E2.10810
G1 X42.099 Y44.134 E2.17778
G1 E0.17778 F2400.00000
G92 E0
G1 X48.302 Y28.166 F7800.000
G1 E2.00000 F2400.00000
G1 F1800
G1 X48.302 Y39.376 E3.33141
G1 X46.874 Y39.376 E3.50105
G1 X46.874 Y28.487 E4.79429
G1 X45.446 Y28.487 E4.96392
G1 X45.446 Y36.508 E5.91657
G1 X44.017 Y36.508 E6.08621
G1 X44.017 Y28.487 E7.03885
G1 X42.589 Y28.487 E7.20849
G1 X42.589 Y33.641 E7.82054
G1 X41.161 Y33.641 E7.99017
G1 X41.161 Y28.487 E8.60223
G1 X39.733 Y28.487 E8.77186
G1 X39.733 Y33.641 E9.38392
G1 X38.304 Y33.641 E9.55355
G1 X38.304 Y28.487 E10.16561
G1 X36.876 Y28.487 E10.33524
G1 X36.876 Y33.641 E10.94730
G1 X36.368 Y33.641 E11.00759
G1 X36.368 Y36.508 E11.34818
G1 X35.448 Y36.508 E11.45753
G1 X35.448 Y25.619 E12.75077
G1 X34.019 Y25.619 E12.92041
G1 X34.019 Y36.508 E14.21366
G1 X33.500 Y36.508 E14.27527
G1 X33.501 Y40.458 E14.74438
G1 X34.019 Y40.458 E14.80599
G1 X34.019 Y51.347 E16.09923
G1 X34.083 Y51.347 E16.10676
G1 X34.083 Y54.215 E16.44736
G1 X35.448 Y54.215 E16.60946
G1 X35.448 Y40.458 E18.24330
G1 X36.368 Y40.458 E18.35265
G1 X36.368 Y46.194 E19.03384
G1 X36.876 Y46.194 E19.09412
G1 X36.876 Y54.215 E20.04677
G1 X38.304 Y54.215 E20.21640
G1 X38.304 Y46.194 E21.16905
G1 X39.236 Y46.194 E21.27973
G1 X39.236 Y49.062 E21.62033
G1 X39.733 Y49.062 E21.67928
G1 X39.733 Y54.215 E22.29133
G1 X41.161 Y54.215 E22.46096
G1 X41.161 Y49.062 E23.07302
G1 X42.589 Y49.062 E23.24265
G1 X42.589 Y54.215 E23.85471
G1 X44.017 Y54.215 E24.02434
G1 X44.017 Y49.062 E24.63640
G1 X45.446 Y49.062 E24.80603
G1 X45.446 Y54.215 E25.41809
G1 X45.554 Y54.215 E25.43093
G1 X45.554 Y57.083 E25.77152
G1 X46.874 Y57.083 E25.92832
G1 X46.874 Y43.326 E27.56216
G1 X48.302 Y43.326 E27.73180
G1 X48.302 Y57.083 E29.36564
G1 X48.422 Y57.083 E29.37981
G1 X48.422 Y59.951 E29.72040
G1 X49.731 Y59.951 E29.87587
G1 X49.731 Y31.355 E33.27208
G1 X51.159 Y31.355 E33.44171
G1 X51.159 Y59.951 E36.83792
G1 X51.290 Y59.951 E36.85341
G1 X51.290 Y62.819 E37.19400
G1 X52.587 Y62.819 E37.34815
G1 X52.587 Y34.223 E40.74435
G1 X54.016 Y34.223 E40.91399
G1 X54.016 Y62.819 E44.31019
G1 X54.157 Y62.819 E44.32701
G1 X54.157 Y65.686 E44.66761
G1 X55.444 Y65.686 E44.82042
G1 X55.444 Y45.694 E47.19484
G1 X56.872 Y45.694 E47.36448
G1 X56.872 Y65.686 E49.73889
G1 X57.025 Y65.686 E49.75704
G1 X57.025 Y68.554 E50.09764
G1 X58.301 Y68.554 E50.24912
G1 X58.301 Y45.694 E52.96414
G1 X59.729 Y45.694 E53.13377
G1 X59.729 Y68.554 E55.84879
G1 X59.893 Y68.554 E55.86826
G1 X59.893 Y71.422 E56.20885
G1 X61.157 Y71.422 E56.35902
G1 X61.157 Y51.430 E58.73344
G1 X62.586 Y51.430 E58.90307
G1 X62.586 Y71.422 E61.27749
G1 X62.761 Y71.422 E61.29829
G1 X62.761 Y74.290 E61.63888
G1 X64.014 Y74.290 E61.78772
G1 X64.014 Y54.297 E64.16214
G1 X65.442 Y54.297 E64.33177
G1 X65.442 Y74.290 E66.70619
G1 X65.629 Y74.290 E66.72831
G1 X65.629 Y77.158 E67.06891
G1 X66.871 Y77.158 E67.21642
G1 X66.871 Y57.165 E69.59084
G1 X68.299 Y57.165 E69.76047
G1 X68.299 Y77.158 E72.13489
G1 X68.496 Y77.158 E72.15834
G1 X68.496 Y80.026 E72.49894
G1 X69.727 Y80.026 E72.64512
G1 X69.727 Y60.033 E75.01954
G1 X71.156 Y60.033 E75.18917
G1 X71.156 Y80.026 E77.56359
G1 X71.364 Y80.026 E77.58837
G1 X71.364 Y82.893 E77.92897
G1 X72.584 Y82.893 E78.07382
G1 X72.584 Y62.901 E80.44824
G1 X74.012 Y62.901 E80.61787
G1 X74.012 Y82.893 E82.99229
G1 X74.232 Y82.893 E83.01840
G1 X74.232 Y85.761 E83.35899
G1 X75.440 Y85.761 E83.50252
G1 X75.440 Y65.769 E85.87694
G1 X76.869 Y65.769 E86.04657
G1 X76.869 Y85.761 E88.42099
G1 X77.100 Y85.761 E88.44843
G1 X77.100 Y88.629 E88.78902
G1 X78.297 Y88.629 E88.93122
G1 X78.297 Y68.636 E91.30564
G1 X79.725 Y68.636 E91.47528
G1 X79.725 Y88.629 E93.84969
G1 X79.968 Y88.629 E93.87845
G1 X79.968 Y97.232 E94.90024
G1 X81.154 Y97.232 E95.04112
G1 X81.154 Y71.504 E98.09673
G1 X82.582 Y71.504 E98.26636
G1 X82.582 Y97.232 E101.32197
G1 X82.835 Y97.232 E101.35206
G1 X82.835 Y102.968 E102.03325
G1 X84.010 Y102.968 E102.17280
G1 X84.010 Y74.372 E105.56900
G1 X85.439 Y74.372 E105.73864
G1 X85.439 Y102.968 E109.13484
G1 X86.867 Y102.968 E109.30448
G1 X86.867 Y77.240 E112.36009
G1 X88.295 Y77.240 E112.52972
G1 X88.295 Y102.968 E115.58533
G1 X89.724 Y102.968 E115.75496
G1 X89.724 Y80.108 E118.46998
G1 X91.152 Y80.108 E118.63961
G1 X91.152 Y102.968 E121.35463
G1 X92.580 Y102.968 E121.52426
G1 X92.580 Y80.108 E124.23928
G1 X94.009 Y80.108 E124.40891
G1 X94.009 Y102.968 E127.12392
G1 X94.307 Y102.968 E127.15932
G1 X94.307 Y105.836 E127.49991
G1 X95.437 Y105.836 E127.63415
G1 X95.437 Y80.108 E130.68976
G1 X96.865 Y80.108 E130.85940
G1 X96.865 Y105.836 E133.91501
G1 X97.174 Y105.836 E133.95173
G1 X97.174 Y108.704 E134.29233
G1 X98.294 Y108.704 E134.42524
G1 X98.294 Y82.975 E137.48085
G1 X99.722 Y82.975 E137.65048
G1 X99.722 Y108.704 E140.70609
G1 X100.042 Y108.704 E140.74414
G1 X100.042 Y111.571 E141.08474
G1 X101.150 Y111.571 E141.21632
G1 X101.150 Y82.975 E144.61253
G1 X102.579 Y82.975 E144.78216
G1 X102.579 Y111.571 E148.17837
G1 X102.910 Y111.571 E148.21774
G1 X102.910 Y114.439 E148.55834
G1 X104.007 Y114.439 E148.68860
G1 X104.007 Y94.447 E151.06302
G1 X105.435 Y94.447 E151.23265
G1 X105.435 Y114.439 E153.60707
G1 X105.778 Y114.439 E153.64777
G1 X105.778 Y117.307 E153.98837
G1 X106.863 Y117.307 E154.11730
G1 X106.863 Y97.314 E156.49172
G1 X108.292 Y97.314 E156.66135
G1 X108.292 Y117.307 E159.03577
G1 X108.646 Y117.307 E159.07780
G1 X108.646 Y120.175 E159.41840
G1 X109.720 Y120.175 E159.54600
G1 X109.720 Y100.182 E161.92042
G1 X111.148 Y100.182 E162.09005
G1 X111.148 Y120.175 E164.46447
G1 X111.514 Y120.175 E164.50783
G1 X111.514 Y123.043 E164.84842
G1 X112.577 Y123.043 E164.97470
G1 X112.577 Y103.050 E167.34912
G1 X114.005 Y103.050 E167.51875
G1 X114.005 Y123.043 E169.89317
G1 X114.381 Y123.043 E169.93786
G1 X114.381 Y125.910 E170.27845
G1 X115.433 Y125.910 E170.40340
G1 X115.433 Y105.918 E172.77782
G1 X116.862 Y105.918 E172.94746
G1 X116.862 Y125.910 E175.32187
G1 X117.249 Y125.910 E175.36788
G1 X117.249 Y128.778 E175.70848
G1 X118.290 Y128.778 E175.83210
G1 X118.290 Y108.786 E178.20652
G1 X119.718 Y108.786 E178.37616
G1 X119.718 Y128.778 E180.75057
G1 X120.117 Y128.778 E180.79791
G1 X120.117 Y131.646 E181.13851
G1 X121.147 Y131.646 E181.26080
G1 X121.147 Y111.654 E183.63522
G1 X122.575 Y111.654 E183.80486
G1 X122.575 Y131.646 E186.17928
G1 X122.985 Y131.646 E186.22794
G1 X122.985 Y134.514 E186.56854
G1 X124.003 Y134.514 E186.68951
G1 X124.003 Y114.521 E189.06392
G1 X125.432 Y114.521 E189.23356
G1 X125.432 Y134.514 E191.60798
G1 X125.853 Y134.514 E191.65797
G1 X125.853 Y143.117 E192.67976
G1 X126.860 Y143.117 E192.79940
G1 X126.860 Y117.389 E195.85501
G1 X128.288 Y117.389 E196.02464
G1 X128.288 Y143.117 E199.08025
G1 X129.717 Y143.117 E199.24989
G1 X129.717 Y120.257 E201.96490
G1 X131.145 Y120.257 E202.13454
G1 X131.145 Y143.117 E204.84955
G1 X132.573 Y143.117 E205.01918
G1 X132.573 Y123.125 E207.39360
G1 X134.002 Y123.125 E207.56324
G1 X134.002 Y143.117 E209.93765
G1 X134.456 Y143.117 E209.99163
G1 X134.456 Y145.985 E210.33222
G1 X135.430 Y145.985 E210.44788
G1 X135.430 Y125.993 E212.82230
G1 X136.858 Y125.993 E212.99194
G1 X136.858 Y145.985 E215.36636
G1 X137.324 Y145.985 E215.42166
G1 X137.324 Y148.853 E215.76225
G1 X138.286 Y148.853 E215.87659
G1 X138.286 Y125.993 E218.59160
G1 X139.715 Y125.993 E218.76123
G1 X139.715 Y148.853 E221.47625
G1 X140.192 Y148.853 E221.53288
G1 X140.192 Y151.721 E221.87347
G1 X141.143 Y151.721 E221.98648
G1 X141.143 Y125.993 E225.04209
G1 X142.571 Y125.993 E225.21172
G1 X142.571 Y151.721 E228.26733
G1 X143.059 Y151.721 E228.32529
G1 X143.059 Y154.589 E228.66588
G1 X144.000 Y154.589 E228.77756
G1 X144.000 Y134.596 E231.15198
G1 X145.428 Y134.596 E231.32161
G1 X145.428 Y154.589 E233.69603
G1 X145.927 Y154.589 E233.75531
G1 X145.927 Y157.456 E234.09591
G1 X146.856 Y157.456 E234.20626
G1 X146.856 Y137.464 E236.58068
G1 X148.285 Y137.464 E236.75032
G1 X148.285 Y157.456 E239.12473
G1 X148.795 Y157.456 E239.18534
G1 X148.795 Y160.324 E239.52594
G1 X149.713 Y160.324 E239.63496
G1 X149.713 Y140.332 E242.00938
G1 X151.141 Y140.332 E242.17902
G1 X151.141 Y160.324 E244.55343
G1 X151.663 Y160.324 E244.61537
G1 X151.663 Y163.192 E244.95597
G1 X152.570 Y163.192 E245.06366
G1 X152.570 Y143.199 E247.43808
G1 X153.998 Y143.199 E247.60772
G1 X153.998 Y163.192 E249.98214
G1 X154.531 Y163.192 E250.04540
G1 X154.531 Y166.060 E250.38599
G1 X155.426 Y166.060 E250.49237
G1 X155.426 Y146.067 E252.86678
G1 X156.855 Y146.067 E253.03642
G1 X156.855 Y166.060 E255.41084
