; generated by PrusaSlicer 2.1.1+ on 2021-05-17 at 10:16:53 UTC

; 

; external perimeters extrusion width = 0.45mm
; perimeters extrusion width = 0.45mm
; infill extrusion width = 0.45mm
; solid infill extrusion width = 0.45mm
; top infill extrusion width = 0.40mm
; first layer extrusion width = 0.80mm

M107
M190 S60 ; set bed temperature and wait for it to be reached
M104 S200 ; set temperature
G28 ; home all axes
G1 Z5 F5000 ; lift nozzle
M109 S200 ; set temperature and wait for it to be reached
G21 ; set units to millimeters
G90 ; use absolute coordinates
M82 ; use absolute distances for extrusion
G92 E0
; Filament gcode
G1 Z0.400 F7800.000
G1 E-2.00000 F2400.00000
G92 E0
G1 X84.544 Y84.546 F7800.000
G1 E2.00000 F2400.00000
G1 F1800
G1 X87.856 Y81.827 E2.50888
G1 X91.635 Y79.807 E3.01776
G1 X95.735 Y78.563 E3.52663
G1 X100.005 Y78.143 E4.03625
G1 X104.263 Y78.563 E4.54439
G1 X108.363 Y79.806 E5.05327
G1 X112.142 Y81.826 E5.56214
G1 X115.454 Y84.544 E6.07102
G1 X118.173 Y87.856 E6.57990
G1 X120.193 Y91.635 E7.08878
G1 X121.437 Y95.735 E7.59765
G1 X121.857 Y99.999 E8.10653
G1 X121.437 Y104.263 E8.61541
G1 X120.194 Y108.363 E9.12428
G1 X118.174 Y112.142 E9.63316
G1 X115.456 Y115.454 E10.14204
G1 X112.144 Y118.173 E10.65092
G1 X108.365 Y120.193 E11.15980
G1 X104.265 Y121.437 E11.66867
G1 X100.001 Y121.857 E12.17755
G1 X95.737 Y121.437 E12.68642
G1 X91.637 Y120.194 E13.19530
G1 X87.858 Y118.174 E13.70418
G1 X84.546 Y115.456 E14.21306
G1 X81.827 Y112.144 E14.72193
G1 X79.807 Y108.365 E15.23081
G1 X78.563 Y104.265 E15.73969
G1 X78.143 Y100.001 E16.24857
G1 X78.563 Y95.737 E16.75745
G1 X79.806 Y91.637 E17.26632
G1 X81.826 Y87.858 E17.77520
G1 X84.506 Y84.592 E18.27695
G1 E16.27695 F2400.00000
G92 E0
G1 X109.661 Y109.661 F7800.000
G1 E2.00000 F2400.00000
G1 F1800
G1 X107.591 Y111.360 E2.31810
G1 X105.229 Y112.623 E2.63620
G1 X102.665 Y113.400 E2.95430
G1 X100.000 Y113.663 E3.27239
G1 X97.335 Y113.400 E3.59049
G1 X94.771 Y112.623 E3.90859
G1 X92.409 Y111.360 E4.22669
G1 X90.339 Y109.661 E4.54479
G1 X88.640 Y107.591 E4.86289
G1 X87.377 Y105.229 E5.18099
G1 X86.600 Y102.665 E5.49908
G1 X86.337 Y100.000 E5.81718
G1 X86.600 Y97.335 E6.13528
G1 X87.377 Y94.771 E6.45338
G1 X88.640 Y92.409 E6.77148
G1 X90.339 Y90.339 E7.08958
G1 X92.409 Y88.640 E7.40768
G1 X94.771 Y87.377 E7.72578
G1 X97.335 Y86.600 E8.04387
G1 X100.000 Y86.337 E8.36197
G1 X102.665 Y86.600 E8.68007
G1 X105.229 Y87.377 E8.99817
G1 X107.591 Y88.640 E9.31627
G1 X109.661 Y90.339 E9.63437
G1 X111.360 Y92.409 E9.95247
G1 X112.623 Y94.771 E10.27057
G1 X113.400 Y97.335 E10.58867
G1 X113.663 Y100.000 E10.90676
G1 X113.400 Y102.665 E11.22486
G1 X112.623 Y105.229 E11.54296
G1 X111.360 Y107.591 E11.86106
G1 X109.699 Y109.615 E12.17203
G1 X110.114 Y110.213 F7800.000
G1 F1800
G1 X107.989 Y111.957 E12.49849
G1 X105.503 Y113.286 E12.83329
G1 X102.805 Y114.104 E13.16810
G1 X100.000 Y114.380 E13.50291
G1 X97.195 Y114.104 E13.83771
G1 X94.497 Y113.286 E14.17252
G1 X92.011 Y111.957 E14.50732
G1 X89.832 Y110.169 E14.84213
G1 X88.043 Y107.989 E15.17693
G1 X86.714 Y105.503 E15.51174
G1 X85.896 Y102.805 E15.84655
G1 X85.620 Y100.000 E16.18135
G1 X85.896 Y97.195 E16.51616
G1 X86.714 Y94.497 E16.85097
G1 X88.043 Y92.011 E17.18577
G1 X89.831 Y89.831 E17.52058
G1 X92.011 Y88.043 E17.85539
G1 X94.497 Y86.714 E18.19019
G1 X97.195 Y85.896 E18.52500
G1 X100.000 Y85.620 E18.85980
G1 X102.805 Y85.896 E19.19461
G1 X105.503 Y86.714 E19.52942
G1 X107.989 Y88.043 E19.86422
G1 X110.169 Y89.831 E20.19903
G1 X111.957 Y92.011 E20.53384
G1 X113.286 Y94.497 E20.86864
G1 X114.104 Y97.195 E21.20345
G1 X114.380 Y100.000 E21.53826
G1 X114.104 Y102.805 E21.87306
G1 X113.286 Y105.503 E22.20787
G1 X111.957 Y107.989 E22.54267
G1 X110.161 Y110.175 E22.87868
G1 X110.567 Y110.765 F7800.000
G1 F1800
G1 X108.388 Y112.554 E23.21349
G1 X105.778 Y113.949 E23.56500
G1 X102.945 Y114.808 E23.91652
G1 X100.000 Y115.098 E24.26803
G1 X97.055 Y114.808 E24.61954
G1 X94.222 Y113.949 E24.97106
G1 X91.612 Y112.554 E25.32257
G1 X89.324 Y110.676 E25.67409
G1 X87.446 Y108.388 E26.02560
G1 X86.051 Y105.778 E26.37711
G1 X85.192 Y102.946 E26.72863
G1 X84.902 Y100.000 E27.08014
G1 X85.192 Y97.055 E27.43166
G1 X86.051 Y94.222 E27.78317
G1 X87.446 Y91.612 E28.13468
G1 X89.324 Y89.324 E28.48620
G1 X91.612 Y87.446 E28.83771
G1 X94.222 Y86.051 E29.18923
G1 X97.055 Y85.192 E29.54074
G1 X100.000 Y84.902 E29.89225
G1 X102.945 Y85.192 E30.24377
G1 X105.778 Y86.051 E30.59528
G1 X108.388 Y87.446 E30.94679
G1 X110.676 Y89.324 E31.29831
G1 X112.554 Y91.612 E31.64982
G1 X113.949 Y94.222 E32.00134
G1 X114.808 Y97.055 E32.35285
G1 X115.098 Y100.000 E32.70436
G1 X114.808 Y102.945 E33.05588
G1 X113.949 Y105.778 E33.40739
G1 X112.554 Y108.388 E33.75890
G1 X110.676 Y110.676 E34.11042
G1 X110.614 Y110.727 E34.12000
G1 X110.185 Y110.648 F7800.000
G1 E32.12000 F2400.00000
G92 E0
G1 X112.445 Y94.922 F7800.000
G1 E2.00000 F2400.00000
G1 F1800
G1 X105.826 Y88.304 E3.13446
G1 X105.023 Y87.874 E3.24493
G1 X104.080 Y87.589 E3.36430
G1 X112.411 Y95.920 E4.79239
G1 X112.860 Y97.399 E4.97979
G1 X102.601 Y87.140 E6.73842
G1 X101.448 Y87.018 E6.87888
G1 X112.982 Y98.552 E8.85592
G1 X113.095 Y99.695 E8.99517
G1 X100.305 Y86.905 E11.18749
G1 X100.000 Y86.875 E11.22461
G1 X99.312 Y86.943 E11.30842
G1 X113.057 Y100.688 E13.66447
G1 X112.964 Y101.626 E13.77875
G1 X98.373 Y87.036 E16.27980
G1 X97.436 Y87.129 E16.39400
G1 X112.871 Y102.564 E19.03981
G1 X112.631 Y103.355 E19.13998
G1 X96.645 Y87.369 E21.88023
G1 X95.854 Y87.608 E21.98039
G1 X112.392 Y104.146 E24.81507
G1 X112.152 Y104.937 E24.91524
G1 X95.063 Y87.848 E27.84436
G1 X94.977 Y87.874 E27.85525
G1 X94.379 Y88.194 E27.93753
G1 X111.806 Y105.621 E30.92468
G1 X111.447 Y106.293 E31.01699
G1 X93.707 Y88.553 E34.05774
G1 X93.035 Y88.912 E34.15005
G1 X111.088 Y106.965 E37.24439
G1 X110.913 Y107.292 E37.28933
G1 X110.674 Y107.582 E37.33489
G1 X92.418 Y89.326 E40.46425
G1 X91.852 Y89.790 E40.55302
G1 X110.210 Y108.148 E43.69978
G1 X109.745 Y108.714 E43.78855
G1 X91.286 Y90.255 E46.95271
G1 X90.719 Y90.720 E47.04148
G1 X109.280 Y109.281 E50.22304
G1 X108.714 Y109.745 E50.31181
G1 X90.255 Y91.286 E53.47597
G1 X89.790 Y91.852 E53.56474
G1 X108.148 Y110.210 E56.71150
G1 X107.582 Y110.674 E56.80027
G1 X89.326 Y92.418 E59.92963
G1 X89.087 Y92.708 E59.97517
G1 X88.912 Y93.035 E60.02012
G1 X106.965 Y111.088 E63.11446
G1 X106.293 Y111.447 E63.20677
G1 X88.553 Y93.707 E66.24751
G1 X88.194 Y94.379 E66.33982
G1 X105.621 Y111.806 E69.32697
G1 X105.023 Y112.126 E69.40924
G1 X104.937 Y112.152 E69.42014
G1 X87.848 Y95.063 E72.34924
G1 X87.608 Y95.854 E72.44941
G1 X104.146 Y112.392 E75.28408
G1 X103.355 Y112.631 E75.38425
G1 X87.369 Y96.645 E78.12448
G1 X87.129 Y97.436 E78.22465
G1 X102.564 Y112.871 E80.87045
G1 X101.626 Y112.964 E80.98465
G1 X87.036 Y98.374 E83.48568
G1 X86.943 Y99.312 E83.59996
G1 X100.688 Y113.057 E85.95599
G1 X100.000 Y113.125 E86.03979
G1 X99.695 Y113.095 E86.07693
G1 X86.905 Y100.305 E88.26922
G1 X87.018 Y101.448 E88.40847
G1 X98.552 Y112.982 E90.38548
G1 X97.399 Y112.860 E90.52595
G1 X87.140 Y102.601 E92.28454
G1 X87.589 Y104.080 E92.47194
G1 X95.920 Y112.411 E93.89999
G1 X94.977 Y112.126 E94.01934
G1 X94.173 Y111.696 E94.12984
G1 X87.555 Y105.078 E95.26425
G1 E93.26425 F2400.00000
G92 E0
G1 X88.705 Y107.258 F7800.000
G1 E2.00000 F2400.00000
G1 F1800
G1 X92.742 Y111.295 E2.69199
G1 E0.69199 F2400.00000
G92 E0
G1 X111.295 Y92.742 F7800.000
G1 E2.00000 F2400.00000
G1 F1800
G1 X107.258 Y88.705 E2.69206
G1 Z0.550 F7800.000
M140 S55 ; set bed temperature
G1 X110.148 Y110.255
G1 F3600
G1 X108.019 Y112.002 E2.76382
G1 X105.524 Y113.336 E2.83755
G1 X102.816 Y114.157 E2.91127
G1 X100.000 Y114.434 E2.98500
G1 X97.184 Y114.157 E3.05873
G1 X94.476 Y113.336 E3.13246
G1 X91.981 Y112.002 E3.20618
G1 X89.793 Y110.207 E3.27991
G1 X87.998 Y108.019 E3.35364
G1 X86.665 Y105.524 E3.42737
G1 X85.843 Y102.816 E3.50109
G1 X85.566 Y100.000 E3.57482
G1 X85.843 Y97.184 E3.64855
G1 X86.664 Y94.476 E3.72228
G1 X87.998 Y91.981 E3.79601
G1 X89.793 Y89.793 E3.86973
G1 X91.981 Y87.998 E3.94346
G1 X94.476 Y86.664 E4.01719
G1 X97.184 Y85.843 E4.09092
G1 X100.000 Y85.566 E4.16464
G1 X102.816 Y85.843 E4.23837
G1 X105.524 Y86.664 E4.31210
G1 X108.019 Y87.998 E4.38583
G1 X110.207 Y89.793 E4.45955
G1 X112.002 Y91.981 E4.53328
G1 X113.336 Y94.476 E4.60701
G1 X114.157 Y97.184 E4.68074
G1 X114.434 Y100.000 E4.75446
G1 X114.157 Y102.816 E4.82819
G1 X113.336 Y105.524 E4.90192
G1 X112.002 Y108.019 E4.97565
G1 X110.194 Y110.216 E5.04977
G1 X110.413 Y110.577 F7800.000
G1 F3600
G1 X108.252 Y112.351 E5.12260
G1 X105.684 Y113.723 E5.19848
G1 X102.898 Y114.569 E5.27435
G1 X100.000 Y114.854 E5.35022
G1 X97.102 Y114.569 E5.42609
G1 X94.316 Y113.723 E5.50196
G1 X91.748 Y112.351 E5.57783
G1 X89.497 Y110.503 E5.65371
G1 X87.649 Y108.253 E5.72958
G1 X86.277 Y105.684 E5.80545
G1 X85.431 Y102.898 E5.88132
G1 X85.146 Y100.000 E5.95720
G1 X85.431 Y97.102 E6.03307
G1 X86.277 Y94.316 E6.10894
G1 X87.649 Y91.748 E6.18481
G1 X89.497 Y89.497 E6.26068
G1 X91.748 Y87.649 E6.33656
G1 X94.316 Y86.277 E6.41243
G1 X97.102 Y85.431 E6.48830
G1 X100.000 Y85.146 E6.56417
G1 X102.898 Y85.431 E6.64004
G1 X105.684 Y86.277 E6.71592
G1 X108.252 Y87.649 E6.79179
G1 X110.503 Y89.497 E6.86766
G1 X112.351 Y91.748 E6.94353
G1 X113.723 Y94.316 E7.01940
G1 X114.569 Y97.102 E7.09528
G1 X114.854 Y100.000 E7.17115
G1 X114.569 Y102.898 E7.24702
G1 X113.723 Y105.684 E7.32289
G1 X112.351 Y108.252 E7.39876
G1 X110.460 Y110.539 E7.47609
G1 X110.678 Y110.900 F7800.000
G1 F1800
G1 X108.486 Y112.700 E7.54999
G1 X105.845 Y114.111 E7.62801
G1 X102.980 Y114.980 E7.70602
G1 X100.000 Y115.274 E7.78404
G1 X97.020 Y114.980 E7.86205
G1 X94.155 Y114.111 E7.94007
G1 X91.514 Y112.700 E8.01809
G1 X89.200 Y110.800 E8.09610
G1 X87.300 Y108.486 E8.17412
G1 X85.889 Y105.845 E8.25214
G1 X85.020 Y102.980 E8.33015
G1 X84.726 Y100.000 E8.40817
G1 X85.020 Y97.020 E8.48619
G1 X85.889 Y94.155 E8.56420
G1 X87.300 Y91.514 E8.64222
G1 X89.200 Y89.200 E8.72023
G1 X91.514 Y87.300 E8.79825
G1 X94.155 Y85.889 E8.87627
G1 X97.020 Y85.020 E8.95428
G1 X100.000 Y84.726 E9.03230
G1 X102.980 Y85.020 E9.11032
G1 X105.845 Y85.889 E9.18833
G1 X108.486 Y87.300 E9.26635
G1 X110.800 Y89.200 E9.34437
G1 X112.700 Y91.514 E9.42238
G1 X114.111 Y94.155 E9.50040
G1 X114.980 Y97.020 E9.57842
G1 X115.274 Y100.000 E9.65643
G1 X114.980 Y102.980 E9.73445
G1 X114.111 Y105.845 E9.81247
G1 X112.700 Y108.486 E9.89048
G1 X110.800 Y110.800 E9.96850
G1 X110.725 Y110.862 E9.97105
G1 X110.296 Y110.783 F7800.000
G1 X108.621 Y111.346
G1 F1200
G1 X111.346 Y108.621 E10.07234
G1 X112.443 Y106.928 F7800.000
G1 F1200
G1 X106.928 Y112.443 E10.27735
G1 X105.647 Y113.127 F7800.000
G1 F1200
G1 X112.669 Y106.105 E10.53836
G1 X113.045 Y105.403 E10.55928
G1 X113.162 Y105.017 E10.56990
G1 X105.017 Y113.162 E10.87265
G1 X104.161 Y113.421 E10.89615
G1 X113.421 Y104.161 E11.24035
G1 X113.681 Y103.306 E11.26385
G1 X103.306 Y113.681 E11.64949
G1 X102.755 Y113.848 E11.66463
G1 X102.519 Y113.871 E11.67084
G1 X113.871 Y102.519 E12.09279
G1 X113.936 Y101.858 E12.11025
G1 X101.858 Y113.936 E12.55920
G1 X101.197 Y114.002 E12.57666
G1 X114.002 Y101.197 E13.05260
G1 X114.067 Y100.536 E13.07006
G1 X100.536 Y114.067 E13.57299
G1 X100.000 Y114.119 E13.58714
G1 X99.897 Y114.109 E13.58986
G1 X114.109 Y99.897 E14.11811
G1 X114.056 Y99.355 E14.13244
G1 X99.355 Y114.056 E14.67888
G1 X98.812 Y114.002 E14.69321
G1 X114.002 Y98.812 E15.25783
G1 X113.949 Y98.269 E15.27216
G1 X98.269 Y113.949 E15.85496
G1 X97.727 Y113.896 E15.86929
G1 X113.896 Y97.727 E16.47027
G1 X113.832 Y97.194 E16.48437
G1 X97.194 Y113.832 E17.10282
G1 X96.737 Y113.694 E17.11538
G1 X113.694 Y96.737 E17.74567
G1 X113.555 Y96.279 E17.75823
G1 X96.279 Y113.555 E18.40036
G1 X95.822 Y113.416 E18.41292
G1 X113.416 Y95.822 E19.06689
G1 X113.278 Y95.365 E19.07945
G1 X95.365 Y113.278 E19.74526
G1 X94.907 Y113.139 E19.75782
G1 X113.139 Y94.907 E20.43548
G1 X113.045 Y94.597 E20.44401
G1 X112.978 Y94.472 E20.44772
G1 X94.472 Y112.978 E21.13558
G1 X94.084 Y112.770 E21.14715
G1 X112.770 Y94.084 E21.84172
G1 X112.563 Y93.695 E21.85330
G1 X93.695 Y112.563 E22.55459
G1 X93.307 Y112.355 E22.56617
G1 X112.355 Y93.307 E23.27418
G1 X112.148 Y92.919 E23.28576
G1 X92.919 Y112.148 E24.00049
G1 X92.530 Y111.940 E24.01207
G1 X111.940 Y92.530 E24.73352
G1 X111.730 Y92.144 E24.74508
G1 X92.144 Y111.730 E25.47309
G1 X91.817 Y111.462 E25.48422
G1 X111.462 Y91.817 E26.21441
G1 X111.193 Y91.489 E26.22554
G1 X91.489 Y111.193 E26.95792
G1 X91.162 Y110.924 E26.96905
G1 X110.924 Y91.162 E27.70360
G1 X110.656 Y90.834 E27.71474
G1 X90.834 Y110.656 E28.45147
G1 X90.507 Y110.387 E28.46260
G1 X110.387 Y90.507 E29.20153
G1 X110.118 Y90.180 E29.21266
G1 X90.180 Y110.118 E29.95376
G1 X90.016 Y109.984 E29.95932
G1 X89.882 Y109.820 E29.96489
G1 X109.820 Y89.882 E30.70599
G1 X109.493 Y89.613 E30.71712
G1 X89.613 Y109.493 E31.45604
G1 X89.344 Y109.165 E31.46718
G1 X109.165 Y89.344 E32.20391
G1 X108.838 Y89.076 E32.21504
G1 X89.076 Y108.838 E32.94960
G1 X88.807 Y108.511 E32.96073
G1 X108.511 Y88.807 E33.69311
G1 X108.183 Y88.538 E33.70424
G1 X88.538 Y108.183 E34.43443
G1 X88.270 Y107.856 E34.44556
G1 X107.856 Y88.270 E35.17357
G1 X107.470 Y88.060 E35.18512
G1 X88.060 Y107.470 E35.90658
G1 X87.852 Y107.081 E35.91815
G1 X107.081 Y87.852 E36.63289
G1 X106.693 Y87.645 E36.64446
G1 X87.645 Y106.693 E37.35247
G1 X87.437 Y106.305 E37.36405
G1 X106.305 Y87.437 E38.06534
G1 X105.916 Y87.230 E38.07692
G1 X87.230 Y105.916 E38.77149
G1 X87.022 Y105.528 E38.78306
G1 X105.528 Y87.022 E39.47092
G1 X105.403 Y86.955 E39.47463
G1 X105.093 Y86.861 E39.48316
G1 X86.861 Y105.093 E40.16081
G1 X86.722 Y104.635 E40.17337
G1 X104.635 Y86.722 E40.83918
G1 X104.178 Y86.584 E40.85174
G1 X86.584 Y104.178 E41.50571
G1 X86.445 Y103.721 E41.51827
G1 X103.721 Y86.445 E42.16040
G1 X103.263 Y86.306 E42.17296
G1 X86.306 Y103.263 E42.80325
G1 X86.168 Y102.806 E42.81581
G1 X102.806 Y86.168 E43.43425
G1 X102.273 Y86.104 E43.44836
G1 X86.104 Y102.273 E44.04934
G1 X86.051 Y101.730 E44.06367
G1 X101.730 Y86.051 E44.64646
G1 X101.188 Y85.998 E44.66079
G1 X85.998 Y101.188 E45.22541
G1 X85.944 Y100.645 E45.23974
G1 X100.645 Y85.944 E45.78617
G1 X100.103 Y85.891 E45.80050
G1 X85.891 Y100.103 E46.32875
G1 X85.881 Y100.000 E46.33147
G1 X85.933 Y99.464 E46.34562
G1 X99.464 Y85.933 E46.84855
G1 X98.803 Y85.999 E46.86601
G1 X85.999 Y98.803 E47.34194
G1 X86.064 Y98.142 E47.35941
G1 X98.142 Y86.064 E47.80834
G1 X97.481 Y86.129 E47.82580
G1 X86.129 Y97.481 E48.24775
G1 X86.152 Y97.245 E48.25396
G1 X86.319 Y96.694 E48.26910
G1 X96.694 Y86.319 E48.65474
G1 X95.839 Y86.579 E48.67824
G1 X86.579 Y95.839 E49.02243
G1 X86.838 Y94.983 E49.04593
G1 X94.983 Y86.838 E49.34867
G1 X94.597 Y86.955 E49.35929
G1 X93.895 Y87.331 E49.38021
G1 X86.873 Y94.353 E49.64121
G1 X87.557 Y93.072 F7800.000
G1 F1200
G1 X93.072 Y87.557 E49.84621
G1 X91.379 Y88.655 F7800.000
G1 F1200
G1 X88.655 Y91.379 E49.94746
G1 Z0.700 F7800.000
G1 X110.148 Y110.255
G1 F3600
G1 X108.019 Y112.002 E50.01921
G1 X105.524 Y113.336 E50.09294
G1 X102.816 Y114.157 E50.16667
G1 X100.000 Y114.434 E50.24040
G1 X97.184 Y114.157 E50.31412
G1 X94.476 Y113.336 E50.38785
G1 X91.981 Y112.002 E50.46158
G1 X89.793 Y110.207 E50.53531
G1 X87.998 Y108.019 E50.60903
G1 X86.665 Y105.524 E50.68276
G1 X85.843 Y102.816 E50.75649
G1 X85.566 Y100.000 E50.83022
G1 X85.843 Y97.184 E50.90395
G1 X86.664 Y94.476 E50.97767
G1 X87.998 Y91.981 E51.05140
G1 X89.793 Y89.793 E51.12513
G1 X91.981 Y87.998 E51.19886
G1 X94.476 Y86.664 E51.27258
G1 X97.184 Y85.843 E51.34631
G1 X100.000 Y85.566 E51.42004
G1 X102.816 Y85.843 E51.49377
G1 X105.524 Y86.664 E51.56749
G1 X108.019 Y87.998 E51.64122
G1 X110.207 Y89.793 E51.71495
G1 X112.002 Y91.981 E51.78868
G1 X113.336 Y94.476 E51.86240
G1 X114.157 Y97.184 E51.93613
G1 X114.434 Y100.000 E52.00986
G1 X114.157 Y102.816 E52.08359
G1 X113.336 Y105.524 E52.15731
G1 X112.002 Y108.019 E52.23104
G1 X110.194 Y110.216 E52.30517
G1 X110.413 Y110.577 F7800.000
G1 F3600
G1 X108.252 Y112.351 E52.37800
G1 X105.684 Y113.723 E52.45387
G1 X102.898 Y114.569 E52.52974
