; generated by PrusaSlicer 2.1.1+ on 2021-06-25 at 15:52:16 UTC

; 

; external perimeters extrusion width = 0.45mm
; perimeters extrusion width = 0.45mm
; infill extrusion width = 0.45mm
; solid infill extrusion width = 0.45mm
; top infill extrusion width = 0.40mm
; first layer extrusion width = 0.80mm

M107
M190 S60 ; set bed temperature and wait for it to be reached
M104 S200 ; set temperature
G28 ; home all axes
G1 Z5 F5000 ; lift nozzle
M109 S200 ; set temperature and wait for it to be reached
G21 ; set units to millimeters
G90 ; use absolute coordinates
M82 ; use absolute distances for extrusion
G92 E0
; Filament gcode
G1 Z0.400 F7800.000
G1 E-2.00000 F2400.00000
G92 E0
G1 X66.208 Y66.671 F7800.000
G1 E2.00000 F2400.00000
G1 F1800
G1 X67.152 Y65.814 E2.15140
G1 X68.249 Y65.164 E2.30280
G1 X69.453 Y64.745 E2.45421
G1 X70.716 Y64.575 E2.60561
G1 X129.078 Y64.571 E9.53694
G1 X130.267 Y64.685 E9.67877
G1 X131.407 Y65.016 E9.81986
G1 X132.467 Y65.554 E9.96096
G1 X133.412 Y66.284 E10.10279
G1 X134.200 Y67.172 E10.24388
G1 X134.812 Y68.198 E10.38571
G1 X135.220 Y69.314 E10.52680
G1 X135.414 Y70.492 E10.66863
G1 X135.427 Y129.233 E17.64505
G1 X135.300 Y130.346 E17.77804
G1 X134.977 Y131.425 E17.91177
G1 X134.469 Y132.430 E18.04550
G1 X133.792 Y133.329 E18.17922
G1 X132.812 Y134.211 E18.33578
G1 X131.672 Y134.872 E18.49233
G1 X130.426 Y135.283 E18.64815
G1 X129.116 Y135.428 E18.80470
G1 X70.760 Y135.426 E25.73529
G1 X69.648 Y135.298 E25.86828
G1 X68.569 Y134.975 E26.00201
G1 X67.570 Y134.469 E26.13500
G1 X66.671 Y133.792 E26.26873
G1 X65.789 Y132.812 E26.42528
G1 X65.128 Y131.672 E26.58183
G1 X64.717 Y130.426 E26.73765
G1 X64.572 Y129.116 E26.89420
G1 X64.574 Y70.760 E33.82480
G1 X64.702 Y69.648 E33.95779
G1 X65.025 Y68.569 E34.09151
G1 X65.531 Y67.570 E34.22450
G1 X66.172 Y66.719 E34.35110
G1 E32.35110 F2400.00000
G92 E0
G1 X127.243 Y127.243 F7800.000
G1 E2.00000 F2400.00000
G1 F1800
G1 X72.757 Y127.243 E8.47109
G1 X72.757 Y72.757 E14.94219
G1 X127.243 Y72.757 E21.41328
G1 X127.243 Y127.183 E27.87725
G1 X127.957 Y127.957 F7800.000
G1 F1800
G1 X72.043 Y127.957 E34.51797
G1 X72.043 Y72.043 E41.15870
G1 X127.957 Y72.043 E47.79943
G1 X127.957 Y127.897 E54.43303
G1 X128.672 Y128.672 F7800.000
G1 F1800
G1 X71.328 Y128.672 E61.24339
G1 X71.328 Y71.328 E68.05376
G1 X128.672 Y71.328 E74.86412
G1 X128.672 Y128.612 E81.66735
G1 X128.285 Y128.568 F7800.000
G1 E79.66735 F2400.00000
G92 E0
G1 X127.029 Y74.417 F7800.000
G1 E2.00000 F2400.00000
G1 F1800
G1 X125.904 Y73.292 E2.18928
G1 X124.892 Y73.292 E2.30965
G1 X126.708 Y75.108 E2.61509
G1 X126.708 Y76.119 E2.73547
G1 X123.881 Y73.292 E3.21115
G1 X122.869 Y73.292 E3.33152
G1 X126.708 Y77.131 E3.97743
G1 X126.708 Y78.143 E4.09781
G1 X121.857 Y73.292 E4.91396
G1 X120.845 Y73.292 E5.03434
G1 X126.708 Y79.155 E6.02072
G1 X126.708 Y80.167 E6.14110
G1 X119.833 Y73.292 E7.29772
G1 X118.822 Y73.292 E7.41809
G1 X126.708 Y81.178 E8.74495
G1 X126.708 Y82.190 E8.86533
G1 X117.810 Y73.292 E10.36242
G1 X116.798 Y73.292 E10.48280
G1 X126.708 Y83.202 E12.15013
G1 X126.708 Y84.214 E12.27051
G1 X115.786 Y73.292 E14.10807
G1 X114.775 Y73.292 E14.22845
G1 X126.708 Y85.225 E16.23625
G1 X126.708 Y86.237 E16.35663
G1 X113.763 Y73.292 E18.53467
G1 X112.751 Y73.292 E18.65504
G1 X126.708 Y87.249 E21.00332
G1 X126.708 Y88.261 E21.12370
G1 X111.739 Y73.292 E23.64221
G1 X110.728 Y73.292 E23.76258
G1 X126.708 Y89.272 E26.45133
G1 X126.708 Y90.284 E26.57171
G1 X109.716 Y73.292 E29.43069
G1 X108.704 Y73.292 E29.55107
G1 X126.708 Y91.296 E32.58029
G1 X126.708 Y92.308 E32.70067
G1 X107.692 Y73.292 E35.90012
G1 X106.681 Y73.292 E36.02050
G1 X126.708 Y93.319 E39.39019
G1 X126.708 Y94.331 E39.51057
G1 X105.669 Y73.292 E43.05050
G1 X104.657 Y73.292 E43.17088
G1 X126.708 Y95.343 E46.88104
G1 X126.708 Y96.355 E47.00142
G1 X103.645 Y73.292 E50.88182
G1 X102.634 Y73.292 E51.00220
G1 X126.708 Y97.366 E55.05284
G1 X126.708 Y98.378 E55.17321
G1 X101.622 Y73.292 E59.39409
G1 X100.610 Y73.292 E59.51446
G1 X126.708 Y99.390 E63.90558
G1 X126.708 Y100.402 E64.02595
G1 X99.598 Y73.292 E68.58730
G1 X98.586 Y73.292 E68.70768
G1 X126.708 Y101.414 E73.43926
G1 X126.708 Y102.425 E73.55964
G1 X97.575 Y73.292 E78.46146
G1 X96.563 Y73.292 E78.58183
G1 X126.708 Y103.437 E83.65389
G1 X126.708 Y104.449 E83.77427
G1 X95.551 Y73.292 E89.01656
G1 X94.539 Y73.292 E89.13694
G1 X126.708 Y105.461 E94.54947
G1 X126.708 Y106.472 E94.66984
G1 X93.528 Y73.292 E100.25261
G1 X92.516 Y73.292 E100.37298
G1 X126.708 Y107.484 E106.12599
G1 X126.708 Y108.496 E106.24636
G1 X91.504 Y73.292 E112.16960
G1 X90.492 Y73.292 E112.28998
G1 X126.708 Y109.508 E118.38345
G1 X126.708 Y110.519 E118.50383
G1 X89.481 Y73.292 E124.76754
G1 X88.469 Y73.292 E124.88792
G1 X126.708 Y111.531 E131.32186
G1 X126.708 Y112.543 E131.44224
G1 X87.457 Y73.292 E138.04642
G1 X86.445 Y73.292 E138.16680
G1 X126.708 Y113.555 E144.94122
G1 X126.708 Y114.566 E145.06160
G1 X85.434 Y73.292 E152.00625
G1 X84.422 Y73.292 E152.12663
G1 X126.708 Y115.578 E159.24152
G1 X126.708 Y116.590 E159.36190
G1 X83.410 Y73.292 E166.64703
G1 X82.398 Y73.292 E166.76740
G1 X126.708 Y117.602 E174.22277
G1 X126.708 Y118.614 E174.34315
G1 X81.386 Y73.292 E181.96875
G1 X80.375 Y73.292 E182.08912
G1 X126.708 Y119.625 E189.88496
G1 X126.708 Y120.637 E190.00534
G1 X79.363 Y73.292 E197.97141
G1 X78.351 Y73.292 E198.09179
G1 X126.708 Y121.649 E206.22810
G1 X126.708 Y122.661 E206.34848
G1 X77.339 Y73.292 E214.65502
G1 X76.328 Y73.292 E214.77540
G1 X126.708 Y123.672 E223.25218
G1 X126.708 Y124.684 E223.37256
G1 X75.316 Y73.292 E232.01958
G1 X74.304 Y73.292 E232.13995
G1 X126.708 Y125.696 E240.95721
G1 X126.708 Y126.708 E241.07759
G1 X73.292 Y73.292 E250.06507
G1 X73.292 Y74.304 E250.18545
G1 X125.696 Y126.708 E259.00270
G1 X124.684 Y126.708 E259.12308
G1 X73.292 Y75.316 E267.77009
G1 X73.292 Y76.328 E267.89047
G1 X123.672 Y126.708 E276.36725
G1 X122.661 Y126.708 E276.48762
G1 X73.292 Y77.339 E284.79416
G1 X73.292 Y78.351 E284.91454
G1 X121.649 Y126.708 E293.05085
G1 X120.637 Y126.708 E293.17122
G1 X73.292 Y79.363 E301.13729
G1 X73.292 Y80.375 E301.25767
G1 X119.625 Y126.708 E309.05350
G1 X118.614 Y126.708 E309.17388
G1 X73.292 Y81.386 E316.79947
G1 X73.292 Y82.398 E316.91985
G1 X117.602 Y126.708 E324.37521
G1 X116.590 Y126.708 E324.49558
G1 X73.292 Y83.410 E331.78071
G1 X73.292 Y84.422 E331.90108
G1 X115.578 Y126.708 E339.01597
G1 X114.566 Y126.708 E339.13635
G1 X73.292 Y85.434 E346.08100
G1 X73.292 Y86.445 E346.20138
G1 X113.555 Y126.708 E352.97579
G1 X112.543 Y126.708 E353.09617
G1 X73.292 Y87.457 E359.70035
G1 X73.292 Y88.469 E359.82072
G1 X111.531 Y126.708 E366.25467
G1 X110.519 Y126.708 E366.37504
G1 X73.292 Y89.481 E372.63875
G1 X73.292 Y90.492 E372.75912
G1 X109.508 Y126.708 E378.85259
G1 X108.496 Y126.708 E378.97297
G1 X73.292 Y91.504 E384.89620
G1 X73.292 Y92.516 E385.01658
G1 X107.484 Y126.708 E390.76958
G1 X106.472 Y126.708 E390.88995
G1 X73.292 Y93.528 E396.47271
G1 X73.292 Y94.539 E396.59309
G1 X105.461 Y126.708 E402.00561
G1 X104.449 Y126.708 E402.12599
G1 X73.292 Y95.551 E407.36828
G1 X73.292 Y96.563 E407.48865
G1 X103.437 Y126.708 E412.56070
G1 X102.425 Y126.708 E412.68108
G1 X73.292 Y97.575 E417.58290
G1 X73.292 Y98.586 E417.70327
G1 X101.414 Y126.708 E422.43485
G1 X100.402 Y126.708 E422.55523
G1 X73.292 Y99.598 E427.11657
G1 X73.292 Y100.610 E427.23695
G1 X99.390 Y126.708 E431.62805
G1 X98.378 Y126.708 E431.74843
G1 X73.292 Y101.622 E435.96930
G1 X73.292 Y102.634 E436.08967
G1 X97.366 Y126.708 E440.14031
G1 X96.355 Y126.708 E440.26068
G1 X73.292 Y103.645 E444.14108
G1 X73.292 Y104.657 E444.26146
G1 X95.343 Y126.708 E447.97162
G1 X94.331 Y126.708 E448.09199
G1 X73.292 Y105.669 E451.63192
G1 X73.292 Y106.681 E451.75229
G1 X93.319 Y126.708 E455.12198
G1 X92.308 Y126.708 E455.24236
G1 X73.292 Y107.692 E458.44181
G1 X73.292 Y108.704 E458.56219
G1 X91.296 Y126.708 E461.59140
G1 X90.284 Y126.708 E461.71178
G1 X73.292 Y109.716 E464.57076
G1 X73.292 Y110.728 E464.69113
G1 X89.272 Y126.708 E467.37988
G1 X88.261 Y126.708 E467.50025
G1 X73.292 Y111.739 E470.01876
G1 X73.292 Y112.751 E470.13914
G1 X87.249 Y126.708 E472.48741
G1 X86.237 Y126.708 E472.60778
G1 X73.292 Y113.763 E474.78582
G1 X73.292 Y114.775 E474.90619
G1 X85.225 Y126.708 E476.91399
G1 X84.214 Y126.708 E477.03437
G1 X73.292 Y115.786 E478.87193
G1 X73.292 Y116.798 E478.99230
G1 X83.202 Y126.708 E480.65963
G1 X82.190 Y126.708 E480.78000
G1 X73.292 Y117.810 E482.27709
G1 X73.292 Y118.822 E482.39747
G1 X81.178 Y126.708 E483.72432
G1 X80.166 Y126.708 E483.84470
G1 X73.292 Y119.834 E485.00131
G1 X73.292 Y120.845 E485.12169
G1 X79.155 Y126.708 E486.10807
G1 X78.143 Y126.708 E486.22844
G1 X73.292 Y121.857 E487.04459
G1 X73.292 Y122.869 E487.16496
G1 X77.131 Y126.708 E487.81087
G1 X76.119 Y126.708 E487.93125
G1 X73.292 Y123.881 E488.40692
G1 X73.292 Y124.892 E488.52729
G1 X75.108 Y126.708 E488.83273
G1 X74.096 Y126.708 E488.95310
G1 X72.971 Y125.583 E489.14238
G1 Z0.550 F7800.000
M140 S55 ; set bed temperature
G1 X128.286 Y128.286
G1 F3600
G1 X71.714 Y128.286 E490.61640
G1 X71.714 Y71.714 E492.09042
G1 X128.286 Y71.714 E493.56444
G1 X128.286 Y128.226 E495.03690
G1 X128.704 Y128.704 F7800.000
G1 F3600
G1 X71.296 Y128.704 E496.53270
G1 X71.296 Y71.296 E498.02850
G1 X128.704 Y71.296 E499.52429
G1 X128.704 Y128.644 E501.01852
G1 X128.704 Y129.122 F7800.000
G1 F1800
G1 X70.878 Y129.122 E502.52520
G1 X70.878 Y70.878 E504.04277
G1 X129.122 Y70.878 E505.56034
G1 X129.122 Y129.122 E507.07791
G1 X128.764 Y129.122 E507.08723
G1 X128.358 Y128.921 F7800.000
G1 X127.312 Y128.161
G1 F1200
G1 X127.973 Y127.500 E507.11166
G1 X127.973 Y126.907 E507.12718
G1 X126.907 Y127.973 E507.16661
G1 X126.314 Y127.973 E507.18213
G1 X127.973 Y126.314 E507.24350
G1 X127.973 Y125.721 E507.25902
G1 X125.721 Y127.973 E507.34235
G1 X125.127 Y127.973 E507.35787
G1 X127.973 Y125.127 E507.46315
G1 X127.973 Y124.534 E507.47867
G1 X124.534 Y127.973 E507.60590
G1 X123.941 Y127.973 E507.62142
G1 X127.973 Y123.941 E507.77060
G1 X127.973 Y123.347 E507.78612
G1 X123.347 Y127.973 E507.95726
G1 X122.754 Y127.973 E507.97278
G1 X127.973 Y122.754 E508.16586
G1 X127.973 Y122.161 E508.18138
G1 X122.161 Y127.973 E508.39642
G1 X121.567 Y127.973 E508.41194
G1 X127.973 Y121.567 E508.64893
G1 X127.973 Y120.974 E508.66445
G1 X120.974 Y127.973 E508.92339
G1 X120.381 Y127.973 E508.93891
G1 X127.973 Y120.381 E509.21980
G1 X127.973 Y119.788 E509.23532
G1 X119.788 Y127.973 E509.53816
G1 X119.194 Y127.973 E509.55368
G1 X127.973 Y119.194 E509.87848
G1 X127.973 Y118.601 E509.89400
G1 X118.601 Y127.973 E510.24074
G1 X118.008 Y127.973 E510.25627
G1 X127.973 Y118.008 E510.62496
G1 X127.973 Y117.414 E510.64048
G1 X117.414 Y127.973 E511.03113
G1 X116.821 Y127.973 E511.04665
G1 X127.973 Y116.821 E511.45925
G1 X127.973 Y116.228 E511.47477
G1 X116.228 Y127.973 E511.90932
G1 X115.635 Y127.973 E511.92485
G1 X127.973 Y115.635 E512.38135
G1 X127.973 Y115.041 E512.39687
G1 X115.041 Y127.973 E512.87532
G1 X114.448 Y127.973 E512.89084
G1 X127.973 Y114.448 E513.39125
G1 X127.973 Y113.855 E513.40677
G1 X113.855 Y127.973 E513.92913
G1 X113.261 Y127.973 E513.94465
G1 X127.973 Y113.261 E514.48896
G1 X127.973 Y112.668 E514.50448
G1 X112.668 Y127.973 E515.07074
G1 X112.075 Y127.973 E515.08626
G1 X127.973 Y112.075 E515.67447
G1 X127.973 Y111.481 E515.68999
G1 X111.481 Y127.973 E516.30016
G1 X110.888 Y127.973 E516.31568
G1 X127.973 Y110.888 E516.94779
G1 X127.973 Y110.295 E516.96331
G1 X110.295 Y127.973 E517.61738
G1 X109.702 Y127.973 E517.63290
G1 X127.973 Y109.702 E518.30892
G1 X127.973 Y109.108 E518.32444
G1 X109.108 Y127.973 E519.02241
G1 X108.515 Y127.973 E519.03793
G1 X127.973 Y108.515 E519.75785
G1 X127.973 Y107.922 E519.77337
G1 X107.922 Y127.973 E520.51525
G1 X107.328 Y127.973 E520.53077
G1 X127.973 Y107.328 E521.29459
G1 X127.973 Y106.735 E521.31011
G1 X106.735 Y127.973 E522.09589
G1 X106.142 Y127.973 E522.11141
G1 X127.973 Y106.142 E522.91914
G1 X127.973 Y105.549 E522.93466
G1 X105.549 Y127.973 E523.76434
G1 X104.955 Y127.973 E523.77986
G1 X127.973 Y104.955 E524.63149
G1 X127.973 Y104.362 E524.64701
G1 X104.362 Y127.973 E525.52059
G1 X103.769 Y127.973 E525.53611
G1 X127.973 Y103.769 E526.43164
G1 X127.973 Y103.175 E526.44717
G1 X103.175 Y127.973 E527.36465
G1 X102.582 Y127.973 E527.38017
G1 X127.973 Y102.582 E528.31961
G1 X127.973 Y101.989 E528.33513
G1 X101.989 Y127.973 E529.29652
G1 X101.395 Y127.973 E529.31204
G1 X127.973 Y101.395 E530.29538
G1 X127.973 Y100.802 E530.31090
G1 X100.802 Y127.973 E531.31619
G1 X100.209 Y127.973 E531.33171
G1 X127.973 Y100.209 E532.35895
G1 X127.973 Y99.616 E532.37448
G1 X99.616 Y127.973 E533.42367
G1 X99.022 Y127.973 E533.43919
G1 X127.973 Y99.022 E534.51033
G1 X127.973 Y98.429 E534.52586
G1 X98.429 Y127.973 E535.61895
G1 X97.836 Y127.973 E535.63447
G1 X127.973 Y97.836 E536.74952
G1 X127.973 Y97.242 E536.76504
G1 X97.242 Y127.973 E537.90204
G1 X96.649 Y127.973 E537.91757
G1 X127.973 Y96.649 E539.07652
G1 X127.973 Y96.056 E539.09204
G1 X96.056 Y127.973 E540.27294
G1 X95.463 Y127.973 E540.28846
G1 X127.973 Y95.463 E541.49132
G1 X127.973 Y94.869 E541.50684
G1 X94.869 Y127.973 E542.73164
G1 X94.276 Y127.973 E542.74717
G1 X127.973 Y94.276 E543.99392
G1 X127.973 Y93.683 E544.00944
G1 X93.683 Y127.973 E545.27815
G1 X93.089 Y127.973 E545.29367
G1 X127.973 Y93.089 E546.58433
G1 X127.973 Y92.496 E546.59986
G1 X92.496 Y127.973 E547.91247
G1 X91.903 Y127.973 E547.92799
G1 X127.973 Y91.903 E549.26255
G1 X127.973 Y91.309 E549.27807
G1 X91.309 Y127.973 E550.63459
G1 X90.716 Y127.973 E550.65011
G1 X127.973 Y90.716 E552.02858
G1 X127.973 Y90.123 E552.04410
G1 X90.123 Y127.973 E553.44452
G1 X89.530 Y127.973 E553.46004
G1 X127.973 Y89.530 E554.88241
G1 X127.973 Y88.936 E554.89793
G1 X88.936 Y127.973 E556.34225
G1 X88.343 Y127.973 E556.35777
G1 X127.973 Y88.343 E557.82404
G1 X127.973 Y87.750 E557.83957
G1 X87.750 Y127.973 E559.32779
G1 X87.156 Y127.973 E559.34331
G1 X127.973 Y87.156 E560.85349
G1 X127.973 Y86.563 E560.86901
G1 X86.563 Y127.973 E562.40114
G1 X85.970 Y127.973 E562.41666
G1 X127.973 Y85.970 E563.97074
G1 X127.973 Y85.377 E563.98626
G1 X85.377 Y127.973 E565.56229
G1 X84.783 Y127.973 E565.57781
G1 X127.973 Y84.783 E567.17579
G1 X127.973 Y84.190 E567.19131
G1 X84.190 Y127.973 E568.81125
G1 X83.597 Y127.973 E568.82677
G1 X127.973 Y83.597 E570.46865
G1 X127.973 Y83.003 E570.48417
G1 X83.003 Y127.973 E572.14801
G1 X82.410 Y127.973 E572.16353
G1 X127.973 Y82.410 E573.84932
G1 X127.973 Y81.817 E573.86484
G1 X81.817 Y127.973 E575.57258
G1 X81.223 Y127.973 E575.58810
G1 X127.973 Y81.223 E577.31779
G1 X127.973 Y80.630 E577.33331
G1 X80.630 Y127.973 E579.08496
G1 X80.037 Y127.973 E579.10048
G1 X127.973 Y80.037 E580.87407
G1 X127.973 Y79.444 E580.88959
G1 X79.444 Y127.973 E582.68514
G1 X78.850 Y127.973 E582.70066
G1 X127.973 Y78.850 E584.51816
G1 X127.973 Y78.257 E584.53368
G1 X78.257 Y127.973 E586.37313
G1 X77.664 Y127.973 E586.38865
G1 X127.973 Y77.664 E588.25005
G1 X127.973 Y77.070 E588.26557
G1 X77.070 Y127.973 E590.14892
G1 X76.477 Y127.973 E590.16444
G1 X127.973 Y76.477 E592.06975
G1 X127.973 Y75.884 E592.08527
G1 X75.884 Y127.973 E594.01252
G1 X75.291 Y127.973 E594.02804
G1 X127.973 Y75.291 E595.97725
G1 X127.973 Y74.697 E595.99277
G1 X74.697 Y127.973 E597.96393
G1 X74.104 Y127.973 E597.97945
G1 X127.973 Y74.104 E599.97256
G1 X127.973 Y73.511 E599.98808
G1 X73.511 Y127.973 E602.00314
G1 X72.917 Y127.973 E602.01866
G1 X127.973 Y72.917 E604.05568
G1 X127.973 Y72.324 E604.07120
G1 X72.324 Y127.973 E606.13016
G1 X72.027 Y127.973 E606.13792
G1 X72.027 Y127.676 E606.14568
G1 X127.676 Y72.027 E608.20465
G1 X127.083 Y72.027 E608.22017
G1 X72.027 Y127.083 E610.25718
G1 X72.027 Y126.489 E610.27271
G1 X126.489 Y72.027 E612.28777
G1 X125.896 Y72.027 E612.30329
G1 X72.027 Y125.896 E614.29640
G1 X72.027 Y125.303 E614.31192
G1 X125.303 Y72.027 E616.28308
G1 X124.710 Y72.027 E616.29860
G1 X72.027 Y124.709 E618.24781
G1 X72.027 Y124.116 E618.26333
G1 X124.116 Y72.027 E620.19059
G1 X123.523 Y72.027 E620.20611
G1 X72.027 Y123.523 E622.11141
G1 X72.027 Y122.930 E622.12693
G1 X122.930 Y72.027 E624.01029
