; generated by PrusaSlicer 2.1.1+ on 2021-06-16 at 17:58:54 UTC

; 

; external perimeters extrusion width = 0.45mm
; perimeters extrusion width = 0.45mm
; infill extrusion width = 0.45mm
; solid infill extrusion width = 0.45mm
; top infill extrusion width = 0.40mm
; first layer extrusion width = 0.80mm

M107
M190 S60 ; set bed temperature and wait for it to be reached
M104 S200 ; set temperature
G28 ; home all axes
G1 Z5 F5000 ; lift nozzle
M109 S200 ; set temperature and wait for it to be reached
G21 ; set units to millimeters
G90 ; use absolute coordinates
M82 ; use absolute distances for extrusion
G92 E0
; Filament gcode
G1 Z0.400 F7800.000
G1 E-2.00000 F2400.00000
G92 E0
G1 X67.570 Y68.059 F7800.000
G1 E2.00000 F2400.00000
G1 F1800
G1 X68.517 Y67.197 E2.15214
G1 X69.612 Y66.544 E2.30354
G1 X70.815 Y66.123 E2.45494
G1 X72.079 Y65.950 E2.60634
G1 X127.703 Y65.946 E9.21259
G1 X128.886 Y66.058 E9.35368
G1 X130.027 Y66.389 E9.49478
G1 X131.087 Y66.925 E9.63587
G1 X132.028 Y67.650 E9.77696
G1 X132.818 Y68.537 E9.91806
G1 X133.429 Y69.556 E10.05915
G1 X133.842 Y70.677 E10.20098
G1 X134.037 Y71.848 E10.34207
G1 X134.052 Y127.865 E16.99488
G1 X133.925 Y128.971 E17.12713
G1 X133.604 Y130.044 E17.26012
G1 X133.101 Y131.044 E17.39311
G1 X132.430 Y131.941 E17.52610
G1 X131.453 Y132.826 E17.68266
G1 X130.314 Y133.490 E17.83921
G1 X129.057 Y133.907 E17.99650
G1 X127.747 Y134.054 E18.15305
G1 X72.129 Y134.051 E24.75856
G1 X71.023 Y133.923 E24.89081
G1 X69.950 Y133.602 E25.02380
G1 X68.956 Y133.101 E25.15606
G1 X68.059 Y132.430 E25.28904
G1 X67.174 Y131.453 E25.44560
G1 X66.510 Y130.314 E25.60215
G1 X66.093 Y129.057 E25.75944
G1 X65.946 Y127.747 E25.91599
G1 X65.949 Y72.129 E32.52150
G1 X66.077 Y71.023 E32.65375
G1 X66.398 Y69.950 E32.78674
G1 X66.899 Y68.956 E32.91900
G1 X67.534 Y68.107 E33.04486
G1 E31.04486 F2400.00000
G92 E0
G1 X125.868 Y125.868 F7800.000
G1 E2.00000 F2400.00000
G1 F1800
G1 X74.132 Y125.868 E8.14453
G1 X74.132 Y74.132 E14.28906
G1 X125.868 Y74.132 E20.43358
G1 X125.868 Y125.808 E26.57099
G1 X126.583 Y126.583 F7800.000
G1 F1800
G1 X73.417 Y126.583 E32.88515
G1 X73.417 Y73.417 E39.19931
G1 X126.583 Y73.417 E45.51347
G1 X126.583 Y126.523 E51.82051
G1 X127.297 Y127.297 F7800.000
G1 F1800
G1 X72.703 Y127.297 E58.30431
G1 X72.703 Y72.703 E64.78810
G1 X127.297 Y72.703 E71.27190
G1 X127.297 Y127.237 E77.74857
G1 X126.910 Y127.193 F7800.000
G1 E75.74857 F2400.00000
G92 E0
G1 X125.654 Y75.801 F7800.000
G1 E2.00000 F2400.00000
G1 F1800
G1 X124.521 Y74.667 E2.19177
G1 X123.503 Y74.667 E2.31350
G1 X125.333 Y76.497 E2.62304
G1 X125.333 Y77.514 E2.74476
G1 X122.486 Y74.667 E3.22645
G1 X121.468 Y74.667 E3.34817
G1 X125.333 Y78.532 E4.00201
G1 X125.333 Y79.549 E4.12373
G1 X120.451 Y74.667 E4.94971
G1 X119.434 Y74.667 E5.07143
G1 X125.333 Y80.566 E6.06956
G1 X125.333 Y81.584 E6.19128
G1 X118.416 Y74.667 E7.36155
G1 X117.399 Y74.667 E7.48327
G1 X125.333 Y82.601 E8.82569
G1 X125.333 Y83.619 E8.94741
G1 X116.381 Y74.667 E10.46197
G1 X115.364 Y74.667 E10.58370
G1 X125.333 Y84.636 E12.27040
G1 X125.333 Y85.653 E12.39212
G1 X114.347 Y74.667 E14.25097
G1 X113.329 Y74.667 E14.37270
G1 X125.333 Y86.671 E16.40369
G1 X125.333 Y87.688 E16.52542
G1 X112.312 Y74.667 E18.72855
G1 X111.294 Y74.667 E18.85028
G1 X125.333 Y88.706 E21.22556
G1 X125.333 Y89.723 E21.34729
G1 X110.277 Y74.667 E23.89472
G1 X109.259 Y74.667 E24.01644
G1 X125.333 Y90.741 E26.73602
G1 X125.333 Y91.758 E26.85774
G1 X108.242 Y74.667 E29.74946
G1 X107.225 Y74.667 E29.87119
G1 X125.333 Y92.775 E32.93505
G1 X125.333 Y93.793 E33.05678
G1 X106.207 Y74.667 E36.29279
G1 X105.190 Y74.667 E36.41452
G1 X125.333 Y94.810 E39.82267
G1 X125.333 Y95.828 E39.94440
G1 X104.172 Y74.667 E43.52470
G1 X103.155 Y74.667 E43.64642
G1 X125.333 Y96.845 E47.39887
G1 X125.333 Y97.863 E47.52059
G1 X102.137 Y74.667 E51.44519
G1 X101.120 Y74.667 E51.56691
G1 X125.333 Y98.880 E55.66365
G1 X125.333 Y99.897 E55.78537
G1 X100.103 Y74.667 E60.05426
G1 X99.085 Y74.667 E60.17598
G1 X125.333 Y100.915 E64.61701
G1 X125.333 Y101.932 E64.73873
G1 X98.068 Y74.667 E69.35191
G1 X97.050 Y74.667 E69.47363
G1 X125.333 Y102.950 E74.25895
G1 X125.333 Y103.967 E74.38068
G1 X96.033 Y74.667 E79.33814
G1 X95.016 Y74.667 E79.45986
G1 X125.333 Y104.984 E84.58947
G1 X125.333 Y106.002 E84.71120
G1 X93.998 Y74.667 E90.01295
G1 X92.981 Y74.667 E90.13468
G1 X125.333 Y107.019 E95.60858
G1 X125.333 Y108.037 E95.73030
G1 X91.963 Y74.667 E101.37635
G1 X90.946 Y74.667 E101.49807
G1 X125.333 Y109.054 E107.31626
G1 X125.333 Y110.072 E107.43799
G1 X89.928 Y74.667 E113.42832
G1 X88.911 Y74.667 E113.55005
G1 X125.333 Y111.089 E119.71253
G1 X125.333 Y112.106 E119.83425
G1 X87.894 Y74.667 E126.16888
G1 X86.876 Y74.667 E126.29060
G1 X125.333 Y113.124 E132.79737
G1 X125.333 Y114.141 E132.91910
G1 X85.859 Y74.667 E139.59801
G1 X84.841 Y74.667 E139.71974
G1 X125.333 Y115.159 E146.57080
G1 X125.333 Y116.176 E146.69253
G1 X83.824 Y74.667 E153.71573
G1 X82.807 Y74.667 E153.83746
G1 X125.333 Y117.193 E161.03281
G1 X125.333 Y118.211 E161.15453
G1 X81.789 Y74.667 E168.52203
G1 X80.772 Y74.667 E168.64376
G1 X125.333 Y119.228 E176.18340
G1 X125.333 Y120.246 E176.30512
G1 X79.754 Y74.667 E184.01691
G1 X78.737 Y74.667 E184.13864
G1 X125.333 Y121.263 E192.02257
G1 X125.333 Y122.281 E192.14430
G1 X77.719 Y74.667 E200.20037
G1 X76.702 Y74.667 E200.32210
G1 X125.333 Y123.298 E208.55032
G1 X125.333 Y124.315 E208.67205
G1 X75.685 Y74.667 E217.07242
G1 X74.667 Y74.667 E217.19413
G1 X125.333 Y125.333 E225.76663
G1 X124.315 Y125.333 E225.88836
G1 X74.667 Y75.685 E234.28870
G1 X74.667 Y76.702 E234.41043
G1 X123.298 Y125.333 E242.63863
G1 X122.280 Y125.333 E242.76036
G1 X74.667 Y77.720 E250.81641
G1 X74.667 Y78.737 E250.93814
G1 X121.263 Y125.333 E258.82205
G1 X120.246 Y125.333 E258.94377
G1 X74.667 Y79.754 E266.65554
G1 X74.667 Y80.772 E266.77726
G1 X119.228 Y125.333 E274.31689
G1 X118.211 Y125.333 E274.43861
G1 X74.667 Y81.789 E281.80609
G1 X74.667 Y82.807 E281.92781
G1 X117.193 Y125.333 E289.12314
G1 X116.176 Y125.333 E289.24487
G1 X74.667 Y83.824 E296.26805
G1 X74.667 Y84.841 E296.38978
G1 X115.159 Y125.333 E303.24081
G1 X114.141 Y125.333 E303.36254
G1 X74.667 Y85.859 E310.04143
G1 X74.667 Y86.876 E310.16316
G1 X113.124 Y125.333 E316.66991
G1 X112.106 Y125.333 E316.79163
G1 X74.667 Y87.894 E323.12624
G1 X74.667 Y88.911 E323.24796
G1 X111.089 Y125.333 E329.41042
G1 X110.071 Y125.333 E329.53214
G1 X74.667 Y89.929 E335.52246
G1 X74.667 Y90.946 E335.64418
G1 X109.054 Y125.333 E341.46235
G1 X108.037 Y125.333 E341.58407
G1 X74.667 Y91.963 E347.23010
G1 X74.667 Y92.981 E347.35182
G1 X107.019 Y125.333 E352.82570
G1 X106.002 Y125.333 E352.94742
G1 X74.667 Y93.998 E358.24916
G1 X74.667 Y95.016 E358.37088
G1 X104.984 Y125.333 E363.50047
G1 X103.967 Y125.333 E363.62219
G1 X74.667 Y96.033 E368.57963
G1 X74.667 Y97.051 E368.70136
G1 X102.949 Y125.333 E373.48666
G1 X101.932 Y125.333 E373.60838
G1 X74.667 Y98.068 E378.22153
G1 X74.667 Y99.085 E378.34326
G1 X100.915 Y125.333 E382.78426
G1 X99.897 Y125.333 E382.90599
G1 X74.667 Y100.103 E387.17485
G1 X74.667 Y101.120 E387.29657
G1 X98.880 Y125.333 E391.39329
G1 X97.862 Y125.333 E391.51501
G1 X74.667 Y102.138 E395.43958
G1 X74.667 Y103.155 E395.56131
G1 X96.845 Y125.333 E399.31373
G1 X95.828 Y125.333 E399.43546
G1 X74.667 Y104.172 E403.01573
G1 X74.667 Y105.190 E403.13746
G1 X94.810 Y125.333 E406.54559
G1 X93.793 Y125.333 E406.66732
G1 X74.667 Y106.207 E409.90331
G1 X74.667 Y107.225 E410.02503
G1 X92.775 Y125.333 E413.08888
G1 X91.758 Y125.333 E413.21060
G1 X74.667 Y108.242 E416.10230
G1 X74.667 Y109.260 E416.22402
G1 X90.740 Y125.333 E418.94358
G1 X89.723 Y125.333 E419.06530
G1 X74.667 Y110.277 E421.61271
G1 X74.667 Y111.294 E421.73443
G1 X88.706 Y125.333 E424.10970
G1 X87.688 Y125.333 E424.23142
G1 X74.667 Y112.312 E426.43454
G1 X74.667 Y113.329 E426.55626
G1 X86.671 Y125.333 E428.58723
G1 X85.653 Y125.333 E428.70896
G1 X74.667 Y114.347 E430.56779
G1 X74.667 Y115.364 E430.68951
G1 X84.636 Y125.333 E432.37619
G1 X83.618 Y125.333 E432.49792
G1 X74.667 Y116.382 E434.01245
G1 X74.667 Y117.399 E434.13418
G1 X82.601 Y125.333 E435.47657
G1 X81.584 Y125.333 E435.59829
G1 X74.667 Y118.416 E436.76854
G1 X74.667 Y119.434 E436.89026
G1 X80.566 Y125.333 E437.88836
G1 X79.549 Y125.333 E438.01009
G1 X74.667 Y120.451 E438.83604
G1 X74.667 Y121.469 E438.95777
G1 X78.531 Y125.333 E439.61158
G1 X77.514 Y125.333 E439.73330
G1 X74.667 Y122.486 E440.21496
G1 X74.667 Y123.503 E440.33669
G1 X76.497 Y125.333 E440.64621
G1 X75.479 Y125.333 E440.76793
G1 X74.346 Y124.200 E440.95968
G1 Z0.550 F7800.000
M140 S55 ; set bed temperature
G1 X126.911 Y126.911
G1 F3600
G1 X73.089 Y126.911 E442.36206
G1 X73.089 Y73.089 E443.76444
G1 X126.911 Y73.089 E445.16682
G1 X126.911 Y126.851 E446.56763
G1 X127.329 Y127.329 F7800.000
G1 F3600
G1 X72.671 Y127.329 E447.99178
G1 X72.671 Y72.671 E449.41593
G1 X127.329 Y72.671 E450.84008
G1 X127.329 Y127.269 E452.26267
G1 X127.329 Y127.747 F7800.000
G1 F1800
G1 X72.253 Y127.747 E453.69771
G1 X72.253 Y72.253 E455.14363
G1 X127.747 Y72.253 E456.58955
G1 X127.747 Y127.747 E458.03548
G1 X127.389 Y127.747 E458.04480
G1 X126.983 Y127.546 F7800.000
G1 X125.939 Y126.786
G1 F1200
G1 X126.598 Y126.127 E458.06914
G1 X126.598 Y125.534 E458.08462
G1 X125.534 Y126.598 E458.12390
G1 X124.942 Y126.598 E458.13938
G1 X126.598 Y124.942 E458.20055
G1 X126.598 Y124.350 E458.21602
G1 X124.350 Y126.598 E458.29908
G1 X123.757 Y126.598 E458.31455
G1 X126.598 Y123.757 E458.41950
G1 X126.598 Y123.165 E458.43497
G1 X123.165 Y126.598 E458.56180
G1 X122.572 Y126.598 E458.57728
G1 X126.598 Y122.572 E458.72599
G1 X126.598 Y121.980 E458.74147
G1 X121.980 Y126.598 E458.91207
G1 X121.388 Y126.598 E458.92754
G1 X126.598 Y121.388 E459.12003
G1 X126.598 Y120.795 E459.13550
G1 X120.795 Y126.598 E459.34988
G1 X120.203 Y126.598 E459.36535
G1 X126.598 Y120.203 E459.60161
G1 X126.598 Y119.610 E459.61709
G1 X119.610 Y126.598 E459.87523
G1 X119.018 Y126.598 E459.89071
G1 X126.598 Y119.018 E460.17074
G1 X126.598 Y118.426 E460.18622
G1 X118.426 Y126.598 E460.48813
G1 X117.833 Y126.598 E460.50361
G1 X126.598 Y117.833 E460.82741
G1 X126.598 Y117.241 E460.84289
G1 X117.241 Y126.598 E461.18858
G1 X116.648 Y126.598 E461.20406
G1 X126.598 Y116.648 E461.57163
G1 X126.598 Y116.056 E461.58711
G1 X116.056 Y126.598 E461.97657
G1 X115.463 Y126.598 E461.99205
G1 X126.598 Y115.463 E462.40340
G1 X126.598 Y114.871 E462.41887
G1 X114.871 Y126.598 E462.85211
G1 X114.279 Y126.598 E462.86759
G1 X126.598 Y114.279 E463.32271
G1 X126.598 Y113.686 E463.33818
G1 X113.686 Y126.598 E463.81519
G1 X113.094 Y126.598 E463.83067
G1 X126.598 Y113.094 E464.32956
G1 X126.598 Y112.501 E464.34504
G1 X112.501 Y126.598 E464.86582
G1 X111.909 Y126.598 E464.88129
G1 X126.598 Y111.909 E465.42396
G1 X126.598 Y111.317 E465.43944
G1 X111.317 Y126.598 E466.00399
G1 X110.724 Y126.598 E466.01947
G1 X126.598 Y110.724 E466.60591
G1 X126.598 Y110.132 E466.62138
G1 X110.132 Y126.598 E467.22971
G1 X109.539 Y126.598 E467.24518
G1 X126.598 Y109.539 E467.87539
G1 X126.598 Y108.947 E467.89087
G1 X108.947 Y126.598 E468.54297
G1 X108.355 Y126.598 E468.55844
G1 X126.598 Y108.355 E469.23243
G1 X126.598 Y107.762 E469.24791
G1 X107.762 Y126.598 E469.94378
G1 X107.170 Y126.598 E469.95925
G1 X126.598 Y107.170 E470.67701
G1 X126.598 Y106.577 E470.69249
G1 X106.577 Y126.598 E471.43213
G1 X105.985 Y126.598 E471.44760
G1 X126.598 Y105.985 E472.20913
G1 X126.598 Y105.392 E472.22461
G1 X105.392 Y126.598 E473.00803
G1 X104.800 Y126.598 E473.02350
G1 X126.598 Y104.800 E473.82880
G1 X126.598 Y104.208 E473.84428
G1 X104.208 Y126.598 E474.67147
G1 X103.615 Y126.598 E474.68694
G1 X126.598 Y103.615 E475.53602
G1 X126.598 Y103.023 E475.55150
G1 X103.023 Y126.598 E476.42246
G1 X102.430 Y126.598 E476.43793
G1 X126.598 Y102.430 E477.33078
G1 X126.598 Y101.838 E477.34626
G1 X101.838 Y126.598 E478.26099
G1 X101.246 Y126.598 E478.27646
G1 X126.598 Y101.246 E479.21308
G1 X126.598 Y100.653 E479.22856
G1 X100.653 Y126.598 E480.18707
G1 X100.061 Y126.598 E480.20254
G1 X126.598 Y100.061 E481.18293
G1 X126.598 Y99.468 E481.19841
G1 X99.468 Y126.598 E482.20069
G1 X98.876 Y126.598 E482.21617
G1 X126.598 Y98.876 E483.24033
G1 X126.598 Y98.284 E483.25581
G1 X98.284 Y126.598 E484.30186
G1 X97.691 Y126.598 E484.31733
G1 X126.598 Y97.691 E485.38527
G1 X126.598 Y97.099 E485.40075
G1 X97.099 Y126.598 E486.49057
G1 X96.506 Y126.598 E486.50605
G1 X126.598 Y96.506 E487.61776
G1 X126.598 Y95.914 E487.63323
G1 X95.914 Y126.598 E488.76683
G1 X95.321 Y126.598 E488.78230
G1 X126.598 Y95.321 E489.93779
G1 X126.598 Y94.729 E489.95326
G1 X94.729 Y126.598 E491.13063
G1 X94.137 Y126.598 E491.14611
G1 X126.598 Y94.137 E492.34536
G1 X126.598 Y93.544 E492.36084
G1 X93.544 Y126.598 E493.58198
G1 X92.952 Y126.598 E493.59746
G1 X126.598 Y92.952 E494.84048
G1 X126.598 Y92.359 E494.85596
G1 X92.359 Y126.598 E496.12087
G1 X91.767 Y126.598 E496.13635
G1 X126.598 Y91.767 E497.42315
G1 X126.598 Y91.175 E497.43863
G1 X91.175 Y126.598 E498.74731
G1 X90.582 Y126.598 E498.76279
G1 X126.598 Y90.582 E500.09336
G1 X126.598 Y89.990 E500.10884
G1 X89.990 Y126.598 E501.46130
G1 X89.397 Y126.598 E501.47677
G1 X126.598 Y89.397 E502.85112
G1 X126.598 Y88.805 E502.86659
G1 X88.805 Y126.598 E504.26282
G1 X88.213 Y126.598 E504.27830
G1 X126.598 Y88.213 E505.69642
G1 X126.598 Y87.620 E505.71189
G1 X87.620 Y126.598 E507.15190
G1 X87.028 Y126.598 E507.16737
G1 X126.598 Y87.028 E508.62926
G1 X126.598 Y86.435 E508.64474
G1 X86.435 Y126.598 E510.12852
G1 X85.843 Y126.598 E510.14399
G1 X126.598 Y85.843 E511.64966
G1 X126.598 Y85.251 E511.66513
G1 X85.250 Y126.598 E513.19268
G1 X84.658 Y126.598 E513.20816
G1 X126.598 Y84.658 E514.75759
G1 X126.598 Y84.066 E514.77307
G1 X84.066 Y126.598 E516.34439
G1 X83.473 Y126.598 E516.35987
G1 X126.598 Y83.473 E517.95307
G1 X126.598 Y82.881 E517.96855
G1 X82.881 Y126.598 E519.58364
G1 X82.288 Y126.598 E519.59912
G1 X126.598 Y82.288 E521.23610
G1 X126.598 Y81.696 E521.25158
G1 X81.696 Y126.598 E522.91044
G1 X81.104 Y126.598 E522.92592
G1 X126.598 Y81.104 E524.60667
G1 X126.598 Y80.511 E524.62215
G1 X80.511 Y126.598 E526.32479
G1 X79.919 Y126.598 E526.34026
G1 X126.598 Y79.919 E528.06479
G1 X126.598 Y79.326 E528.08027
G1 X79.326 Y126.598 E529.82668
G1 X78.734 Y126.598 E529.84215
G1 X126.598 Y78.734 E531.61045
G1 X126.598 Y78.142 E531.62593
G1 X78.142 Y126.598 E533.41611
G1 X77.549 Y126.598 E533.43159
G1 X126.598 Y77.549 E535.24366
G1 X126.598 Y76.957 E535.25913
G1 X76.957 Y126.598 E537.09309
G1 X76.364 Y126.598 E537.10857
G1 X126.598 Y76.364 E538.96441
G1 X126.598 Y75.772 E538.97989
G1 X75.772 Y126.598 E540.85762
G1 X75.180 Y126.598 E540.87309
G1 X126.598 Y75.180 E542.77271
G1 X126.598 Y74.587 E542.78818
G1 X74.587 Y126.598 E544.70969
G1 X73.995 Y126.598 E544.72516
G1 X126.598 Y73.995 E546.66855
G1 X126.598 Y73.402 E546.68403
G1 X73.402 Y126.598 E548.64930
G1 X73.402 Y126.005 E548.66478
G1 X126.005 Y73.402 E550.60817
G1 X125.413 Y73.402 E550.62364
G1 X73.402 Y125.413 E552.54515
G1 X73.402 Y124.821 E552.56062
G1 X124.821 Y73.402 E554.46024
G1 X124.228 Y73.402 E554.47572
G1 X73.402 Y124.228 E556.35345
G1 X73.402 Y123.636 E556.36893
G1 X123.636 Y73.402 E558.22477
G1 X123.043 Y73.402 E558.24025
G1 X73.402 Y123.043 E560.07421
G1 X73.402 Y122.451 E560.08968
G1 X122.451 Y73.402 E561.90176
G1 X121.859 Y73.402 E561.91723
G1 X73.402 Y121.858 E563.70742
G1 X73.402 Y121.266 E563.72289
G1 X121.266 Y73.402 E565.49119
G1 X120.674 Y73.402 E565.50667
G1 X73.402 Y120.674 E567.25308
G1 X73.402 Y120.081 E567.26856
G1 X120.081 Y73.402 E568.99309
G1 X119.489 Y73.402 E569.00856
G1 X73.402 Y119.489 E570.71121
G1 X73.402 Y118.896 E570.72668
G1 X118.896 Y73.402 E572.40744
G1 X118.304 Y73.402 E572.42291
G1 X73.402 Y118.304 E574.08178
G1 X73.402 Y117.712 E574.09726
G1 X117.712 Y73.402 E575.73424
G1 X117.119 Y73.402 E575.74972
G1 X73.402 Y117.119 E577.36481
G1 X73.402 Y116.527 E577.38029
G1 X116.527 Y73.402 E578.97350
G1 X115.934 Y73.402 E578.98898
G1 X73.402 Y115.934 E580.56030
G1 X73.402 Y115.342 E580.57578
G1 X115.342 Y73.402 E582.12521
G1 X114.750 Y73.402 E582.14069
