; generated by PrusaSlicer 2.1.1+ on 2021-03-19 at 15:36:35 UTC

; 

; external perimeters extrusion width = 0.45mm
; perimeters extrusion width = 0.45mm
; infill extrusion width = 0.45mm
; solid infill extrusion width = 0.45mm
; top infill extrusion width = 0.40mm
; first layer extrusion width = 0.80mm

M107
M190 S60 ; set bed temperature and wait for it to be reached
M104 S200 ; set temperature
G28 ; home all axes
G1 Z5 F5000 ; lift nozzle
M109 S200 ; set temperature and wait for it to be reached
G21 ; set units to millimeters
G90 ; use absolute coordinates
M82 ; use absolute distances for extrusion
G92 E0
; Filament gcode
G1 Z0.400 F7800.000
G1 E-2.00000 F2400.00000
G92 E0
G1 X48.531 Y58.339 F7800.000
G1 E2.00000 F2400.00000
G1 F1800
G1 X50.491 Y56.692 E2.30409
G1 X52.256 Y55.599 E2.55058
G1 X52.997 Y55.229 E2.64890
G1 X54.944 Y54.444 E2.89832
G1 X56.976 Y53.936 E3.14702
G1 X57.768 Y53.801 E3.24239
G1 X59.675 Y53.651 E3.46965
G1 X140.006 Y53.643 E13.01017
G1 X142.650 Y53.859 E13.32522
G1 X144.689 Y54.337 E13.57392
G1 X145.446 Y54.585 E13.66855
G1 X147.144 Y55.291 E13.88696
G1 X147.855 Y55.665 E13.98233
G1 X149.619 Y56.770 E14.22953
G1 X151.228 Y58.119 E14.47896
G1 X151.818 Y58.700 E14.57728
G1 X153.166 Y60.295 E14.82525
G1 X154.545 Y62.518 E15.13598
G1 X155.564 Y64.968 E15.45113
G1 X156.180 Y67.613 E15.77365
G1 X156.357 Y69.980 E16.05561
G1 X156.344 Y130.405 E23.23191
G1 X156.158 Y132.546 E23.48714
G1 X155.692 Y134.574 E23.73434
G1 X155.451 Y135.353 E23.83119
G1 X154.744 Y137.064 E24.05107
G1 X153.266 Y139.568 E24.39637
G1 X151.469 Y141.661 E24.72405
G1 X149.509 Y143.308 E25.02814
G1 X147.744 Y144.401 E25.27463
G1 X147.003 Y144.771 E25.37295
G1 X145.056 Y145.556 E25.62237
G1 X143.024 Y146.064 E25.87107
G1 X142.232 Y146.199 E25.96643
G1 X140.325 Y146.349 E26.19371
G1 X59.988 Y146.357 E35.73497
G1 X57.831 Y146.205 E35.99168
G1 X57.026 Y146.076 E36.08853
G1 X54.952 Y145.559 E36.34239
G1 X52.999 Y144.771 E36.59255
G1 X52.247 Y144.395 E36.69235
G1 X50.447 Y143.277 E36.94401
G1 X48.339 Y141.469 E37.27390
G1 X46.695 Y139.514 E37.57725
G1 X45.602 Y137.749 E37.82374
G1 X45.237 Y137.020 E37.92059
G1 X44.446 Y135.061 E38.17149
G1 X43.940 Y133.042 E38.41870
G1 X43.803 Y132.245 E38.51481
G1 X43.657 Y130.418 E38.73247
G1 X43.643 Y69.988 E45.90950
G1 X43.795 Y67.831 E46.16621
G1 X43.924 Y67.026 E46.26306
G1 X44.441 Y64.952 E46.51693
G1 X45.229 Y62.999 E46.76708
G1 X45.605 Y62.247 E46.86688
G1 X46.723 Y60.447 E47.11854
G1 X48.492 Y58.384 E47.44131
G1 E45.44131 F2400.00000
G92 E0
G1 X65.755 Y124.040 F7800.000
G1 E2.00000 F2400.00000
G1 F1800
G1 X65.828 Y124.924 E2.10543
G1 X65.828 Y130.076 E2.71722
G1 X65.755 Y130.960 E2.82266
G1 X65.518 Y131.894 E2.93710
G1 X65.131 Y132.777 E3.05155
G1 X64.604 Y133.584 E3.16599
G1 X63.952 Y134.293 E3.28044
G1 X63.191 Y134.885 E3.39489
G1 X62.344 Y135.343 E3.50933
G1 X61.432 Y135.656 E3.62378
G1 X60.482 Y135.815 E3.73822
G1 X59.518 Y135.815 E3.85267
G1 X58.568 Y135.656 E3.96712
G1 X57.682 Y135.352 E4.07837
G1 X56.813 Y134.888 E4.19539
G1 X56.048 Y134.293 E4.31042
G1 X55.396 Y133.584 E4.42487
G1 X54.869 Y132.777 E4.53931
G1 X54.482 Y131.894 E4.65376
G1 X54.245 Y130.960 E4.76820
G1 X54.172 Y130.076 E4.87364
G1 X54.172 Y124.924 E5.48543
G1 X54.245 Y124.040 E5.59086
G1 X54.482 Y123.106 E5.70531
G1 X54.869 Y122.223 E5.81975
G1 X55.396 Y121.416 E5.93420
G1 X56.048 Y120.707 E6.04864
G1 X56.788 Y120.132 E6.15989
G1 X57.652 Y119.658 E6.27692
G1 X58.568 Y119.344 E6.39195
G1 X59.518 Y119.185 E6.50639
G1 X60.482 Y119.185 E6.62084
G1 X61.432 Y119.344 E6.73529
G1 X62.344 Y119.657 E6.84973
G1 X63.191 Y120.115 E6.96418
G1 X63.952 Y120.707 E7.07862
G1 X64.604 Y121.416 E7.19307
G1 X65.131 Y122.223 E7.30752
G1 X65.518 Y123.106 E7.42196
G1 X65.740 Y123.981 E7.52928
G1 X65.048 Y124.158 F7800.000
G1 F1800
G1 X65.114 Y124.954 E7.62418
G1 X65.114 Y130.046 E8.22895
G1 X65.048 Y130.842 E8.32385
G1 X64.841 Y131.662 E8.42424
G1 X64.501 Y132.436 E8.52463
G1 X64.039 Y133.144 E8.62502
G1 X63.466 Y133.765 E8.72541
G1 X62.799 Y134.285 E8.82580
G1 X62.056 Y134.687 E8.92619
G1 X61.256 Y134.961 E9.02658
G1 X60.423 Y135.101 E9.12697
G1 X59.577 Y135.101 E9.22736
G1 X58.744 Y134.961 E9.32775
G1 X57.968 Y134.695 E9.42517
G1 X57.203 Y134.286 E9.52814
G1 X56.534 Y133.765 E9.62888
G1 X55.961 Y133.144 E9.72927
G1 X55.499 Y132.436 E9.82966
G1 X55.159 Y131.662 E9.93005
G1 X54.952 Y130.842 E10.03044
G1 X54.886 Y130.046 E10.12534
G1 X54.886 Y124.954 E10.73011
G1 X54.952 Y124.158 E10.82501
G1 X55.159 Y123.338 E10.92540
G1 X55.499 Y122.564 E11.02578
G1 X55.961 Y121.856 E11.12618
G1 X56.534 Y121.235 E11.22656
G1 X57.181 Y120.731 E11.32399
G1 X57.941 Y120.314 E11.42696
G1 X58.744 Y120.039 E11.52770
G1 X59.577 Y119.900 E11.62809
G1 X60.423 Y119.900 E11.72848
G1 X61.256 Y120.039 E11.82887
G1 X62.056 Y120.313 E11.92926
G1 X62.799 Y120.715 E12.02965
G1 X63.466 Y121.235 E12.13004
G1 X64.039 Y121.856 E12.23043
G1 X64.501 Y122.564 E12.33082
G1 X64.841 Y123.338 E12.43121
G1 X65.033 Y124.099 E12.52447
G1 X64.341 Y124.276 F7800.000
G1 F1800
G1 X64.400 Y124.983 E12.60883
G1 X64.400 Y130.017 E13.20659
G1 X64.341 Y130.724 E13.29095
G1 X64.163 Y131.429 E13.37728
G1 X63.871 Y132.095 E13.46362
G1 X63.473 Y132.703 E13.54995
G1 X62.981 Y133.238 E13.63628
G1 X62.407 Y133.685 E13.72261
G1 X61.768 Y134.031 E13.80895
G1 X61.080 Y134.267 E13.89528
G1 X60.363 Y134.386 E13.98162
G1 X59.637 Y134.386 E14.06795
G1 X58.920 Y134.267 E14.15428
G1 X58.254 Y134.038 E14.23787
G1 X57.594 Y133.685 E14.32679
G1 X57.019 Y133.238 E14.41325
G1 X56.527 Y132.703 E14.49958
G1 X56.129 Y132.095 E14.58591
G1 X55.837 Y131.429 E14.67225
G1 X55.659 Y130.724 E14.75858
G1 X55.600 Y130.017 E14.84294
G1 X55.600 Y124.983 E15.44070
G1 X55.659 Y124.276 E15.52506
G1 X55.837 Y123.571 E15.61139
G1 X56.129 Y122.905 E15.69773
G1 X56.527 Y122.297 E15.78406
G1 X57.019 Y121.762 E15.87039
G1 X57.574 Y121.330 E15.95398
G1 X58.231 Y120.970 E16.04290
G1 X58.920 Y120.733 E16.12936
G1 X59.637 Y120.614 E16.21569
G1 X60.363 Y120.614 E16.30203
G1 X61.080 Y120.733 E16.38836
G1 X61.768 Y120.969 E16.47469
G1 X62.407 Y121.315 E16.56103
G1 X62.981 Y121.762 E16.64736
G1 X63.473 Y122.297 E16.73369
G1 X63.871 Y122.905 E16.82003
G1 X64.163 Y123.571 E16.90636
G1 X64.327 Y124.217 E16.98557
G1 X64.716 Y124.416 F7800.000
G1 E14.98557 F2400.00000
G92 E0
G1 X94.507 Y104.069 F7800.000
G1 E2.00000 F2400.00000
G1 F1800
G1 X93.897 Y103.077 E2.13828
G1 X93.465 Y102.001 E2.27596
G1 X93.220 Y100.868 E2.41365
G1 X93.171 Y99.710 E2.55133
G1 X93.318 Y98.560 E2.68901
G1 X93.658 Y97.452 E2.82669
G1 X94.180 Y96.416 E2.96438
G1 X94.869 Y95.484 E3.10206
G1 X95.706 Y94.682 E3.23974
G1 X96.667 Y94.033 E3.37742
G1 X97.723 Y93.556 E3.51511
G1 X98.845 Y93.263 E3.65279
G1 X99.967 Y93.168 E3.78652
G1 X101.150 Y93.262 E3.92751
G1 X102.277 Y93.556 E4.06579
G1 X103.333 Y94.033 E4.20347
G1 X104.294 Y94.682 E4.34116
G1 X105.131 Y95.484 E4.47884
G1 X105.800 Y96.390 E4.61257
G1 X106.341 Y97.447 E4.75356
G1 X106.682 Y98.560 E4.89184
G1 X106.829 Y99.710 E5.02952
G1 X106.780 Y100.868 E5.16721
G1 X106.535 Y102.001 E5.30489
G1 X106.103 Y103.077 E5.44257
G1 X105.495 Y104.064 E5.58025
G1 X104.751 Y104.910 E5.71398
G1 X103.832 Y105.660 E5.85498
G1 X102.815 Y106.228 E5.99326
G1 X101.722 Y106.614 E6.13094
G1 X100.580 Y106.810 E6.26862
G1 X99.420 Y106.810 E6.40630
G1 X98.278 Y106.614 E6.54399
G1 X97.185 Y106.228 E6.68167
G1 X96.173 Y105.663 E6.81935
G1 X95.297 Y104.955 E6.95308
G1 X94.547 Y104.113 E7.08695
G1 X95.083 Y103.641 F7800.000
G1 F1800
G1 X94.537 Y102.754 E7.21056
G1 X94.150 Y101.792 E7.33380
G1 X93.931 Y100.777 E7.45705
G1 X93.887 Y99.740 E7.58029
G1 X94.019 Y98.711 E7.70354
G1 X94.323 Y97.719 E7.82678
G1 X94.790 Y96.792 E7.95003
G1 X95.407 Y95.958 E8.07327
G1 X96.156 Y95.240 E8.19651
G1 X97.016 Y94.659 E8.31976
G1 X97.962 Y94.231 E8.44300
G1 X98.966 Y93.970 E8.56625
G1 X99.969 Y93.884 E8.68577
G1 X101.031 Y93.969 E8.81233
G1 X102.038 Y94.231 E8.93594
G1 X102.984 Y94.659 E9.05918
G1 X103.844 Y95.240 E9.18242
G1 X104.593 Y95.958 E9.30567
G1 X105.191 Y96.767 E9.42519
G1 X105.676 Y97.716 E9.55175
G1 X105.981 Y98.711 E9.67536
G1 X106.113 Y99.740 E9.79860
G1 X106.069 Y100.777 E9.92185
G1 X105.850 Y101.792 E10.04509
G1 X105.463 Y102.754 E10.16834
G1 X104.919 Y103.638 E10.29158
G1 X104.254 Y104.394 E10.41110
G1 X103.429 Y105.067 E10.53766
G1 X102.520 Y105.575 E10.66127
G1 X101.542 Y105.921 E10.78451
G1 X100.519 Y106.096 E10.90776
G1 X99.481 Y106.096 E11.03100
G1 X98.458 Y105.921 E11.15425
G1 X97.480 Y105.575 E11.27749
G1 X96.574 Y105.069 E11.40074
G1 X95.791 Y104.437 E11.52026
G1 X95.122 Y103.686 E11.63969
G1 X95.658 Y103.213 F7800.000
G1 F1800
G1 X95.177 Y102.432 E11.74863
G1 X94.835 Y101.582 E11.85743
G1 X94.642 Y100.686 E11.96624
G1 X94.603 Y99.771 E12.07505
G1 X94.720 Y98.862 E12.18385
G1 X94.988 Y97.986 E12.29266
G1 X95.401 Y97.168 E12.40147
G1 X95.945 Y96.431 E12.51027
G1 X96.607 Y95.797 E12.61908
G1 X97.366 Y95.284 E12.72789
G1 X98.201 Y94.907 E12.83669
G1 X99.087 Y94.676 E12.94550
G1 X99.971 Y94.601 E13.05082
G1 X100.912 Y94.676 E13.16294
G1 X101.799 Y94.907 E13.27187
G1 X102.634 Y95.284 E13.38068
G1 X103.393 Y95.797 E13.48949
G1 X104.055 Y96.431 E13.59829
G1 X104.582 Y97.144 E13.70361
G1 X105.012 Y97.985 E13.81573
G1 X105.280 Y98.862 E13.92467
G1 X105.397 Y99.771 E14.03347
G1 X105.358 Y100.686 E14.14228
G1 X105.165 Y101.582 E14.25109
G1 X104.823 Y102.432 E14.35989
G1 X104.343 Y103.212 E14.46870
G1 X103.757 Y103.878 E14.57402
G1 X103.026 Y104.475 E14.68614
G1 X102.225 Y104.922 E14.79507
G1 X101.361 Y105.227 E14.90388
G1 X100.458 Y105.382 E15.01268
G1 X99.542 Y105.382 E15.12149
G1 X98.639 Y105.227 E15.23030
G1 X97.775 Y104.922 E15.33910
G1 X96.975 Y104.475 E15.44791
G1 X96.285 Y103.918 E15.55323
G1 X95.698 Y103.258 E15.65822
G1 X95.260 Y103.258 F7800.000
G1 E13.65822 F2400.00000
G92 E0
G1 X134.869 Y122.223 F7800.000
G1 E2.00000 F2400.00000
G1 F1800
G1 X135.396 Y121.416 E2.11445
G1 X136.048 Y120.707 E2.22889
G1 X136.788 Y120.132 E2.34014
G1 X137.652 Y119.658 E2.45717
G1 X138.568 Y119.344 E2.57220
G1 X139.518 Y119.185 E2.68664
G1 X140.482 Y119.185 E2.80109
G1 X141.432 Y119.344 E2.91553
G1 X142.344 Y119.657 E3.02998
G1 X143.191 Y120.115 E3.14443
G1 X143.952 Y120.707 E3.25887
G1 X144.604 Y121.416 E3.37332
G1 X145.117 Y122.201 E3.48457
G1 X145.517 Y123.101 E3.60159
G1 X145.755 Y124.040 E3.71662
G1 X145.828 Y124.924 E3.82206
G1 X145.828 Y130.076 E4.43384
G1 X145.755 Y130.960 E4.53928
G1 X145.518 Y131.894 E4.65372
G1 X145.131 Y132.777 E4.76817
G1 X144.604 Y133.584 E4.88262
G1 X143.952 Y134.293 E4.99706
G1 X143.191 Y134.885 E5.11151
G1 X142.344 Y135.343 E5.22595
G1 X141.432 Y135.656 E5.34040
G1 X140.482 Y135.815 E5.45485
G1 X139.518 Y135.815 E5.56929
G1 X138.568 Y135.656 E5.68374
G1 X137.682 Y135.352 E5.79499
G1 X136.813 Y134.888 E5.91202
G1 X136.048 Y134.293 E6.02704
G1 X135.396 Y133.584 E6.14149
G1 X134.869 Y132.777 E6.25593
G1 X134.482 Y131.894 E6.37038
G1 X134.245 Y130.960 E6.48482
G1 X134.172 Y130.076 E6.59026
G1 X134.172 Y124.924 E7.20205
G1 X134.245 Y124.040 E7.30748
G1 X134.482 Y123.106 E7.42193
G1 X134.845 Y122.278 E7.52925
G1 X135.499 Y122.564 F7800.000
G1 F1800
G1 X135.961 Y121.856 E7.62964
G1 X136.534 Y121.235 E7.73003
G1 X137.181 Y120.731 E7.82745
G1 X137.941 Y120.314 E7.93042
G1 X138.744 Y120.039 E8.03116
G1 X139.577 Y119.900 E8.13155
G1 X140.423 Y119.900 E8.23194
G1 X141.256 Y120.039 E8.33233
G1 X142.056 Y120.313 E8.43272
G1 X142.799 Y120.715 E8.53311
G1 X143.466 Y121.235 E8.63350
G1 X144.039 Y121.856 E8.73389
G1 X144.487 Y122.543 E8.83131
G1 X144.840 Y123.335 E8.93428
G1 X145.048 Y124.158 E9.03502
G1 X145.114 Y124.954 E9.12992
G1 X145.114 Y130.046 E9.73469
G1 X145.048 Y130.842 E9.82959
G1 X144.841 Y131.662 E9.92998
G1 X144.501 Y132.436 E10.03037
G1 X144.039 Y133.144 E10.13076
G1 X143.466 Y133.765 E10.23115
G1 X142.799 Y134.285 E10.33154
G1 X142.056 Y134.687 E10.43193
G1 X141.256 Y134.961 E10.53232
G1 X140.423 Y135.101 E10.63271
G1 X139.577 Y135.101 E10.73310
G1 X138.744 Y134.961 E10.83349
G1 X137.968 Y134.695 E10.93091
G1 X137.203 Y134.286 E11.03388
G1 X136.534 Y133.765 E11.13462
G1 X135.961 Y133.144 E11.23501
G1 X135.499 Y132.436 E11.33540
G1 X135.159 Y131.662 E11.43579
G1 X134.952 Y130.842 E11.53618
G1 X134.886 Y130.046 E11.63108
G1 X134.886 Y124.954 E12.23585
G1 X134.952 Y124.158 E12.33075
G1 X135.159 Y123.338 E12.43114
G1 X135.475 Y122.619 E12.52440
G1 X136.129 Y122.905 F7800.000
G1 F1800
G1 X136.527 Y122.297 E12.61073
G1 X137.019 Y121.762 E12.69707
G1 X137.574 Y121.330 E12.78066
G1 X138.231 Y120.970 E12.86957
G1 X138.920 Y120.733 E12.95603
G1 X139.637 Y120.614 E13.04237
G1 X140.363 Y120.614 E13.12870
G1 X141.080 Y120.733 E13.21503
G1 X141.768 Y120.969 E13.30137
G1 X142.407 Y121.315 E13.38770
G1 X142.981 Y121.762 E13.47403
G1 X143.473 Y122.297 E13.56037
G1 X143.858 Y122.886 E13.64396
G1 X144.163 Y123.570 E13.73287
G1 X144.341 Y124.276 E13.81933
G1 X144.400 Y124.983 E13.90369
G1 X144.400 Y130.017 E14.50145
G1 X144.341 Y130.724 E14.58581
G1 X144.163 Y131.429 E14.67214
G1 X143.871 Y132.095 E14.75848
G1 X143.473 Y132.703 E14.84481
G1 X142.981 Y133.238 E14.93114
G1 X142.407 Y133.685 E15.01748
G1 X141.768 Y134.031 E15.10381
G1 X141.080 Y134.267 E15.19014
G1 X140.363 Y134.386 E15.27648
G1 X139.637 Y134.386 E15.36281
G1 X138.920 Y134.267 E15.44915
G1 X138.254 Y134.038 E15.53274
G1 X137.594 Y133.685 E15.62165
G1 X137.019 Y133.238 E15.70811
G1 X136.527 Y132.703 E15.79444
G1 X136.129 Y132.095 E15.88078
G1 X135.837 Y131.429 E15.96711
G1 X135.659 Y130.724 E16.05344
G1 X135.600 Y130.017 E16.13780
G1 X135.600 Y124.983 E16.73556
G1 X135.659 Y124.276 E16.81992
G1 X135.837 Y123.571 E16.90626
G1 X136.105 Y122.960 E16.98546
G1 X135.920 Y122.564 F7800.000
G1 E14.98546 F2400.00000
G92 E0
G1 X139.518 Y80.815 F7800.000
G1 E2.00000 F2400.00000
G1 F1800
G1 X138.594 Y80.660 E2.11125
G1 X137.661 Y80.345 E2.22828
G1 X136.809 Y79.885 E2.34330
G1 X136.048 Y79.293 E2.45775
G1 X135.396 Y78.584 E2.57220
G1 X134.869 Y77.777 E2.68664
G1 X134.482 Y76.894 E2.80109
G1 X134.245 Y75.960 E2.91553
G1 X134.172 Y75.076 E3.02097
G1 X134.172 Y69.924 E3.63276
G1 X134.245 Y69.040 E3.73819
G1 X134.482 Y68.106 E3.85264
G1 X134.869 Y67.223 E3.96708
G1 X135.396 Y66.416 E4.08153
G1 X136.048 Y65.707 E4.19597
G1 X136.788 Y65.132 E4.30722
G1 X137.652 Y64.658 E4.42425
G1 X138.568 Y64.344 E4.53928
G1 X139.518 Y64.185 E4.65372
G1 X140.482 Y64.185 E4.76817
G1 X141.432 Y64.344 E4.88261
G1 X142.318 Y64.648 E4.99387
G1 X143.187 Y65.112 E5.11089
G1 X143.952 Y65.707 E5.22592
G1 X144.604 Y66.416 E5.34037
G1 X145.117 Y67.201 E5.45161
G1 X145.517 Y68.101 E5.56864
G1 X145.755 Y69.040 E5.68367
G1 X145.828 Y69.924 E5.78910
G1 X145.828 Y75.076 E6.40089
G1 X145.755 Y75.960 E6.50632
G1 X145.518 Y76.894 E6.62077
G1 X145.131 Y77.777 E6.73522
G1 X144.604 Y78.584 E6.84966
G1 X143.952 Y79.293 E6.96411
G1 X143.191 Y79.885 E7.07856
G1 X142.344 Y80.343 E7.19300
G1 X141.432 Y80.656 E7.30745
G1 X140.482 Y80.815 E7.42189
G1 X139.578 Y80.815 E7.52921
G1 X139.577 Y80.100 F7800.000
G1 F1800
G1 X138.768 Y79.965 E7.62663
G1 X137.947 Y79.688 E7.72960
G1 X137.201 Y79.285 E7.83035
G1 X136.534 Y78.765 E7.93074
G1 X135.961 Y78.144 E8.03113
G1 X135.499 Y77.436 E8.13152
G1 X135.159 Y76.662 E8.23191
G1 X134.952 Y75.842 E8.33230
G1 X134.886 Y75.046 E8.42719
G1 X134.886 Y69.954 E9.03197
G1 X134.952 Y69.158 E9.12686
G1 X135.159 Y68.338 E9.22725
G1 X135.499 Y67.564 E9.32764
G1 X135.961 Y66.856 E9.42803
G1 X136.534 Y66.235 E9.52842
G1 X137.181 Y65.731 E9.62584
G1 X137.941 Y65.314 E9.72881
G1 X138.744 Y65.039 E9.82956
G1 X139.577 Y64.900 E9.92995
G1 X140.423 Y64.900 E10.03033
G1 X141.256 Y65.039 E10.13073
G1 X142.032 Y65.305 E10.22815
G1 X142.797 Y65.714 E10.33112
G1 X143.466 Y66.235 E10.43186
G1 X144.039 Y66.856 E10.53225
G1 X144.487 Y67.543 E10.62967
G1 X144.840 Y68.335 E10.73264
G1 X145.048 Y69.158 E10.83338
G1 X145.114 Y69.954 E10.92828
G1 X145.114 Y75.046 E11.53305
G1 X145.048 Y75.842 E11.62795
G1 X144.841 Y76.662 E11.72834
G1 X144.501 Y77.436 E11.82873
G1 X144.039 Y78.144 E11.92912
G1 X143.466 Y78.765 E12.02951
G1 X142.799 Y79.285 E12.12990
G1 X142.056 Y79.687 E12.23029
G1 X141.256 Y79.961 E12.33068
