; generated by PrusaSlicer 2.1.1+ on 2021-03-21 at 20:00:47 UTC

; 

; external perimeters extrusion width = 0.45mm
; perimeters extrusion width = 0.45mm
; infill extrusion width = 0.45mm
; solid infill extrusion width = 0.45mm
; top infill extrusion width = 0.40mm
; support material extrusion width = 0.40mm
; first layer extrusion width = 0.80mm

M107
M190 S60 ; set bed temperature and wait for it to be reached
M104 S200 ; set temperature
G28 ; home all axes
G1 Z5 F5000 ; lift nozzle
M109 S200 ; set temperature and wait for it to be reached
G21 ; set units to millimeters
G90 ; use absolute coordinates
M82 ; use absolute distances for extrusion
G92 E0
; Filament gcode
G1 Z0.400 F7800.000
G1 E-2.00000 F2400.00000
G92 E0
G1 X72.068 Y65.757 F7800.000
G1 E2.00000 F2400.00000
G1 F1800
G1 X84.198 Y59.648 E3.61288
G1 X85.418 Y59.239 E3.76575
G1 X86.696 Y59.084 E3.91863
G1 X113.963 Y59.083 E7.15705
G1 X115.329 Y59.233 E7.32022
G1 X116.631 Y59.672 E7.48340
G1 X128.291 Y65.522 E9.03275
G1 X129.399 Y66.247 E9.19003
G1 X132.766 Y69.579 E9.75259
G1 X133.330 Y70.235 E9.85534
G1 X139.277 Y79.172 E11.13019
G1 X139.801 Y80.154 E11.26244
G1 X140.182 Y81.377 E11.41458
G1 X140.310 Y82.647 E11.56617
G1 X140.310 Y117.387 E15.69209
G1 X140.179 Y118.586 E15.83540
G1 X139.821 Y119.745 E15.97944
G1 X136.992 Y125.592 E16.75079
G1 X136.323 Y126.640 E16.89851
G1 X127.180 Y135.848 E18.43960
G1 X126.484 Y136.441 E18.54826
G1 X125.715 Y136.925 E18.65618
G1 X119.783 Y139.893 E19.44393
G1 X119.035 Y140.203 E19.54004
G1 X118.052 Y140.452 E19.66050
G1 X117.042 Y140.542 E19.78095
G1 X82.628 Y140.542 E23.86810
G1 X81.397 Y140.417 E24.01509
G1 X80.208 Y140.053 E24.16281
G1 X74.019 Y136.975 E24.98368
G1 X73.141 Y136.431 E25.10635
G1 X72.455 Y135.845 E25.21353
G1 X66.656 Y130.046 E26.18751
G1 X66.062 Y129.350 E26.29616
G1 X65.574 Y128.576 E26.40482
G1 X62.606 Y122.644 E27.19257
G1 X62.291 Y121.879 E27.29090
G1 X60.659 Y115.988 E28.01690
G1 X60.469 Y114.652 E28.17713
G1 X60.466 Y85.415 E31.64950
G1 X60.599 Y84.216 E31.79281
G1 X60.955 Y83.069 E31.93537
G1 X66.905 Y71.093 E33.52362
G1 X67.409 Y70.285 E33.63670
G1 X68.023 Y69.566 E33.74904
G1 X71.036 Y66.546 E34.25564
G1 X72.021 Y65.793 E34.40286
G1 E32.40286 F2400.00000
G92 E0
G1 X69.679 Y88.122 F7800.000
G1 E2.00000 F2400.00000
G1 F1800
G1 X69.679 Y79.779 E2.99083
G1 X71.107 Y79.779 E3.16046
G1 X71.107 Y82.065 E3.43193
G1 X72.536 Y82.065 E3.60156
G1 X72.536 Y74.043 E4.55422
G1 X73.964 Y74.043 E4.72386
G1 X73.964 Y76.329 E4.99533
G1 X75.392 Y76.329 E5.16496
G1 X75.392 Y71.176 E5.77702
G1 X76.821 Y71.176 E5.94666
G1 X76.821 Y73.461 E6.21813
G1 X78.249 Y73.461 E6.38776
G1 X78.249 Y71.176 E6.65923
G1 X79.677 Y71.176 E6.82886
G1 X79.677 Y73.461 E7.10033
G1 X81.106 Y73.461 E7.26996
G1 X81.106 Y68.308 E7.88203
G1 X82.534 Y68.308 E8.05166
G1 X82.534 Y70.593 E8.32313
G1 X83.962 Y70.593 E8.49276
G1 X83.962 Y68.308 E8.76423
G1 X85.391 Y68.308 E8.93387
G1 X85.391 Y70.593 E9.20533
G1 X86.819 Y70.593 E9.37497
G1 X86.819 Y65.440 E9.98703
G1 X88.247 Y65.440 E10.15667
G1 X88.247 Y67.726 E10.42813
G1 X89.676 Y67.726 E10.59777
G1 X89.676 Y65.440 E10.86924
G1 X91.104 Y65.440 E11.03887
G1 X91.104 Y67.726 E11.31034
G1 X92.532 Y67.726 E11.47997
G1 X92.532 Y65.440 E11.75144
G1 X93.960 Y65.440 E11.92108
G1 X93.960 Y67.726 E12.19254
G1 X95.389 Y67.726 E12.36218
G1 X95.389 Y65.440 E12.63365
G1 X96.817 Y65.440 E12.80328
G1 X96.817 Y67.726 E13.07475
G1 X98.245 Y67.726 E13.24438
G1 X98.245 Y65.440 E13.51585
G1 X99.674 Y65.440 E13.68548
G1 X99.674 Y67.726 E13.95695
G1 X101.102 Y67.726 E14.12659
G1 X101.102 Y65.440 E14.39805
G1 X102.530 Y65.440 E14.56769
G1 X102.530 Y67.726 E14.83916
G1 X103.959 Y67.726 E15.00879
G1 X103.959 Y65.440 E15.28026
G1 X105.387 Y65.440 E15.44989
G1 X105.387 Y67.726 E15.72136
G1 X106.815 Y67.726 E15.89100
G1 X106.815 Y65.440 E16.16246
G1 X108.244 Y65.440 E16.33210
G1 X108.244 Y67.726 E16.60357
G1 X109.672 Y67.726 E16.77320
G1 X109.672 Y65.440 E17.04467
G1 X111.100 Y65.440 E17.21430
G1 X111.100 Y67.726 E17.48577
G1 X111.831 Y67.726 E17.57258
G1 X111.831 Y70.593 E17.91317
G1 X112.529 Y70.593 E17.99600
G1 X112.529 Y65.440 E18.60806
G1 X113.957 Y65.440 E18.77770
G1 X113.957 Y70.593 E19.38976
G1 X115.385 Y70.593 E19.55939
G1 X115.385 Y68.308 E19.83086
G1 X116.814 Y68.308 E20.00049
G1 X116.814 Y70.593 E20.27196
G1 X117.567 Y70.593 E20.36142
G1 X117.567 Y73.461 E20.70202
G1 X118.242 Y73.461 E20.78219
G1 X118.242 Y68.308 E21.39425
G1 X119.670 Y68.308 E21.56389
G1 X119.670 Y73.461 E22.17595
G1 X121.099 Y73.461 E22.34559
G1 X121.099 Y71.176 E22.61706
G1 X122.527 Y71.176 E22.78669
G1 X122.527 Y73.461 E23.05816
G1 X123.302 Y73.461 E23.15027
G1 X123.302 Y76.329 E23.49087
G1 X123.955 Y76.329 E23.56839
G1 X123.955 Y71.176 E24.18045
G1 X125.383 Y71.176 E24.35009
G1 X125.383 Y76.329 E24.96215
G1 X126.170 Y76.329 E25.05559
G1 X126.170 Y82.065 E25.73678
G1 X126.812 Y82.065 E25.81297
G1 X126.812 Y74.043 E26.76563
G1 X128.240 Y74.043 E26.93527
G1 X128.240 Y82.065 E27.88792
G1 X129.038 Y82.065 E27.98269
G1 X129.038 Y84.933 E28.32329
G1 X129.668 Y84.933 E28.39816
G1 X129.668 Y79.779 E29.01022
G1 X131.097 Y79.779 E29.17985
G1 X131.097 Y85.254 E29.83009
G1 E27.83009 F2400.00000
G92 E0
G1 X131.134 Y114.317 F7800.000
G1 E2.00000 F2400.00000
G1 F1800
G1 X131.134 Y85.473 E3.50693
G1 X130.766 Y85.473 E3.52615
G1 X130.766 Y114.152 E5.02444
G1 X130.398 Y114.152 E5.04365
G1 X130.398 Y85.473 E6.54194
G1 X130.030 Y85.473 E6.56116
G1 X130.030 Y114.152 E8.05944
G1 X129.663 Y114.152 E8.07866
G1 X129.663 Y85.473 E9.57694
G1 X129.295 Y85.473 E9.59616
G1 X129.295 Y114.152 E11.09445
G1 X128.927 Y114.152 E11.11366
G1 X128.927 Y85.473 E12.61195
G1 X128.559 Y85.473 E12.63117
G1 X128.559 Y92.073 E12.97595
G1 X128.372 Y91.366 E13.01418
G1 X128.191 Y90.840 E13.04320
G1 X128.191 Y82.606 E13.47342
G1 X127.824 Y82.606 E13.49264
G1 X127.824 Y89.776 E13.86723
G1 X127.657 Y89.293 E13.89392
G1 X127.456 Y88.824 E13.92057
G1 X127.456 Y82.606 E14.24544
G1 X127.088 Y82.606 E14.26466
G1 X127.088 Y88.106 E14.55200
G1 X126.720 Y88.106 E14.57122
G1 X126.720 Y82.606 E14.85856
G1 X126.352 Y82.606 E14.87778
G1 X126.352 Y88.106 E15.16512
G1 X125.984 Y88.106 E15.18434
G1 X125.984 Y82.606 E15.47168
G1 X125.629 Y82.606 E15.49024
G1 X125.629 Y76.870 E15.78989
G1 X125.617 Y76.870 E15.79055
G1 X125.617 Y85.072 E16.21907
G1 X125.249 Y84.478 E16.25557
G1 X125.249 Y76.870 E16.65306
G1 X124.881 Y76.870 E16.67227
G1 X124.881 Y83.884 E17.03872
G1 X124.513 Y83.315 E17.07412
G1 X124.513 Y76.870 E17.41084
G1 X124.145 Y76.870 E17.43005
G1 X124.145 Y82.809 E17.74033
G1 X123.827 Y82.370 E17.76867
G1 X123.778 Y82.370 E17.77123
G1 X123.778 Y76.870 E18.05857
G1 X123.410 Y76.870 E18.07779
G1 X123.410 Y82.370 E18.36513
G1 X123.042 Y82.370 E18.38435
G1 X123.042 Y76.870 E18.67169
G1 X122.761 Y76.870 E18.68635
G1 X122.761 Y74.002 E18.83617
G1 X122.674 Y74.002 E18.84073
G1 X122.674 Y80.911 E19.20170
G1 X122.306 Y80.477 E19.23145
G1 X122.306 Y74.002 E19.56970
G1 X121.939 Y74.002 E19.58892
G1 X121.939 Y80.042 E19.90447
G1 X121.571 Y79.663 E19.93205
G1 X121.571 Y74.002 E20.22780
G1 X121.203 Y74.002 E20.24702
G1 X121.203 Y79.502 E20.53436
G1 X120.835 Y79.502 E20.55358
G1 X120.835 Y74.002 E20.84092
G1 X120.467 Y74.002 E20.86014
G1 X120.467 Y79.502 E21.14748
G1 X120.129 Y79.502 E21.16514
G1 X120.129 Y78.230 E21.23162
G1 X120.100 Y78.203 E21.23370
G1 X120.100 Y74.002 E21.45319
G1 X119.732 Y74.002 E21.47240
G1 X119.732 Y77.880 E21.67501
G1 X119.364 Y77.557 E21.70059
G1 X119.364 Y74.002 E21.88632
G1 X118.996 Y74.002 E21.90554
G1 X118.996 Y77.234 E22.07439
G1 X118.628 Y76.924 E22.09954
G1 X118.628 Y74.002 E22.25217
G1 X118.260 Y74.002 E22.27139
G1 X118.260 Y76.646 E22.40950
G1 X117.893 Y76.634 E22.42873
G1 X117.893 Y74.002 E22.56624
G1 X117.525 Y74.002 E22.58546
G1 X117.525 Y76.634 E22.72297
G1 X117.157 Y76.634 E22.74219
G1 X117.157 Y74.002 E22.87970
G1 X117.026 Y74.002 E22.88656
G1 X117.026 Y71.134 E23.03639
G1 X116.789 Y71.134 E23.04875
G1 X116.789 Y76.634 E23.33609
G1 X116.421 Y76.634 E23.35531
G1 X116.421 Y71.134 E23.64265
G1 X116.054 Y71.134 E23.66187
G1 X116.054 Y76.634 E23.94921
G1 X115.686 Y76.634 E23.96843
G1 X115.686 Y71.134 E24.25577
G1 X115.318 Y71.134 E24.27498
G1 X115.318 Y76.634 E24.56233
G1 X114.950 Y76.634 E24.58154
G1 X114.950 Y71.134 E24.86889
G1 X114.582 Y71.134 E24.88810
G1 X114.582 Y76.634 E25.17545
G1 X114.476 Y76.634 E25.18101
G1 X114.394 Y76.581 E25.18612
G1 X114.394 Y74.085 E25.31654
G1 X114.215 Y73.987 E25.32720
G1 X114.215 Y71.134 E25.47625
G1 X113.847 Y71.134 E25.49547
G1 X113.847 Y73.787 E25.63405
G1 X113.809 Y73.767 E25.63629
G1 X113.479 Y73.767 E25.65354
G1 X113.479 Y71.134 E25.79106
G1 X113.111 Y71.134 E25.81027
G1 X113.111 Y73.767 E25.94779
G1 X112.743 Y73.767 E25.96700
G1 X112.743 Y71.134 E26.10452
G1 X112.376 Y71.134 E26.12373
G1 X112.376 Y73.767 E26.26125
G1 X112.008 Y73.767 E26.28047
G1 X112.008 Y71.134 E26.41798
G1 X111.640 Y71.134 E26.43720
G1 X111.640 Y73.767 E26.57471
G1 X111.526 Y73.767 E26.58067
G1 X111.526 Y72.678 E26.63754
G1 X111.272 Y72.563 E26.65210
G1 X111.272 Y68.267 E26.87656
G1 X110.904 Y68.267 E26.89578
G1 X110.904 Y72.423 E27.11295
G1 X110.536 Y72.289 E27.13341
G1 X110.536 Y68.267 E27.34354
G1 X110.169 Y68.267 E27.36275
G1 X110.169 Y72.154 E27.56584
G1 X109.801 Y72.019 E27.58631
G1 X109.801 Y68.267 E27.78236
G1 X109.433 Y68.267 E27.80157
G1 X109.433 Y71.884 E27.99059
G1 X109.065 Y71.757 E28.01092
G1 X109.065 Y68.267 E28.19328
G1 X108.697 Y68.267 E28.21249
G1 X108.697 Y71.652 E28.38939
G1 X108.330 Y71.548 E28.40936
G1 X108.330 Y68.267 E28.58079
G1 X107.962 Y68.267 E28.60000
G1 X107.962 Y71.443 E28.76596
G1 X107.594 Y71.338 E28.78594
G1 X107.594 Y68.267 E28.94643
G1 X107.226 Y68.267 E28.96564
G1 X107.226 Y71.234 E29.12066
G1 X106.858 Y71.144 E29.14044
G1 X106.858 Y68.267 E29.29077
G1 X106.491 Y68.267 E29.30998
G1 X106.491 Y71.068 E29.45635
G1 X106.123 Y70.992 E29.47597
G1 X106.123 Y68.267 E29.61837
G1 X105.755 Y68.267 E29.63759
G1 X105.755 Y70.916 E29.77603
G1 X105.669 Y70.899 E29.78062
G1 X105.387 Y70.899 E29.79534
G1 X105.387 Y68.267 E29.93285
G1 X105.019 Y68.267 E29.95207
G1 X105.019 Y70.899 E30.08958
G1 X104.652 Y70.899 E30.10880
G1 X104.652 Y68.267 E30.24631
G1 X104.284 Y68.267 E30.26553
G1 X104.284 Y70.899 E30.40304
G1 X103.916 Y70.899 E30.42226
G1 X103.916 Y68.267 E30.55977
G1 X103.548 Y68.267 E30.57899
G1 X103.548 Y70.899 E30.71650
G1 X103.180 Y70.899 E30.73572
G1 X103.180 Y68.267 E30.87323
G1 X102.812 Y68.267 E30.89245
G1 X102.812 Y70.899 E31.02996
G1 X102.445 Y70.899 E31.04918
G1 X102.445 Y68.267 E31.18669
G1 X102.077 Y68.267 E31.20591
G1 X102.077 Y70.899 E31.34342
G1 X101.709 Y70.899 E31.36264
G1 X101.709 Y68.267 E31.50015
G1 X101.341 Y68.267 E31.51937
G1 X101.341 Y70.899 E31.65688
G1 X100.973 Y70.899 E31.67610
G1 X100.973 Y68.267 E31.81361
G1 X100.606 Y68.267 E31.83283
G1 X100.606 Y70.899 E31.97034
G1 X100.238 Y70.899 E31.98956
G1 X100.238 Y68.267 E32.12708
G1 X99.870 Y68.267 E32.14629
G1 X99.870 Y70.899 E32.28381
G1 X99.502 Y70.899 E32.30302
G1 X99.502 Y68.267 E32.44054
G1 X99.134 Y68.267 E32.45975
G1 X99.134 Y70.899 E32.59727
G1 X98.767 Y70.899 E32.61648
G1 X98.767 Y68.267 E32.75400
G1 X98.399 Y68.267 E32.77321
G1 X98.399 Y70.899 E32.91073
G1 X98.031 Y70.899 E32.92994
G1 X98.031 Y68.267 E33.06746
G1 X97.663 Y68.267 E33.08667
G1 X97.663 Y70.899 E33.22419
G1 X97.295 Y70.899 E33.24340
G1 X97.295 Y68.267 E33.38092
G1 X96.928 Y68.267 E33.40013
G1 X96.928 Y70.899 E33.53765
G1 X96.560 Y70.899 E33.55686
G1 X96.560 Y68.267 E33.69438
G1 X96.192 Y68.267 E33.71359
G1 X96.192 Y70.899 E33.85111
G1 X95.824 Y70.899 E33.87033
G1 X95.824 Y68.267 E34.00784
G1 X95.456 Y68.267 E34.02706
G1 X95.456 Y70.899 E34.16457
G1 X95.089 Y70.899 E34.18379
G1 X95.089 Y68.267 E34.32130
G1 X94.721 Y68.267 E34.34052
G1 X94.721 Y70.899 E34.47803
G1 X94.353 Y70.899 E34.49725
G1 X94.353 Y68.267 E34.63476
G1 X93.985 Y68.267 E34.65398
G1 X93.985 Y70.945 E34.79389
G1 X93.617 Y71.035 E34.81367
G1 X93.617 Y68.267 E34.95829
G1 X93.249 Y68.267 E34.97750
G1 X93.249 Y71.125 E35.12683
G1 X92.882 Y71.215 E35.14661
G1 X92.882 Y68.267 E35.30064
G1 X92.514 Y68.267 E35.31986
G1 X92.514 Y71.305 E35.47860
G1 X92.146 Y71.395 E35.49838
G1 X92.146 Y68.267 E35.66183
G1 X91.778 Y68.267 E35.68104
G1 X91.778 Y71.492 E35.84957
G1 X91.410 Y71.612 E35.86978
G1 X91.410 Y68.267 E36.04455
G1 X91.043 Y68.267 E36.06377
G1 X91.043 Y71.731 E36.24478
G1 X90.980 Y71.752 E36.24823
G1 X90.980 Y73.767 E36.35349
G1 X90.675 Y73.767 E36.36943
G1 X90.675 Y68.267 E36.65677
G1 X90.307 Y68.267 E36.67599
G1 X90.307 Y73.767 E36.96333
G1 X89.939 Y73.767 E36.98254
G1 X89.939 Y68.267 E37.26989
G1 X89.571 Y68.267 E37.28910
G1 X89.571 Y73.767 E37.57645
G1 X89.204 Y73.767 E37.59566
G1 X89.204 Y68.267 E37.88301
G1 X88.836 Y68.267 E37.90222
G1 X88.836 Y73.767 E38.18956
G1 X88.468 Y73.767 E38.20878
G1 X88.468 Y68.267 E38.49612
G1 X88.348 Y68.267 E38.50241
G1 X88.348 Y71.134 E38.65223
G1 X88.100 Y71.134 E38.66517
G1 X88.100 Y73.767 E38.80268
G1 X87.732 Y73.767 E38.82190
G1 X87.732 Y71.134 E38.95941
G1 X87.365 Y71.134 E38.97863
G1 X87.365 Y73.767 E39.11614
G1 X86.997 Y73.767 E39.13536
G1 X86.997 Y71.134 E39.27287
G1 X86.629 Y71.134 E39.29209
G1 X86.629 Y73.767 E39.42960
G1 X86.261 Y73.767 E39.44882
G1 X86.261 Y71.134 E39.58634
G1 X85.893 Y71.134 E39.60555
G1 X85.893 Y73.897 E39.74985
G1 X85.525 Y74.105 E39.77194
G1 X85.525 Y71.134 E39.92714
G1 X85.158 Y71.134 E39.94636
G1 X85.158 Y76.634 E40.23370
G1 X84.790 Y76.634 E40.25292
G1 X84.790 Y71.134 E40.54026
G1 X84.422 Y71.134 E40.55948
G1 X84.422 Y76.634 E40.84682
G1 X84.054 Y76.634 E40.86604
G1 X84.054 Y71.134 E41.15338
G1 X83.686 Y71.134 E41.17260
G1 X83.686 Y76.634 E41.45994
G1 X83.319 Y76.634 E41.47915
G1 X83.319 Y71.134 E41.76650
G1 X82.951 Y71.134 E41.78571
G1 X82.951 Y76.634 E42.07306
G1 X82.583 Y76.634 E42.09227
G1 X82.583 Y74.002 E42.22979
G1 X82.215 Y74.002 E42.24900
G1 X82.215 Y76.634 E42.38652
G1 X81.847 Y76.634 E42.40573
G1 X81.847 Y74.002 E42.54325
G1 X81.480 Y74.002 E42.56246
G1 X81.480 Y76.835 E42.71046
G1 X81.112 Y77.135 E42.73525
G1 X81.112 Y74.002 E42.89890
G1 X80.744 Y74.002 E42.91812
G1 X80.744 Y77.434 E43.09743
G1 X80.376 Y77.738 E43.12236
G1 X80.376 Y74.002 E43.31755
G1 X80.008 Y74.002 E43.33676
G1 X80.008 Y78.086 E43.55013
G1 X79.641 Y78.434 E43.57658
G1 X79.641 Y74.002 E43.80813
G1 X79.273 Y74.002 E43.82735
G1 X79.273 Y79.502 E44.11469
G1 X78.905 Y79.502 E44.13391
G1 X78.905 Y74.002 E44.42125
G1 X78.537 Y74.002 E44.44047
G1 X78.537 Y79.520 E44.72874
G1 X78.169 Y79.923 E44.75726
G1 X78.169 Y74.002 E45.06662
G1 X77.801 Y74.002 E45.08584
G1 X77.801 Y80.327 E45.41627
G1 X77.434 Y80.730 E45.44479
G1 X77.434 Y74.002 E45.79630
G1 X77.066 Y74.002 E45.81552
G1 X77.066 Y81.182 E46.19063
G1 X76.698 Y81.651 E46.22176
G1 X76.698 Y76.870 E46.47154
G1 X76.330 Y76.870 E46.49076
G1 X76.330 Y85.238 E46.92793
G1 X75.962 Y85.238 E46.94715
G1 X75.962 Y76.870 E47.38432
G1 X75.595 Y76.870 E47.40353
G1 X75.595 Y85.238 E47.84070
G1 X75.227 Y85.238 E47.85992
G1 X75.227 Y76.870 E48.29709
G1 X74.859 Y76.870 E48.31631
G1 X74.859 Y85.238 E48.75348
G1 X74.491 Y85.238 E48.77269
G1 X74.491 Y76.870 E49.20987
G1 X74.123 Y76.870 E49.22908
G1 X74.123 Y85.503 E49.68010
G1 X73.773 Y86.118 E49.71711
G1 X73.773 Y90.973 E49.97076
G1 X73.756 Y90.973 E49.97166
G1 X73.756 Y82.606 E50.40883
G1 X73.388 Y82.606 E50.42805
G1 X73.388 Y90.973 E50.86522
G1 X73.020 Y90.973 E50.88444
G1 X73.020 Y82.606 E51.32161
G1 X72.652 Y82.606 E51.34083
G1 X72.652 Y90.973 E51.77800
G1 X72.284 Y90.973 E51.79721
G1 X72.284 Y82.606 E52.23438
G1 X71.917 Y82.606 E52.25360
G1 X71.917 Y90.973 E52.69077
G1 X71.743 Y90.973 E52.69985
G1 X71.549 Y91.610 E52.73463
G1 X71.549 Y82.606 E53.20507
G1 X71.181 Y82.606 E53.22428
G1 X71.181 Y92.961 E53.76529
G1 X70.905 Y94.184 E53.83080
G1 X70.905 Y105.816 E54.43850
G1 X71.181 Y107.039 E54.50401
G1 X71.181 Y117.019 E55.02543
G1 X71.549 Y117.019 E55.04465
G1 X71.549 Y108.390 E55.49550
G1 X71.917 Y109.597 E55.56145
G1 X71.917 Y117.019 E55.94922
G1 X72.284 Y117.019 E55.96843
G1 X72.284 Y110.566 E56.30559
G1 X72.652 Y111.516 E56.35878
G1 X72.652 Y117.019 E56.64633
