; generated by PrusaSlicer 2.1.1+ on 2021-06-26 at 11:35:27 UTC

; 

; external perimeters extrusion width = 0.45mm
; perimeters extrusion width = 0.45mm
; infill extrusion width = 0.45mm
; solid infill extrusion width = 0.45mm
; top infill extrusion width = 0.40mm
; support material extrusion width = 0.40mm
; first layer extrusion width = 0.80mm

M107
M190 S60 ; set bed temperature and wait for it to be reached
M104 S200 ; set temperature
G28 ; home all axes
G1 Z5 F5000 ; lift nozzle
M109 S200 ; set temperature and wait for it to be reached
G21 ; set units to millimeters
G90 ; use absolute coordinates
M82 ; use absolute distances for extrusion
G92 E0
; Filament gcode
G1 Z0.400 F7800.000
G1 E-2.00000 F2400.00000
G92 E0
G1 X76.462 Y96.060 F7800.000
G1 E2.00000 F2400.00000
G1 F1800
G1 X77.382 Y95.107 E2.15729
G1 X88.133 Y86.522 E3.79127
G1 X90.496 Y84.945 E4.12868
G1 X93.210 Y83.762 E4.48040
G1 X105.135 Y79.617 E5.97978
G1 X106.131 Y79.366 E6.10171
G1 X107.141 Y79.279 E6.22217
G1 X120.042 Y79.279 E7.75429
G1 X121.065 Y79.363 E7.87622
G1 X122.061 Y79.610 E7.99815
G1 X123.005 Y80.015 E8.12008
G1 X123.871 Y80.566 E8.24202
G1 X124.637 Y81.250 E8.36395
G1 X125.283 Y82.048 E8.48588
G1 X125.795 Y82.945 E8.60855
G1 X126.153 Y83.907 E8.73048
G1 X126.329 Y84.735 E8.83102
G1 X126.393 Y85.585 E8.93229
G1 X126.393 Y100.258 E10.67485
G1 X126.289 Y101.360 E10.80637
G1 X125.901 Y102.665 E10.96807
G1 X125.245 Y103.858 E11.12978
G1 X116.592 Y115.218 E12.82569
G1 X116.057 Y115.833 E12.92254
G1 X112.760 Y119.097 E13.47356
G1 X111.945 Y119.680 E13.59254
G1 X111.048 Y120.127 E13.71153
G1 X110.092 Y120.427 E13.83051
G1 X109.095 Y120.574 E13.95023
G1 X90.965 Y120.562 E16.10343
G1 X90.014 Y120.402 E16.21799
G1 X79.459 Y117.715 E17.51157
G1 X78.653 Y117.384 E17.61506
G1 X77.900 Y116.945 E17.71855
G1 X77.210 Y116.403 E17.82278
G1 X76.605 Y115.776 E17.92627
G1 X76.045 Y114.998 E18.04009
G1 X75.607 Y114.139 E18.15465
G1 X75.303 Y113.223 E18.26920
G1 X75.141 Y112.272 E18.38376
G1 X75.118 Y99.738 E19.87239
G1 X75.305 Y98.427 E20.02968
G1 X75.760 Y97.183 E20.18697
G1 X76.430 Y96.111 E20.33714
G1 E18.33714 F2400.00000
G92 E0
G1 X81.471 Y111.685 F7800.000
G1 E2.00000 F2400.00000
G1 F1800
G1 X81.471 Y99.975 E3.39080
G1 X82.899 Y99.975 E3.56043
G1 X82.899 Y111.364 E4.91306
G1 X84.328 Y111.364 E5.08270
G1 X84.328 Y99.975 E6.43533
G1 X85.756 Y99.975 E6.60496
G1 X85.756 Y111.364 E7.95759
G1 X87.184 Y111.364 E8.12723
G1 X87.184 Y99.975 E9.47986
G1 X87.561 Y99.975 E9.52456
G1 X87.576 Y100.960 E9.64153
G1 X88.013 Y103.024 E9.89213
G1 X88.613 Y104.450 E10.07584
G1 X88.613 Y111.364 E10.89701
G1 X90.041 Y111.364 E11.06664
G1 X90.041 Y106.760 E11.61346
G1 X90.118 Y106.862 E11.62869
G1 X91.469 Y108.185 E11.85326
G1 X91.469 Y111.364 E12.23081
G1 X91.544 Y111.364 E12.23966
G1 X91.544 Y114.232 E12.58026
G1 X92.898 Y114.232 E12.74104
G1 X92.898 Y109.173 E13.34182
G1 X93.491 Y109.554 E13.42551
G1 X94.326 Y109.889 E13.53240
G1 X94.326 Y114.232 E14.04817
G1 X95.754 Y114.232 E14.21781
G1 X95.754 Y110.403 E14.67253
G1 X97.183 Y110.672 E14.84513
G1 X97.183 Y114.232 E15.26795
G1 X98.611 Y114.232 E15.43758
G1 X98.611 Y110.743 E15.85190
G1 X99.755 Y110.728 E15.98777
G1 X100.039 Y110.674 E16.02215
G1 X100.039 Y114.232 E16.44468
G1 X101.467 Y114.232 E16.61432
G1 X101.467 Y110.374 E17.07245
G1 X101.934 Y110.270 E17.12927
G1 X102.896 Y109.859 E17.25346
G1 X102.896 Y114.232 E17.77281
G1 X104.324 Y114.232 E17.94245
G1 X104.324 Y109.141 E18.54707
G1 X105.671 Y108.220 E18.74084
G1 X105.752 Y108.145 E18.75401
G1 X105.752 Y114.232 E19.47693
G1 X107.181 Y114.232 E19.64657
G1 X107.181 Y106.684 E20.54302
G1 X108.383 Y104.856 E20.80287
G1 X108.609 Y104.308 E20.87327
G1 X108.609 Y114.232 E22.05190
G1 X108.669 Y114.232 E22.05896
G1 X108.669 Y111.364 E22.39956
G1 X110.037 Y111.364 E22.56213
G1 X110.037 Y85.636 E25.61774
G1 X111.466 Y85.636 E25.78737
G1 X111.466 Y111.364 E28.84298
G1 X111.536 Y111.364 E28.85137
G1 X111.536 Y102.760 E29.87316
G1 X112.894 Y102.760 E30.03441
G1 X112.894 Y85.636 E32.06823
G1 X114.322 Y85.636 E32.23786
G1 X114.322 Y102.760 E34.27168
G1 X115.751 Y102.760 E34.44132
G1 X115.751 Y85.636 E36.47514
G1 X117.179 Y85.636 E36.64478
G1 X117.179 Y102.760 E38.67860
G1 X117.272 Y102.760 E38.68964
G1 X117.272 Y99.893 E39.03024
G1 X118.607 Y99.893 E39.18883
G1 X118.607 Y85.636 E40.88205
G1 X120.036 Y85.636 E41.05169
G1 X120.036 Y100.214 E42.78308
G1 X108.609 Y95.975 F7800.000
G1 F1800
G1 X108.609 Y85.636 E44.01100
G1 X107.181 Y85.636 E44.18063
G1 X107.181 Y93.354 E45.09733
G1 E43.09733 F2400.00000
G92 E0
G1 X104.138 Y106.348 F7800.000
G1 E2.00000 F2400.00000
G1 F1800
G1 X102.739 Y107.304 E2.20127
G1 X101.179 Y107.972 E2.40277
G1 X99.519 Y108.320 E2.60423
G1 X97.823 Y108.340 E2.80559
G1 X96.158 Y108.026 E3.00685
G1 X94.581 Y107.394 E3.20860
G1 X93.163 Y106.470 E3.40962
G1 X91.951 Y105.284 E3.61105
G1 X90.993 Y103.884 E3.81248
G1 X90.328 Y102.322 E4.01410
G1 X89.978 Y100.666 E4.21514
G1 X89.960 Y98.970 E4.41656
G1 X90.271 Y97.303 E4.61800
G1 X90.903 Y95.732 E4.81905
G1 X91.831 Y94.310 E5.02077
G1 X93.015 Y93.098 E5.22202
G1 X94.415 Y92.141 E5.42340
G1 X95.975 Y91.474 E5.62485
G1 X97.635 Y91.126 E5.82636
G1 X99.330 Y91.106 E6.02768
G1 X100.997 Y91.419 E6.22910
G1 X102.571 Y92.051 E6.43056
G1 X103.991 Y92.976 E6.63182
G1 X105.203 Y94.162 E6.83322
G1 X106.160 Y95.562 E7.03463
G1 X106.826 Y97.118 E7.23567
G1 X107.175 Y98.780 E7.43729
G1 X107.195 Y100.475 E7.63871
G1 X106.882 Y102.142 E7.84009
G1 X106.250 Y103.714 E8.04133
G1 X105.324 Y105.135 E8.24278
G1 X104.180 Y106.305 E8.43716
G1 X104.648 Y106.847 F7800.000
G1 F1800
G1 X104.599 Y106.898 E8.44555
G1 X103.084 Y107.933 E8.66351
G1 X101.395 Y108.656 E8.88173
G1 X99.597 Y109.033 E9.09988
G1 X97.761 Y109.055 E9.31796
G1 X95.957 Y108.715 E9.53595
G1 X94.250 Y108.031 E9.75434
G1 X92.714 Y107.030 E9.97212
G1 X91.402 Y105.745 E10.19026
G1 X90.364 Y104.229 E10.40842
G1 X89.644 Y102.538 E10.62672
G1 X89.264 Y100.745 E10.84443
G1 X89.245 Y98.908 E11.06258
G1 X89.582 Y97.102 E11.28073
G1 X90.266 Y95.401 E11.49853
G1 X91.271 Y93.861 E11.71691
G1 X92.554 Y92.548 E11.93488
G1 X94.070 Y91.512 E12.15297
G1 X95.759 Y90.790 E12.37112
G1 X97.557 Y90.412 E12.58934
G1 X99.392 Y90.391 E12.80733
G1 X101.198 Y90.730 E13.02553
G1 X102.902 Y91.415 E13.24364
G1 X104.440 Y92.416 E13.46160
G1 X105.753 Y93.701 E13.67976
G1 X106.789 Y95.217 E13.89786
G1 X107.510 Y96.902 E14.11559
G1 X107.888 Y98.701 E14.33391
G1 X107.910 Y100.538 E14.55203
G1 X107.571 Y102.343 E14.77018
G1 X106.886 Y104.045 E14.98811
G1 X105.884 Y105.584 E15.20623
G1 X104.690 Y106.805 E15.40896
G1 X105.159 Y107.347 F7800.000
G1 F1800
G1 X105.060 Y107.448 E15.42574
G1 X103.429 Y108.562 E15.66039
G1 X101.610 Y109.341 E15.89532
G1 X99.675 Y109.747 E16.13018
G1 X97.698 Y109.770 E16.36498
G1 X95.756 Y109.404 E16.59969
G1 X93.919 Y108.668 E16.83471
G1 X92.265 Y107.590 E17.06926
G1 X90.852 Y106.206 E17.30411
G1 X89.734 Y104.574 E17.53900
G1 X88.960 Y102.754 E17.77399
G1 X88.551 Y100.823 E18.00837
G1 X88.530 Y98.846 E18.24324
G1 X88.893 Y96.902 E18.47809
G1 X89.630 Y95.069 E18.71266
G1 X90.712 Y93.412 E18.94768
G1 X92.092 Y91.998 E19.18238
G1 X93.725 Y90.883 E19.41718
G1 X95.543 Y90.105 E19.65203
G1 X97.479 Y89.699 E19.88697
G1 X99.454 Y89.676 E20.12162
G1 X101.399 Y90.041 E20.35660
G1 X103.233 Y90.778 E20.59137
G1 X104.889 Y91.856 E20.82601
G1 X106.303 Y93.239 E21.06094
G1 X107.418 Y94.872 E21.29574
G1 X108.194 Y96.686 E21.53015
G1 X108.602 Y98.623 E21.76517
G1 X108.625 Y100.600 E21.99999
G1 X108.260 Y102.544 E22.23491
G1 X107.523 Y104.377 E22.46953
G1 X106.443 Y106.033 E22.70431
G1 X105.201 Y107.304 E22.91540
G1 X105.021 Y107.316 F7800.000
G1 E20.91540 F2400.00000
G92 E0
G1 X106.675 Y97.443 F7800.000
G1 E2.00000 F2400.00000
G1 F1800
G1 X101.383 Y92.151 E2.91324
G1 X100.846 Y91.935 E2.98386
G1 X99.964 Y91.770 E3.09341
G1 X106.536 Y98.341 E4.22751
G1 X106.640 Y98.838 E4.28951
G1 X106.648 Y99.491 E4.36917
G1 X98.804 Y91.648 E5.72277
G1 X97.779 Y91.660 E5.84796
G1 X106.641 Y100.522 E7.37744
G1 X106.477 Y101.396 E7.48594
G1 X96.907 Y91.826 E9.13759
G1 X96.137 Y91.987 E9.23364
G1 X96.062 Y92.019 E9.24348
G1 X106.271 Y102.227 E11.00523
G1 X105.973 Y102.967 E11.10257
G1 X95.336 Y92.330 E12.93834
G1 X94.619 Y92.651 E13.03418
G1 X105.639 Y103.671 E14.93598
G1 X105.229 Y104.299 E15.02749
G1 X94.002 Y93.072 E16.96503
G1 X93.386 Y93.493 E17.05615
G1 X104.799 Y104.906 E19.02576
G1 X104.286 Y105.431 E19.11531
G1 X92.869 Y94.014 E21.08558
G1 X92.356 Y94.539 E21.17514
G1 X103.769 Y105.952 E23.14469
G1 X103.152 Y106.373 E23.23581
G1 X91.925 Y95.146 E25.17335
G1 X91.515 Y95.774 E25.26485
G1 X102.536 Y106.794 E27.16674
G1 X101.819 Y107.115 E27.26258
G1 X91.181 Y96.477 E29.09854
G1 X90.883 Y97.217 E29.19590
G1 X101.092 Y107.426 E30.95780
G1 X101.017 Y107.459 E30.96782
G1 X100.248 Y107.620 E31.06367
G1 X90.677 Y98.049 E32.71545
G1 X90.514 Y98.923 E32.82401
G1 X99.377 Y107.786 E34.35355
G1 X98.351 Y107.798 E34.47871
G1 X90.506 Y99.953 E35.83260
G1 X90.513 Y100.607 E35.91243
G1 X90.618 Y101.103 E35.97420
G1 X97.191 Y107.676 E37.10862
G1 X96.309 Y107.510 E37.21819
G1 X95.772 Y107.295 E37.28877
G1 X90.479 Y102.002 E38.20211
G1 X91.153 Y103.714 F7800.000
G1 F1800
G1 X94.572 Y107.133 E38.79219
G1 E36.79219 F2400.00000
G92 E0
G1 X105.999 Y95.729 F7800.000
G1 E2.00000 F2400.00000
G1 F1800
G1 X102.587 Y92.317 E2.58870
G1 Z0.550 F7800.000
M140 S55 ; set bed temperature
G1 X104.592 Y106.792
G1 F3600
G1 X103.046 Y107.864 E2.63772
G1 X101.371 Y108.582 E2.68519
G1 X99.590 Y108.955 E2.73260
G1 X97.768 Y108.976 E2.78008
G1 X95.979 Y108.639 E2.82752
G1 X94.286 Y107.961 E2.87502
G1 X92.763 Y106.969 E2.92241
G1 X91.461 Y105.696 E2.96983
G1 X90.433 Y104.192 E3.01731
G1 X89.718 Y102.515 E3.06481
G1 X89.343 Y100.735 E3.11220
G1 X89.322 Y98.914 E3.15966
G1 X89.657 Y97.125 E3.20709
G1 X90.336 Y95.437 E3.25449
G1 X91.333 Y93.911 E3.30199
G1 X92.605 Y92.609 E3.34941
G1 X94.110 Y91.581 E3.39690
G1 X95.782 Y90.864 E3.44431
G1 X97.565 Y90.491 E3.49178
G1 X99.385 Y90.470 E3.53919
G1 X101.175 Y90.806 E3.58665
G1 X102.866 Y91.484 E3.63412
G1 X104.391 Y92.477 E3.68153
G1 X105.692 Y93.750 E3.72896
G1 X106.720 Y95.254 E3.77642
G1 X107.434 Y96.926 E3.82381
G1 X107.810 Y98.710 E3.87131
G1 X107.832 Y100.532 E3.91878
G1 X107.496 Y102.321 E3.96621
G1 X106.817 Y104.009 E4.01361
G1 X105.821 Y105.535 E4.06109
G1 X104.634 Y106.749 E4.10534
G1 X104.891 Y107.084 F7800.000
G1 F3600
G1 X104.817 Y107.159 E4.10807
G1 X103.248 Y108.232 E4.15761
G1 X101.497 Y108.982 E4.20723
G1 X99.636 Y109.372 E4.25679
G1 X97.731 Y109.394 E4.30641
G1 X95.861 Y109.042 E4.35599
G1 X94.093 Y108.334 E4.40563
G1 X92.500 Y107.296 E4.45516
G1 X91.140 Y105.966 E4.50475
G1 X90.065 Y104.394 E4.55437
G1 X89.318 Y102.641 E4.60401
G1 X88.925 Y100.781 E4.65353
G1 X88.904 Y98.877 E4.70314
G1 X89.254 Y97.007 E4.75272
G1 X89.964 Y95.243 E4.80227
G1 X91.005 Y93.648 E4.85191
G1 X92.335 Y92.287 E4.90148
G1 X93.908 Y91.213 E4.95111
G1 X95.656 Y90.464 E5.00066
G1 X97.520 Y90.073 E5.05028
G1 X99.421 Y90.052 E5.09983
G1 X101.293 Y90.403 E5.14943
G1 X103.060 Y91.112 E5.19905
G1 X104.653 Y92.150 E5.24860
G1 X106.014 Y93.480 E5.29818
G1 X107.088 Y95.052 E5.34779
G1 X107.834 Y96.800 E5.39731
G1 X108.228 Y98.664 E5.44696
G1 X108.250 Y100.569 E5.49658
G1 X107.899 Y102.439 E5.54616
G1 X107.189 Y104.203 E5.59570
G1 X106.149 Y105.797 E5.64532
G1 X104.933 Y107.041 E5.69064
G1 X105.189 Y107.376 F7800.000
G1 F1800
G1 X105.087 Y107.481 E5.69444
G1 X103.450 Y108.600 E5.74613
G1 X101.624 Y109.383 E5.79790
G1 X99.682 Y109.789 E5.84959
G1 X97.695 Y109.813 E5.90136
G1 X95.744 Y109.446 E5.95309
G1 X93.899 Y108.706 E6.00487
G1 X92.237 Y107.624 E6.05655
G1 X90.818 Y106.236 E6.10828
G1 X89.697 Y104.595 E6.16005
G1 X88.917 Y102.767 E6.21183
G1 X88.508 Y100.827 E6.26349
G1 X88.485 Y98.841 E6.31525
G1 X88.851 Y96.889 E6.36698
G1 X89.591 Y95.049 E6.41867
G1 X90.678 Y93.385 E6.47045
G1 X92.065 Y91.966 E6.52216
G1 X93.706 Y90.845 E6.57393
G1 X95.530 Y90.063 E6.62563
G1 X97.474 Y89.656 E6.67740
G1 X99.458 Y89.634 E6.72909
G1 X101.410 Y90.000 E6.78084
G1 X103.254 Y90.739 E6.83260
G1 X104.916 Y91.822 E6.88429
G1 X106.335 Y93.210 E6.93603
G1 X107.456 Y94.850 E6.98778
G1 X108.235 Y96.674 E7.03944
G1 X108.645 Y98.618 E7.09122
G1 X108.668 Y100.605 E7.14299
G1 X108.302 Y102.556 E7.19473
G1 X107.562 Y104.397 E7.24641
G1 X106.476 Y106.060 E7.29817
G1 X105.231 Y107.333 E7.34456
G1 X105.047 Y107.345 F7800.000
G1 X103.608 Y107.328
G1 F1200
G1 X106.179 Y104.757 E7.44103
G1 X102.277 Y108.057 F7800.000
G1 F1200
G1 X106.583 Y103.752 E7.60261
G1 X106.988 Y102.745 E7.63141
G1 X101.582 Y108.151 E7.83427
G1 X101.276 Y108.281 E7.84310
G1 X100.736 Y108.394 E7.85774
G1 X107.262 Y101.869 E8.10262
G1 X107.401 Y101.128 E8.12262
G1 X99.975 Y108.554 E8.40128
G1 X99.556 Y108.642 E8.41265
G1 X99.283 Y108.645 E8.41991
G1 X107.517 Y100.411 E8.72891
G1 X107.510 Y99.816 E8.74469
G1 X98.674 Y108.652 E9.07629
G1 X98.065 Y108.659 E9.09245
G1 X107.503 Y99.221 E9.44663
G1 X107.497 Y98.745 E9.45927
G1 X107.476 Y98.646 E9.46196
G1 X97.513 Y108.609 E9.83586
G1 X97.006 Y108.514 E9.84953
G1 X107.372 Y98.149 E10.23851
G1 X107.267 Y97.652 E10.25199
G1 X96.500 Y108.419 E10.65603
G1 X96.005 Y108.312 E10.66948
G1 X107.162 Y97.155 E11.08818
G1 X107.134 Y97.021 E11.09181
G1 X107.002 Y96.713 E11.10070
G1 X95.575 Y108.140 E11.52952
G1 X95.145 Y107.968 E11.54181
G1 X106.822 Y96.291 E11.98000
G1 X106.642 Y95.870 E11.99217
G1 X94.716 Y107.796 E12.43973
G1 X94.432 Y107.682 E12.44785
G1 X94.308 Y107.602 E12.45176
G1 X106.462 Y95.448 E12.90786
G1 X106.444 Y95.405 E12.90908
G1 X106.224 Y95.084 E12.91941
G1 X93.944 Y107.364 E13.38026
G1 X93.579 Y107.127 E13.39180
G1 X105.980 Y94.726 E13.85716
G1 X105.736 Y94.369 E13.86865
G1 X93.215 Y106.890 E14.33852
G1 X92.959 Y106.723 E14.34661
G1 X92.869 Y106.634 E14.34998
G1 X105.491 Y94.011 E14.82368
G1 X105.197 Y93.704 E14.83498
G1 X92.564 Y106.337 E15.30905
G1 X92.260 Y106.039 E15.32034
G1 X104.893 Y93.406 E15.79441
G1 X104.589 Y93.109 E15.80570
G1 X91.956 Y105.742 E16.27977
G1 X91.662 Y105.434 E16.29106
G1 X104.284 Y92.811 E16.76476
G1 X104.194 Y92.723 E16.76812
G1 X103.938 Y92.556 E16.77622
G1 X91.417 Y105.077 E17.24608
G1 X91.173 Y104.719 E17.25757
G1 X103.574 Y92.319 E17.72292
G1 X103.209 Y92.081 E17.73446
G1 X90.929 Y104.362 E18.19531
G1 X90.691 Y103.998 E18.20685
G1 X102.845 Y91.844 E18.66295
G1 X102.721 Y91.763 E18.66686
G1 X102.437 Y91.650 E18.67497
G1 X90.511 Y103.576 E19.12253
G1 X90.331 Y103.154 E19.13470
G1 X102.008 Y91.477 E19.57289
G1 X101.578 Y91.305 E19.58517
G1 X90.151 Y102.732 E20.01399
G1 X90.018 Y102.420 E20.02299
G1 X89.991 Y102.291 E20.02650
G1 X101.149 Y91.133 E20.44522
G1 X100.653 Y91.027 E20.45867
G1 X89.886 Y101.794 E20.86272
G1 X89.781 Y101.297 E20.87620
G1 X100.146 Y90.932 E21.26517
G1 X99.640 Y90.837 E21.27885
G1 X89.677 Y100.800 E21.65274
G1 X89.656 Y100.701 E21.65543
G1 X89.650 Y100.224 E21.66807
G1 X99.088 Y90.787 E22.02224
G1 X98.479 Y90.794 E22.03839
G1 X89.643 Y99.630 E22.36997
G1 X89.637 Y99.035 E22.38576
G1 X97.871 Y90.801 E22.69476
G1 X97.600 Y90.804 E22.70195
G1 X97.177 Y90.892 E22.71340
G1 X89.753 Y98.317 E22.99203
G1 X89.891 Y97.576 E23.01202
G1 X96.416 Y91.052 E23.25688
G1 X95.877 Y91.164 E23.27150
G1 X95.570 Y91.296 E23.28036
G1 X90.166 Y96.700 E23.48317
G1 X90.570 Y95.694 E23.51195
G1 X94.875 Y91.389 E23.67350
G1 X93.542 Y92.120 F7800.000
G1 F1200
G1 X90.975 Y94.688 E23.76983
G1 Z0.675 F7800.000
G1 E21.76983 F2400.00000
G92 E0
G1 X88.165 Y102.984 F7800.000
G1 E2.00000 F2400.00000
G1 F1954
G1 X88.129 Y102.818 E2.00662
G1 X82.915 Y102.818 E2.20988
G1 X82.915 Y108.521 E2.43224
G1 X91.487 Y108.521 E2.76639
G1 X91.487 Y107.982 E2.78742
G1 X90.206 Y106.722 E2.85745
G1 X89.019 Y104.991 E2.93928
G1 X88.165 Y102.984 E3.02433
G1 X89.297 Y105.669 F7800.000
G1 F1954
G1 X83.070 Y105.669 E3.26709
G1 E1.26709 F2400.00000
G92 E0
G1 X105.204 Y108.537 F7800.000
G1 E2.00000 F2400.00000
G1 F1954
G1 X105.671 Y108.537 E2.01820
G1 X108.694 Y108.521 F7800.000
G1 F1954
G1 X108.694 Y105.685 E2.12875
G1 X107.657 Y105.685 E2.16917
G1 X107.075 Y106.567 E2.21034
G1 X105.607 Y108.068 E2.29219
G1 X103.809 Y109.297 E2.37713
