; generated by PrusaSlicer 2.1.1+ on 2021-06-26 at 11:34:27 UTC

; 

; external perimeters extrusion width = 0.45mm
; perimeters extrusion width = 0.45mm
; infill extrusion width = 0.45mm
; solid infill extrusion width = 0.45mm
; top infill extrusion width = 0.40mm
; support material extrusion width = 0.40mm
; first layer extrusion width = 0.80mm

M107
M190 S60 ; set bed temperature and wait for it to be reached
M104 S200 ; set temperature
G28 ; home all axes
G1 Z5 F5000 ; lift nozzle
M109 S200 ; set temperature and wait for it to be reached
G21 ; set units to millimeters
G90 ; use absolute coordinates
M82 ; use absolute distances for extrusion
G92 E0
; Filament gcode
G1 Z0.400 F7800.000
G1 E-2.00000 F2400.00000
G92 E0
G1 X83.395 Y89.287 F7800.000
G1 E2.00000 F2400.00000
G1 F1800
G1 X85.324 Y87.003 E2.35503
G1 X85.942 Y86.424 E2.45556
G1 X87.705 Y85.052 E2.72090
G1 X88.593 Y84.477 E2.84652
G1 X91.131 Y83.229 E3.18246
G1 X93.801 Y82.462 E3.51242
G1 X107.074 Y79.255 E5.13416
G1 X107.980 Y79.181 E5.24208
G1 X115.188 Y79.181 E6.09813
G1 X116.547 Y79.329 E6.26057
G1 X117.838 Y79.762 E6.42227
G1 X119.007 Y80.461 E6.58397
G1 X120.001 Y81.392 E6.74568
G1 X120.851 Y82.662 E6.92722
G1 X123.775 Y88.535 E7.70635
G1 X124.181 Y89.638 E7.84597
G1 X124.395 Y91.183 E8.03119
G1 X124.373 Y103.519 E9.49633
G1 X124.195 Y104.568 E9.62269
G1 X123.847 Y105.567 E9.74831
G1 X123.338 Y106.494 E9.87393
G1 X122.683 Y107.324 E9.99955
G1 X119.229 Y110.490 E10.55599
G1 X118.406 Y111.050 E10.67424
G1 X117.505 Y111.475 E10.79248
G1 X95.033 Y117.815 E13.56557
G1 X93.609 Y117.943 E13.73537
G1 X84.341 Y117.566 E14.83705
G1 X83.379 Y117.361 E14.95382
G1 X82.461 Y117.009 E15.07059
G1 X81.608 Y116.520 E15.18736
G1 X80.845 Y115.910 E15.30339
G1 X80.117 Y115.101 E15.43270
G1 X79.537 Y114.179 E15.56200
G1 X79.122 Y113.172 E15.69131
G1 X78.886 Y112.110 E15.82061
G1 X78.830 Y111.302 E15.91672
G1 X78.830 Y102.411 E16.97272
G1 X78.905 Y101.449 E17.08728
G1 X79.094 Y100.611 E17.18929
G1 X80.892 Y94.754 E17.91702
G1 X81.799 Y92.106 E18.24945
G1 X83.366 Y89.339 E18.62706
G1 E16.62706 F2400.00000
G92 E0
G1 X85.187 Y102.423 F7800.000
G1 E2.00000 F2400.00000
G1 F1800
G1 X85.187 Y111.266 E3.05020
G1 X86.615 Y111.266 E3.21984
G1 X86.615 Y102.745 E4.23187
G1 X86.812 Y102.745 E4.25527
G1 X86.874 Y102.945 E4.28020
G1 X87.821 Y104.836 E4.53135
G1 X88.044 Y105.129 E4.57504
G1 X88.044 Y111.266 E5.30390
G1 X89.472 Y111.266 E5.47353
G1 X89.472 Y106.835 E5.99976
G1 X90.789 Y107.974 E6.20659
G1 X90.900 Y108.043 E6.22212
G1 X90.900 Y111.266 E6.60484
G1 X92.329 Y111.266 E6.77448
G1 X92.329 Y108.854 E7.06099
G1 X92.726 Y109.073 E7.11494
G1 X93.757 Y109.416 E7.24394
G1 X93.757 Y111.587 E7.50182
G1 E5.50182 F2400.00000
G92 E0
G1 X106.612 Y104.025 F7800.000
G1 E2.00000 F2400.00000
G1 F1800
G1 X106.612 Y105.530 E2.17876
G1 X108.040 Y105.530 E2.34840
G1 X108.040 Y85.538 E4.72281
G1 X109.468 Y85.538 E4.89245
G1 X109.468 Y105.530 E7.26687
G1 X110.897 Y105.530 E7.43650
G1 X110.897 Y85.538 E9.81092
G1 X112.325 Y85.538 E9.98055
G1 X112.325 Y105.530 E12.35497
G1 X113.753 Y105.530 E12.52461
G1 X113.753 Y85.538 E14.89903
G1 X115.182 Y85.538 E15.06866
G1 X115.182 Y105.530 E17.44308
G1 X115.252 Y105.530 E17.45147
G1 X115.252 Y102.663 E17.79206
G1 X116.610 Y102.663 E17.95331
G1 X116.610 Y91.273 E19.30594
G1 X118.038 Y91.273 E19.47557
G1 X118.038 Y102.984 E20.86637
G1 X106.612 Y93.863 F7800.000
G1 F1800
G1 X106.612 Y88.406 E21.51456
G1 X105.183 Y88.406 E21.68419
G1 X105.183 Y91.797 E22.08698
G1 E20.08698 F2400.00000
G92 E0
G1 X103.153 Y105.216 F7800.000
G1 E2.00000 F2400.00000
G1 F1800
G1 X101.817 Y106.257 E2.20111
G1 X100.300 Y107.019 E2.40274
G1 X98.666 Y107.470 E2.60406
G1 X96.974 Y107.594 E2.80555
G1 X95.293 Y107.384 E3.00677
G1 X93.683 Y106.851 E3.20816
G1 X92.207 Y106.014 E3.40969
G1 X90.925 Y104.905 E3.61098
G1 X89.882 Y103.567 E3.81246
G1 X89.122 Y102.051 E4.01392
G1 X88.670 Y100.417 E4.21528
G1 X88.548 Y98.726 E4.41661
G1 X88.756 Y97.040 E4.61831
G1 X89.287 Y95.434 E4.81928
G1 X90.126 Y93.959 E5.02080
G1 X91.234 Y92.675 E5.22216
G1 X92.575 Y91.634 E5.42378
G1 X94.087 Y90.872 E5.62488
G1 X95.722 Y90.422 E5.82634
G1 X97.412 Y90.297 E6.02761
G1 X99.093 Y90.507 E6.22882
G1 X100.705 Y91.042 E6.43045
G1 X102.180 Y91.877 E6.63179
G1 X103.462 Y92.987 E6.83314
G1 X104.505 Y94.324 E7.03460
G1 X105.266 Y95.840 E7.23608
G1 X105.717 Y97.474 E7.43736
G1 X105.840 Y99.167 E7.63890
G1 X105.631 Y100.849 E7.84030
G1 X105.099 Y102.458 E8.04153
G1 X104.262 Y103.933 E8.24293
G1 X103.192 Y105.170 E8.43722
G1 X103.693 Y105.683 F7800.000
G1 F1800
G1 X103.647 Y105.736 E8.44554
G1 X102.201 Y106.863 E8.66333
G1 X100.558 Y107.688 E8.88166
G1 X98.789 Y108.177 E9.09968
G1 X96.956 Y108.311 E9.31794
G1 X95.135 Y108.083 E9.53586
G1 X93.392 Y107.507 E9.75391
G1 X91.793 Y106.600 E9.97217
G1 X90.405 Y105.399 E10.19015
G1 X89.275 Y103.951 E10.40835
G1 X88.452 Y102.309 E10.62652
G1 X87.962 Y100.539 E10.84459
G1 X87.830 Y98.708 E11.06263
G1 X88.056 Y96.883 E11.28098
G1 X88.631 Y95.142 E11.49873
G1 X89.540 Y93.545 E11.71695
G1 X90.740 Y92.155 E11.93504
G1 X92.191 Y91.027 E12.15334
G1 X93.829 Y90.202 E12.37111
G1 X95.600 Y89.715 E12.58929
G1 X97.431 Y89.580 E12.80733
G1 X99.251 Y89.807 E13.02523
G1 X100.996 Y90.386 E13.24352
G1 X102.593 Y91.291 E13.46157
G1 X103.982 Y92.492 E13.67964
G1 X105.112 Y93.941 E13.89781
G1 X105.936 Y95.583 E14.11601
G1 X106.424 Y97.352 E14.33399
G1 X106.557 Y99.185 E14.55226
G1 X106.331 Y101.007 E14.77031
G1 X105.755 Y102.749 E14.98824
G1 X104.849 Y104.347 E15.20641
G1 X103.732 Y105.638 E15.40908
G1 X104.233 Y106.150 F7800.000
G1 F1800
G1 X104.141 Y106.256 E15.42572
G1 X102.584 Y107.470 E15.66020
G1 X100.816 Y108.358 E15.89521
G1 X98.911 Y108.884 E16.12995
G1 X96.937 Y109.029 E16.36496
G1 X94.977 Y108.783 E16.59958
G1 X93.101 Y108.162 E16.83429
G1 X91.380 Y107.186 E17.06930
G1 X89.885 Y105.894 E17.30396
G1 X88.668 Y104.334 E17.53889
G1 X87.782 Y102.566 E17.77377
G1 X87.255 Y100.661 E18.00855
G1 X87.113 Y98.689 E18.24330
G1 X87.356 Y96.726 E18.47828
G1 X87.976 Y94.851 E18.71282
G1 X88.954 Y93.132 E18.94774
G1 X90.245 Y91.635 E19.18255
G1 X91.808 Y90.421 E19.41754
G1 X93.571 Y89.533 E19.65198
G1 X95.478 Y89.008 E19.88689
G1 X97.450 Y88.862 E20.12169
G1 X99.410 Y89.107 E20.35628
G1 X101.287 Y89.730 E20.59124
G1 X103.007 Y90.704 E20.82599
G1 X104.502 Y91.998 E21.06078
G1 X105.719 Y93.557 E21.29566
G1 X106.605 Y95.325 E21.53059
G1 X107.132 Y97.230 E21.76525
G1 X107.275 Y99.203 E22.00026
G1 X107.031 Y101.165 E22.23497
G1 X106.411 Y103.040 E22.46959
G1 X105.435 Y104.761 E22.70453
G1 X104.272 Y106.105 E22.91558
G1 X104.095 Y106.128 F7800.000
G1 E20.91558 F2400.00000
G92 E0
G1 X105.251 Y96.591 F7800.000
G1 E2.00000 F2400.00000
G1 F1800
G1 X100.048 Y91.388 E2.90085
G1 X98.975 Y91.032 E3.03933
G1 X98.605 Y90.986 E3.08499
G1 X105.187 Y97.568 E4.22471
G1 X105.269 Y98.691 E4.36254
G1 X97.415 Y90.837 E5.72240
G1 X96.442 Y90.906 E5.84179
G1 X105.234 Y99.698 E7.36414
G1 X105.119 Y100.624 E7.47838
G1 X95.527 Y91.031 E9.13935
G1 X94.710 Y91.256 E9.24304
G1 X104.877 Y101.423 E11.00349
G1 X104.619 Y102.206 E11.10441
G1 X93.952 Y91.540 E12.95129
G1 X93.260 Y91.888 E13.04621
G1 X104.247 Y102.875 E14.94861
G1 X103.870 Y103.539 E15.04212
G1 X92.613 Y92.282 E16.99130
G1 X92.027 Y92.738 E17.08215
G1 X103.400 Y104.111 E19.05148
G1 X102.917 Y104.669 E19.14186
G1 X91.470 Y93.222 E21.12402
G1 X90.988 Y93.781 E21.21440
G1 X102.361 Y105.154 E23.18369
G1 X101.775 Y105.610 E23.27452
G1 X90.518 Y94.353 E25.22371
G1 X90.141 Y95.017 E25.31719
G1 X101.128 Y106.003 E27.21961
G1 X100.435 Y106.352 E27.31457
G1 X89.768 Y95.685 E29.16151
G1 X89.510 Y96.468 E29.26242
G1 X99.677 Y106.635 E31.02297
G1 X98.861 Y106.861 E31.12659
G1 X89.268 Y97.267 E32.78775
G1 X89.153 Y98.194 E32.90208
G1 X97.945 Y106.986 E34.42445
G1 X96.972 Y107.054 E34.54392
G1 X89.119 Y99.201 E35.90369
G1 X89.200 Y100.323 E36.04142
G1 X95.782 Y106.905 E37.18115
G1 X95.411 Y106.859 E37.22686
G1 X94.340 Y106.504 E37.36509
G1 X89.136 Y101.300 E38.26610
G1 X89.879 Y103.085 F7800.000
G1 F1800
G1 X93.027 Y106.232 E38.81109
G1 E36.81109 F2400.00000
G92 E0
G1 X104.508 Y94.807 F7800.000
G1 E2.00000 F2400.00000
G1 F1800
G1 X101.361 Y91.660 E2.54487
G1 Z0.550 F7800.000
M140 S55 ; set bed temperature
G1 X103.634 Y105.632
G1 F3600
G1 X102.158 Y106.795 E2.59384
G1 X100.529 Y107.615 E2.64135
G1 X98.774 Y108.100 E2.68880
G1 X96.957 Y108.232 E2.73625
G1 X95.152 Y108.007 E2.78365
G1 X93.423 Y107.434 E2.83112
G1 X91.839 Y106.535 E2.87858
G1 X90.463 Y105.345 E2.92599
G1 X89.341 Y103.909 E2.97346
G1 X88.526 Y102.282 E3.02088
G1 X88.040 Y100.526 E3.06835
G1 X87.909 Y98.709 E3.11580
G1 X88.132 Y96.900 E3.16330
G1 X88.703 Y95.174 E3.21068
G1 X89.602 Y93.590 E3.25812
G1 X90.793 Y92.212 E3.30558
G1 X92.233 Y91.093 E3.35308
G1 X93.857 Y90.276 E3.40047
G1 X95.614 Y89.791 E3.44795
G1 X97.429 Y89.658 E3.49536
G1 X99.234 Y89.883 E3.54276
G1 X100.964 Y90.458 E3.59026
G1 X102.548 Y91.356 E3.63771
G1 X103.926 Y92.548 E3.68518
G1 X105.046 Y93.982 E3.73260
G1 X105.862 Y95.611 E3.78007
G1 X106.346 Y97.365 E3.82747
G1 X106.478 Y99.182 E3.87494
G1 X106.254 Y100.990 E3.92241
G1 X105.683 Y102.717 E3.96981
G1 X104.785 Y104.301 E4.01724
G1 X103.673 Y105.586 E4.06154
G1 X103.950 Y105.905 F7800.000
G1 F3600
G1 X103.882 Y105.983 E4.06422
G1 X102.382 Y107.150 E4.11375
G1 X100.680 Y108.007 E4.16339
G1 X98.845 Y108.514 E4.21299
G1 X96.947 Y108.652 E4.26260
G1 X95.060 Y108.416 E4.31214
G1 X93.253 Y107.817 E4.36174
G1 X91.597 Y106.878 E4.41136
G1 X90.158 Y105.634 E4.46090
G1 X88.986 Y104.133 E4.51052
G1 X88.135 Y102.432 E4.56009
G1 X87.627 Y100.597 E4.60970
G1 X87.489 Y98.699 E4.65929
G1 X87.723 Y96.808 E4.70893
G1 X88.319 Y95.003 E4.75846
G1 X89.259 Y93.348 E4.80805
G1 X90.504 Y91.908 E4.85766
G1 X92.009 Y90.738 E4.90730
G1 X93.706 Y89.884 E4.95683
G1 X95.542 Y89.377 E5.00646
G1 X97.440 Y89.238 E5.05602
G1 X99.326 Y89.474 E5.10556
G1 X101.134 Y90.074 E5.15520
G1 X102.790 Y91.013 E5.20479
G1 X104.230 Y92.259 E5.25441
G1 X105.401 Y93.758 E5.30397
G1 X106.254 Y95.460 E5.35359
G1 X106.760 Y97.293 E5.40314
G1 X106.898 Y99.193 E5.45275
G1 X106.664 Y101.082 E5.50236
G1 X106.067 Y102.887 E5.55190
G1 X105.128 Y104.543 E5.60149
G1 X103.989 Y105.860 E5.64686
G1 X104.266 Y106.178 F7800.000
G1 F1800
G1 X104.171 Y106.287 E5.65061
G1 X102.606 Y107.505 E5.70228
G1 X100.831 Y108.399 E5.75406
G1 X98.917 Y108.928 E5.80581
G1 X96.936 Y109.072 E5.85757
G1 X94.967 Y108.826 E5.90925
G1 X93.082 Y108.201 E5.96099
G1 X91.355 Y107.221 E6.01275
G1 X89.854 Y105.923 E6.06444
G1 X88.631 Y104.358 E6.11620
G1 X87.743 Y102.583 E6.16792
G1 X87.213 Y100.669 E6.21967
G1 X87.070 Y98.688 E6.27141
G1 X87.313 Y96.716 E6.32318
G1 X87.935 Y94.833 E6.37486
G1 X88.917 Y93.106 E6.42661
G1 X90.215 Y91.603 E6.47836
G1 X91.784 Y90.384 E6.53014
G1 X93.555 Y89.492 E6.58181
G1 X95.471 Y88.963 E6.63358
G1 X97.451 Y88.818 E6.68530
G1 X99.419 Y89.064 E6.73699
G1 X101.305 Y89.690 E6.78876
G1 X103.032 Y90.670 E6.84050
G1 X104.534 Y91.969 E6.89226
G1 X105.756 Y93.534 E6.94397
G1 X106.646 Y95.310 E6.99574
G1 X107.174 Y97.222 E7.04742
G1 X107.318 Y99.203 E7.09918
G1 X107.073 Y101.174 E7.15092
G1 X106.451 Y103.058 E7.20261
G1 X105.471 Y104.785 E7.25435
G1 X104.305 Y106.133 E7.30080
G1 X104.123 Y106.156 F7800.000
G1 X102.279 Y106.543
G1 F1200
G1 X104.799 Y104.022 E7.39573
G1 X100.959 Y107.259 F7800.000
G1 F1200
G1 X105.091 Y103.126 E7.55137
G1 X105.396 Y102.589 E7.56780
G1 X105.579 Y102.034 E7.58337
G1 X100.245 Y107.369 E7.78427
G1 X99.410 Y107.599 E7.80733
G1 X105.877 Y101.133 E8.05089
G1 X105.947 Y100.921 E8.05683
G1 X106.012 Y100.393 E8.07098
G1 X98.607 Y107.798 E8.34988
G1 X97.956 Y107.846 E8.36727
G1 X106.098 Y99.704 E8.67392
G1 X106.163 Y99.174 E8.68814
G1 X106.154 Y99.044 E8.69162
G1 X97.305 Y107.893 E9.02492
G1 X96.966 Y107.918 E9.03397
G1 X96.708 Y107.886 E9.04088
G1 X106.113 Y98.481 E9.39510
G1 X106.072 Y97.918 E9.41013
G1 X96.171 Y107.818 E9.78303
G1 X95.635 Y107.751 E9.79744
G1 X106.021 Y97.365 E10.18863
G1 X105.890 Y96.891 E10.20170
G1 X95.117 Y107.665 E10.60747
G1 X94.663 Y107.515 E10.62019
G1 X105.760 Y96.418 E11.03812
G1 X105.629 Y95.945 E11.05120
G1 X94.210 Y107.364 E11.48129
G1 X93.756 Y107.214 E11.49401
G1 X105.461 Y95.509 E11.93484
G1 X105.259 Y95.107 E11.94683
G1 X93.340 Y107.026 E12.39574
G1 X92.955 Y106.808 E12.40754
G1 X105.057 Y94.705 E12.86337
G1 X104.856 Y94.302 E12.87535
G1 X92.569 Y106.589 E13.33810
G1 X92.184 Y106.370 E13.34990
G1 X104.615 Y93.939 E13.81809
G1 X104.350 Y93.600 E13.82955
G1 X91.834 Y106.116 E14.30095
G1 X91.510 Y105.836 E14.31235
G1 X104.085 Y93.261 E14.78597
G1 X103.821 Y92.922 E14.79743
G1 X91.186 Y105.556 E15.27328
G1 X90.862 Y105.276 E15.28468
G1 X103.524 Y92.615 E15.76156
G1 X103.200 Y92.334 E15.77296
G1 X90.566 Y104.968 E16.24880
G1 X90.301 Y104.629 E16.26026
G1 X102.876 Y92.054 E16.73387
G1 X102.553 Y91.774 E16.74528
G1 X90.037 Y104.290 E17.21667
G1 X89.772 Y103.951 E17.22813
G1 X102.203 Y91.520 E17.69632
G1 X101.817 Y91.302 E17.70812
G1 X89.531 Y103.588 E18.17086
G1 X89.329 Y103.186 E18.18284
G1 X101.432 Y91.083 E18.63865
G1 X101.046 Y90.865 E18.65045
G1 X89.128 Y102.783 E19.09934
G1 X88.926 Y102.381 E19.11132
G1 X100.630 Y90.677 E19.55212
G1 X100.177 Y90.527 E19.56484
G1 X88.758 Y101.945 E19.99489
G1 X88.627 Y101.472 E20.00796
G1 X99.723 Y90.376 E20.42586
G1 X99.270 Y90.226 E20.43859
G1 X88.496 Y100.999 E20.84434
G1 X88.366 Y100.526 E20.85741
G1 X98.752 Y90.139 E21.24861
G1 X98.215 Y90.072 E21.26302
G1 X88.315 Y99.973 E21.63592
G1 X88.274 Y99.410 E21.65095
G1 X97.678 Y90.005 E22.00516
G1 X97.420 Y89.973 E22.01209
G1 X97.082 Y89.997 E22.02112
G1 X88.233 Y98.847 E22.35441
G1 X88.224 Y98.717 E22.35786
G1 X88.289 Y98.186 E22.37211
G1 X96.431 Y90.045 E22.67873
G1 X95.779 Y90.093 E22.69613
G1 X88.374 Y97.497 E22.97501
G1 X88.440 Y96.969 E22.98919
G1 X88.509 Y96.759 E22.99509
G1 X94.976 Y90.292 E23.23865
G1 X94.142 Y90.522 E23.26170
G1 X88.807 Y95.857 E23.46261
G1 X88.991 Y95.301 E23.47818
G1 X89.296 Y94.764 E23.49465
G1 X93.428 Y90.632 E23.65026
G1 X92.103 Y91.353 F7800.000
G1 F1200
G1 X89.590 Y93.866 E23.74489
G1 Z0.688 F7800.000
G1 E21.74489 F2400.00000
G92 E0
G1 X88.621 Y105.614 F7800.000
G1 E2.00000 F2400.00000
G1 F1226
G1 X88.600 Y105.587 E2.00137
G1 X86.631 Y105.587 E2.08120
G1 X86.631 Y108.423 E2.19618
G1 X91.887 Y108.423 E2.40929
G1 X90.886 Y107.850 E2.45605
G1 X89.300 Y106.478 E2.54109
G1 X88.621 Y105.614 E2.58565
G1 E0.58565 F2400.00000
G92 E0
G1 X112.256 Y99.836 F7800.000
G1 E2.00000 F2400.00000
G1 F1226
G1 X108.350 Y99.836 E2.15838
G1 X108.421 Y99.196 E2.18449
G1 X108.267 Y97.071 E2.27086
G1 X108.246 Y96.968 E2.27514
G1 X114.958 Y96.968 E2.54729
G1 X114.958 Y94.435 E2.64998
G1 X112.090 Y94.435 E2.76626
G1 X112.090 Y94.100 E2.77985
G1 X107.271 Y94.100 E2.97524
G1 X107.025 Y93.609 E2.99751
G1 X107.025 Y91.568 E3.08030
G1 X109.893 Y91.568 E3.19658
G1 X109.893 Y91.232 E3.21017
G1 X112.256 Y91.232 E3.30598
G1 X112.409 Y94.116 F7800.000
G1 F1226
G1 X112.409 Y88.381 E3.53855
G1 X109.574 Y88.381 E3.65352
G1 X109.574 Y91.248 E3.76981
G1 X106.706 Y91.248 E3.88609
G1 X106.706 Y93.685 E3.98488
G1 X107.384 Y95.047 E4.04659
G1 X107.943 Y97.069 E4.13164
G1 X108.102 Y99.204 E4.21843
G1 X107.842 Y101.327 E4.30515
G1 X107.397 Y102.688 E4.36321
G1 X112.409 Y102.688 E4.56647
G1 X112.409 Y99.820 E4.68275
G1 X115.277 Y99.820 E4.79903
G1 X115.277 Y94.116 E5.03029
G1 X112.409 Y94.116 E5.14657
G1 Z0.700 F7800.000
G1 E3.14657 F2400.00000
G92 E0
G1 X103.579 Y105.585 F7800.000
G1 E2.00000 F2400.00000
G1 F3600
G1 X102.119 Y106.734 E2.04842
G1 X100.503 Y107.548 E2.09557
G1 X98.761 Y108.029 E2.14266
G1 X96.959 Y108.160 E2.18973
G1 X95.168 Y107.936 E2.23675
G1 X93.452 Y107.367 E2.28386
G1 X91.880 Y106.475 E2.33095
G1 X90.515 Y105.295 E2.37798
G1 X89.402 Y103.871 E2.42508
G1 X88.594 Y102.256 E2.47211
G1 X88.112 Y100.513 E2.51923
G1 X87.981 Y98.711 E2.56632
G1 X88.203 Y96.916 E2.61345
G1 X88.769 Y95.203 E2.66046
G1 X89.660 Y93.632 E2.70752
G1 X90.843 Y92.265 E2.75462
G1 X92.271 Y91.154 E2.80176
G1 X93.884 Y90.343 E2.84879
G1 X95.625 Y89.861 E2.89587
G1 X97.448 Y89.732 E2.94349
G1 X99.218 Y89.954 E2.98995
G1 X100.934 Y90.524 E3.03708
