; generated by PrusaSlicer 2.1.1+ on 2021-06-26 at 11:32:12 UTC

; 

; external perimeters extrusion width = 0.45mm
; perimeters extrusion width = 0.45mm
; infill extrusion width = 0.45mm
; solid infill extrusion width = 0.45mm
; top infill extrusion width = 0.40mm
; support material extrusion width = 0.40mm
; first layer extrusion width = 0.80mm

M107
M190 S60 ; set bed temperature and wait for it to be reached
M104 S200 ; set temperature
G28 ; home all axes
G1 Z5 F5000 ; lift nozzle
M109 S200 ; set temperature and wait for it to be reached
G21 ; set units to millimeters
G90 ; use absolute coordinates
M82 ; use absolute distances for extrusion
G92 E0
; Filament gcode
G1 Z0.400 F7800.000
G1 E-2.00000 F2400.00000
G92 E0
G1 X79.703 Y88.370 F7800.000
G1 E2.00000 F2400.00000
G1 F1800
G1 X91.442 Y79.850 E3.72265
G1 X92.486 Y79.245 E3.86596
G1 X93.637 Y78.845 E4.01073
G1 X94.844 Y78.673 E4.15551
G1 X105.135 Y78.666 E5.37776
G1 X106.343 Y78.781 E5.52180
G1 X121.100 Y81.760 E7.30983
G1 X122.054 Y82.106 E7.43029
G1 X122.935 Y82.595 E7.55001
G1 X123.733 Y83.221 E7.67046
G1 X124.416 Y83.962 E7.79018
G1 X124.959 Y84.774 E7.90622
G1 X125.374 Y85.666 E8.02299
G1 X125.644 Y86.605 E8.13902
G1 X125.768 Y87.574 E8.25505
G1 X125.774 Y102.594 E10.03886
G1 X125.681 Y103.560 E10.15415
G1 X125.442 Y104.501 E10.26945
G1 X125.135 Y105.249 E10.36556
G1 X124.736 Y105.953 E10.46166
G1 X118.776 Y114.677 E11.71647
G1 X115.233 Y118.278 E12.31644
G1 X114.575 Y118.811 E12.41698
G1 X113.847 Y119.256 E12.51825
G1 X112.967 Y119.633 E12.63207
G1 X104.309 Y122.519 E13.71592
G1 X103.256 Y122.772 E13.84449
G1 X92.310 Y123.165 E15.14540
G1 X91.268 Y123.084 E15.26955
G1 X90.253 Y122.833 E15.39369
G1 X89.420 Y122.485 E15.50087
G1 X88.645 Y122.023 E15.60805
G1 X87.943 Y121.456 E15.71523
G1 X87.329 Y120.795 E15.82241
G1 X78.524 Y108.692 E17.59991
G1 X77.804 Y107.365 E17.77926
G1 X77.471 Y106.231 E17.91961
G1 X77.354 Y105.061 E18.05923
G1 X77.355 Y93.149 E19.47397
G1 X77.450 Y92.202 E19.58705
G1 X77.687 Y91.273 E19.70087
G1 X78.033 Y90.446 E19.80731
G1 X78.491 Y89.676 E19.91375
G1 X79.053 Y88.978 E20.02019
G1 X79.659 Y88.411 E20.11877
G1 E18.11877 F2400.00000
G92 E0
G1 X83.711 Y93.305 F7800.000
G1 E2.00000 F2400.00000
G1 F1800
G1 X83.711 Y105.015 E3.39080
G1 X85.139 Y105.015 E3.56043
G1 X85.139 Y93.626 E4.91306
G1 X86.567 Y93.626 E5.08270
G1 X86.567 Y105.015 E6.43533
G1 X87.996 Y105.015 E6.60496
G1 X87.996 Y93.626 E7.95759
G1 X89.424 Y93.626 E8.12723
G1 X89.424 Y98.065 E8.65437
G1 E6.65437 F2400.00000
G92 E0
G1 X95.137 Y92.390 F7800.000
G1 E2.00000 F2400.00000
G1 F1800
G1 X95.137 Y85.023 E2.87499
G1 X96.565 Y85.023 E3.04463
G1 X96.565 Y91.623 E3.82846
G1 X97.994 Y91.438 E3.99950
G1 X97.994 Y85.023 E4.76144
G1 X99.422 Y85.023 E4.93107
G1 X99.422 Y91.478 E5.69769
G1 X100.236 Y91.533 E5.79457
G1 X100.850 Y91.695 E5.87005
G1 X100.850 Y85.023 E6.66251
G1 X102.279 Y85.023 E6.83215
G1 X102.279 Y92.105 E7.67323
G1 X103.707 Y92.813 E7.86257
G1 X103.707 Y85.023 E8.78777
G1 X105.135 Y85.023 E8.95740
G1 X105.135 Y93.847 E10.00543
G1 X105.544 Y94.171 E10.06729
G1 X106.564 Y95.339 E10.25154
G1 X106.564 Y87.891 E11.13620
G1 X107.992 Y87.891 E11.30583
G1 X107.992 Y98.898 E12.61312
G1 X119.419 Y102.469 F7800.000
G1 F1800
G1 X119.419 Y87.891 E14.34451
G1 X117.990 Y87.891 E14.51415
G1 X117.990 Y102.148 E16.20737
G1 X116.644 Y102.148 E16.36729
G1 X116.644 Y105.015 E16.70788
G1 X116.562 Y105.015 E16.71760
G1 X116.562 Y87.891 E18.75142
G1 X115.134 Y87.891 E18.92106
G1 X115.134 Y105.015 E20.95488
G1 X113.776 Y105.015 E21.11612
G1 X113.776 Y110.751 E21.79732
G1 X113.705 Y110.751 E21.80571
G1 X113.705 Y87.891 E24.52072
G1 X112.277 Y87.891 E24.69036
G1 X112.277 Y110.751 E27.40537
G1 X110.908 Y110.751 E27.56794
G1 X110.908 Y113.619 E27.90854
G1 X110.849 Y113.619 E27.91560
G1 X110.849 Y87.891 E30.97121
G1 X109.420 Y87.891 E31.14084
G1 X109.420 Y113.619 E34.19645
G1 X107.992 Y113.619 E34.36609
G1 X107.992 Y105.215 E35.36418
G1 X107.179 Y106.855 E35.58164
G1 X106.564 Y107.661 E35.70203
G1 X106.564 Y113.619 E36.40960
G1 X105.135 Y113.619 E36.57923
G1 X105.135 Y109.168 E37.10789
G1 X104.480 Y109.738 E37.21110
G1 X103.707 Y110.186 E37.31717
G1 X103.707 Y113.619 E37.72488
G1 X102.305 Y113.619 E37.89143
G1 X102.305 Y116.487 E38.23202
G1 X102.279 Y116.487 E38.23511
G1 X102.279 Y110.897 E38.89902
G1 X100.850 Y111.374 E39.07789
G1 X100.850 Y116.487 E39.68506
G1 X99.422 Y116.487 E39.85469
G1 X99.422 Y111.561 E40.43973
G1 X98.862 Y111.628 E40.50679
G1 X97.994 Y111.566 E40.61011
G1 X97.994 Y116.487 E41.19449
G1 X96.565 Y116.487 E41.36412
G1 X96.565 Y111.400 E41.96827
G1 X95.137 Y111.014 E42.14399
G1 X95.137 Y116.487 E42.79400
G1 X93.709 Y116.487 E42.96364
G1 X93.709 Y110.335 E43.69423
G1 X93.198 Y110.074 E43.76232
G1 X92.280 Y109.368 E43.89984
G1 X92.280 Y116.808 E44.78345
G1 E42.78345 F2400.00000
G92 E0
G1 X104.189 Y106.791 F7800.000
G1 E2.00000 F2400.00000
G1 F1800
G1 X103.053 Y107.784 E2.17916
G1 X101.745 Y108.533 E2.35825
G1 X100.312 Y109.016 E2.53779
G1 X98.819 Y109.209 E2.71661
G1 X97.313 Y109.105 E2.89586
G1 X95.857 Y108.711 E3.07507
G1 X94.505 Y108.038 E3.25443
G1 X93.311 Y107.118 E3.43341
G1 X92.320 Y105.981 E3.61261
G1 X91.567 Y104.672 E3.79183
G1 X91.088 Y103.245 E3.97066
G1 X90.896 Y101.746 E4.15020
G1 X90.997 Y100.241 E4.32928
G1 X91.393 Y98.785 E4.50848
G1 X92.062 Y97.433 E4.68766
G1 X92.986 Y96.239 E4.86697
G1 X94.122 Y95.247 E5.04609
G1 X95.432 Y94.496 E5.22537
G1 X96.862 Y94.015 E5.40459
G1 X98.357 Y93.821 E5.58366
G1 X99.863 Y93.924 E5.76288
G1 X101.318 Y94.319 E5.94200
G1 X102.668 Y94.989 E6.12101
G1 X103.864 Y95.912 E6.30040
G1 X104.856 Y97.048 E6.47954
G1 X105.607 Y98.357 E6.65878
G1 X106.087 Y99.786 E6.83784
G1 X106.280 Y101.283 E7.01707
G1 X106.178 Y102.789 E7.19635
G1 X105.783 Y104.244 E7.37544
G1 X105.112 Y105.597 E7.55477
G1 X104.226 Y106.744 E7.72685
G1 X104.659 Y107.329 F7800.000
G1 F1800
G1 X103.470 Y108.368 E7.91444
G1 X102.039 Y109.187 E8.11023
G1 X100.474 Y109.715 E8.30641
G1 X98.840 Y109.927 E8.50202
G1 X97.194 Y109.812 E8.69797
G1 X95.602 Y109.382 E8.89390
G1 X94.124 Y108.646 E9.08995
G1 X92.819 Y107.641 E9.28561
G1 X91.735 Y106.397 E9.48152
G1 X90.913 Y104.967 E9.67745
G1 X90.389 Y103.406 E9.87306
G1 X90.179 Y101.767 E10.06924
G1 X90.290 Y100.122 E10.26503
G1 X90.722 Y98.531 E10.46093
G1 X91.454 Y97.052 E10.65683
G1 X92.464 Y95.747 E10.85286
G1 X93.706 Y94.662 E11.04866
G1 X95.137 Y93.841 E11.24469
G1 X96.701 Y93.316 E11.44058
G1 X98.335 Y93.104 E11.63633
G1 X99.982 Y93.216 E11.83232
G1 X101.573 Y93.648 E12.02815
G1 X103.049 Y94.381 E12.22384
G1 X104.356 Y95.389 E12.41991
G1 X105.441 Y96.631 E12.61576
G1 X106.262 Y98.063 E12.81178
G1 X106.786 Y99.626 E13.00752
G1 X106.998 Y101.261 E13.20341
G1 X106.886 Y102.908 E13.39944
G1 X106.454 Y104.499 E13.59522
G1 X105.721 Y105.978 E13.79126
G1 X104.704 Y107.290 E13.98832
G1 X105.129 Y107.867 F7800.000
G1 F1800
G1 X103.886 Y108.953 E14.18433
G1 X102.333 Y109.842 E14.39684
G1 X100.635 Y110.414 E14.60966
G1 X98.862 Y110.644 E14.82204
G1 X97.075 Y110.520 E15.03471
G1 X95.347 Y110.053 E15.24736
G1 X93.744 Y109.254 E15.46009
G1 X92.327 Y108.164 E15.67243
G1 X91.151 Y106.814 E15.88506
G1 X90.259 Y105.262 E16.09769
G1 X89.690 Y103.566 E16.31008
G1 X89.462 Y101.789 E16.52290
G1 X89.582 Y100.004 E16.73540
G1 X90.051 Y98.276 E16.94800
G1 X90.846 Y96.672 E17.16062
G1 X91.941 Y95.255 E17.37338
G1 X93.289 Y94.078 E17.58586
G1 X94.843 Y93.187 E17.79863
G1 X96.540 Y92.617 E18.01118
G1 X98.314 Y92.387 E18.22362
G1 X100.101 Y92.508 E18.43638
G1 X101.828 Y92.977 E18.64891
G1 X103.430 Y93.772 E18.86128
G1 X104.848 Y94.867 E19.07404
G1 X106.025 Y96.215 E19.28661
G1 X106.916 Y97.769 E19.49939
G1 X107.486 Y99.465 E19.71182
G1 X107.715 Y101.240 E19.92438
G1 X107.593 Y103.027 E20.13715
G1 X107.125 Y104.753 E20.34962
G1 X106.329 Y106.359 E20.56238
G1 X105.234 Y107.775 E20.77500
G1 X105.174 Y107.827 E20.78445
G1 X104.743 Y107.761 F7800.000
G1 E18.78445 F2400.00000
G92 E0
G1 X105.807 Y99.627 F7800.000
G1 E2.00000 F2400.00000
G1 F1800
G1 X100.956 Y94.776 E2.81644
G1 X99.774 Y94.455 E2.96230
G1 X99.612 Y94.444 E2.98157
G1 X105.635 Y100.466 E3.99519
G1 X105.742 Y101.299 E4.09518
G1 X105.724 Y101.568 E4.12717
G1 X98.526 Y94.370 E5.33860
G1 X98.374 Y94.359 E5.35679
G1 X97.604 Y94.459 E5.44920
G1 X105.660 Y102.515 E6.80507
G1 X105.647 Y102.700 E6.82711
G1 X105.473 Y103.341 E6.90612
G1 X96.750 Y94.618 E8.37423
G1 X95.993 Y94.872 E8.46933
G1 X105.245 Y104.124 E10.02645
G1 X104.909 Y104.801 E10.11633
G1 X95.298 Y95.190 E11.73390
G1 X94.655 Y95.559 E11.82214
G1 X104.548 Y105.452 E13.48717
G1 X104.107 Y106.022 E13.57303
G1 X94.079 Y95.995 E15.26067
G1 X93.539 Y96.467 E15.34603
G1 X103.636 Y106.564 E17.04536
G1 X103.096 Y107.035 E17.13072
G1 X93.068 Y97.008 E18.81838
G1 X92.627 Y97.579 E18.90424
G1 X102.520 Y107.472 E20.56928
G1 X101.876 Y107.840 E20.65754
G1 X92.266 Y98.230 E22.27505
G1 X91.930 Y98.906 E22.36494
G1 X101.181 Y108.157 E23.92191
G1 X100.425 Y108.413 E24.01697
G1 X91.702 Y99.690 E25.48500
G1 X91.528 Y100.330 E25.56394
G1 X91.516 Y100.516 E25.58607
G1 X99.572 Y108.572 E26.94190
G1 X98.803 Y108.671 E27.03414
G1 X98.648 Y108.660 E27.05257
G1 X91.452 Y101.464 E28.26378
G1 X91.434 Y101.729 E28.29544
G1 X91.541 Y102.565 E28.39574
G1 X97.561 Y108.585 E29.40889
G1 X97.403 Y108.574 E29.42778
G1 X96.218 Y108.254 E29.57383
G1 X91.368 Y103.404 E30.39014
G1 Z0.550 F7800.000
M140 S55 ; set bed temperature
G1 X104.615 Y107.279
G1 F3600
G1 X103.431 Y108.313 E30.43112
G1 X102.011 Y109.127 E30.47374
G1 X100.459 Y109.650 E30.51643
G1 X98.838 Y109.860 E30.55901
G1 X97.206 Y109.748 E30.60165
G1 X95.626 Y109.320 E30.64429
G1 X94.159 Y108.590 E30.68698
G1 X92.865 Y107.592 E30.72957
G1 X91.788 Y106.359 E30.77222
G1 X90.974 Y104.940 E30.81485
G1 X90.454 Y103.391 E30.85743
G1 X90.245 Y101.766 E30.90012
G1 X90.356 Y100.133 E30.94274
G1 X90.785 Y98.553 E30.98541
G1 X91.511 Y97.088 E31.02801
G1 X92.512 Y95.793 E31.07068
G1 X93.744 Y94.717 E31.11328
G1 X95.164 Y93.903 E31.15593
G1 X96.716 Y93.381 E31.19859
G1 X98.337 Y93.171 E31.24119
G1 X99.970 Y93.282 E31.28382
G1 X101.549 Y93.711 E31.32646
G1 X103.013 Y94.438 E31.36906
G1 X104.310 Y95.438 E31.41174
G1 X105.387 Y96.671 E31.45438
G1 X106.201 Y98.091 E31.49702
G1 X106.721 Y99.640 E31.53961
G1 X106.930 Y101.264 E31.58228
G1 X106.819 Y102.897 E31.62493
G1 X106.391 Y104.475 E31.66753
G1 X105.664 Y105.943 E31.71019
G1 X104.660 Y107.239 E31.75292
G1 X104.890 Y107.593 F7800.000
G1 F3600
G1 X103.674 Y108.655 E31.79498
G1 X102.184 Y109.509 E31.83975
G1 X100.553 Y110.059 E31.88457
G1 X98.851 Y110.280 E31.92930
G1 X97.136 Y110.162 E31.97409
G1 X95.477 Y109.712 E32.01888
G1 X93.937 Y108.946 E32.06371
G1 X92.577 Y107.898 E32.10843
G1 X91.446 Y106.602 E32.15323
G1 X90.591 Y105.112 E32.19801
G1 X90.045 Y103.485 E32.24274
G1 X89.826 Y101.778 E32.28757
G1 X89.942 Y100.064 E32.33234
G1 X90.393 Y98.404 E32.37715
G1 X91.155 Y96.865 E32.42189
G1 X92.207 Y95.505 E32.46671
G1 X93.501 Y94.376 E32.51145
G1 X94.992 Y93.520 E32.55624
G1 X96.622 Y92.972 E32.60105
G1 X98.324 Y92.751 E32.64579
G1 X100.039 Y92.868 E32.69057
G1 X101.698 Y93.318 E32.73536
G1 X103.236 Y94.082 E32.78009
G1 X104.598 Y95.133 E32.82492
G1 X105.729 Y96.427 E32.86970
G1 X106.584 Y97.918 E32.91450
G1 X107.130 Y99.546 E32.95924
G1 X107.350 Y101.252 E33.00404
G1 X107.233 Y102.967 E33.04883
G1 X106.784 Y104.624 E33.09357
G1 X106.020 Y106.165 E33.13839
G1 X104.935 Y107.554 E33.18430
G1 X105.165 Y107.908 F7800.000
G1 F1800
G1 X103.918 Y108.997 E33.22744
G1 X102.356 Y109.892 E33.27435
G1 X100.648 Y110.468 E33.32132
G1 X98.863 Y110.699 E33.36820
G1 X97.066 Y110.576 E33.41514
G1 X95.328 Y110.105 E33.46208
G1 X93.714 Y109.301 E33.50904
G1 X92.289 Y108.204 E33.55590
G1 X91.104 Y106.846 E33.60285
G1 X90.208 Y105.284 E33.64977
G1 X89.635 Y103.579 E33.69666
G1 X89.406 Y101.791 E33.74362
G1 X89.528 Y99.994 E33.79054
G1 X90.000 Y98.255 E33.83749
G1 X90.799 Y96.642 E33.88438
G1 X91.901 Y95.217 E33.93134
G1 X93.257 Y94.034 E33.97822
G1 X94.820 Y93.137 E34.02516
G1 X96.527 Y92.563 E34.07211
G1 X98.312 Y92.331 E34.11899
G1 X100.109 Y92.454 E34.16592
G1 X101.847 Y92.926 E34.21287
G1 X103.458 Y93.726 E34.25973
G1 X104.886 Y94.827 E34.30670
G1 X106.071 Y96.183 E34.35363
G1 X106.967 Y97.746 E34.40058
G1 X107.540 Y99.452 E34.44746
G1 X107.769 Y101.239 E34.49440
G1 X107.647 Y103.036 E34.54134
G1 X107.176 Y104.773 E34.58822
G1 X106.376 Y106.388 E34.63518
G1 X105.275 Y107.812 E34.68208
G1 X105.210 Y107.868 E34.68433
G1 X104.779 Y107.801 F7800.000
G1 X105.492 Y105.961
G1 F1200
G1 X103.087 Y108.366 E34.77392
G1 X101.784 Y109.071 F7800.000
G1 F1200
G1 X105.709 Y105.146 E34.92014
G1 X106.097 Y104.364 E34.94314
G1 X106.172 Y104.086 E34.95072
G1 X101.183 Y109.075 E35.13660
G1 X100.388 Y109.343 E35.15869
G1 X100.307 Y109.354 E35.16084
G1 X106.394 Y103.266 E35.38763
G1 X106.509 Y102.845 E35.39912
G1 X106.530 Y102.533 E35.40736
G1 X99.620 Y109.443 E35.66476
G1 X98.934 Y109.532 E35.68299
G1 X106.573 Y101.892 E35.96759
G1 X106.613 Y101.255 E35.98441
G1 X98.356 Y109.513 E36.29204
G1 X97.797 Y109.474 E36.30680
G1 X106.545 Y100.726 E36.63272
G1 X106.477 Y100.197 E36.64678
G1 X97.241 Y109.433 E36.99087
G1 X96.771 Y109.305 E37.00370
G1 X106.402 Y99.674 E37.36252
G1 X106.252 Y99.227 E37.37494
G1 X96.301 Y109.178 E37.74568
G1 X95.831 Y109.051 E37.75850
G1 X106.102 Y98.780 E38.14115
G1 X105.952 Y98.332 E38.15358
G1 X95.418 Y108.866 E38.54602
G1 X95.019 Y108.668 E38.55776
G1 X105.751 Y97.936 E38.95758
G1 X105.533 Y97.556 E38.96910
G1 X94.620 Y108.469 E39.37567
G1 X94.326 Y108.323 E39.38432
G1 X94.238 Y108.254 E39.38727
G1 X105.316 Y97.176 E39.79998
G1 X105.089 Y96.806 E39.81143
G1 X93.900 Y107.994 E40.22826
G1 X93.563 Y107.734 E40.23948
G1 X104.810 Y96.487 E40.65850
G1 X104.532 Y96.168 E40.66965
G1 X93.225 Y107.475 E41.09087
G1 X93.080 Y107.363 E41.09569
G1 X92.921 Y107.181 E41.10206
G1 X104.253 Y95.849 E41.52422
G1 X104.095 Y95.668 E41.53056
G1 X103.949 Y95.556 E41.53540
G1 X92.643 Y106.862 E41.95661
G1 X92.365 Y106.543 E41.96776
G1 X103.612 Y95.296 E42.38677
G1 X103.275 Y95.036 E42.39800
G1 X92.086 Y106.224 E42.81481
G1 X91.859 Y105.853 E42.82626
G1 X102.937 Y94.776 E43.23896
G1 X102.846 Y94.705 E43.24200
G1 X102.555 Y94.560 E43.25056
G1 X91.642 Y105.474 E43.65714
G1 X91.424 Y105.094 E43.66866
G1 X102.156 Y94.362 E44.06849
G1 X101.757 Y94.164 E44.08023
G1 X91.223 Y104.698 E44.47266
G1 X91.073 Y104.250 E44.48509
G1 X101.344 Y93.980 E44.86772
G1 X100.874 Y93.852 E44.88055
G1 X90.923 Y103.803 E45.25127
G1 X90.773 Y103.356 E45.26370
G1 X100.404 Y93.724 E45.62252
G1 X99.934 Y93.597 E45.63534
G1 X90.698 Y102.833 E45.97944
G1 X90.630 Y102.303 E45.99350
G1 X99.378 Y93.555 E46.31940
G1 X98.819 Y93.517 E46.33417
G1 X90.562 Y101.774 E46.64177
G1 X90.602 Y101.137 E46.65858
G1 X98.240 Y93.499 E46.94313
G1 X97.553 Y93.588 E46.96136
G1 X90.645 Y100.496 E47.21871
G1 X90.667 Y100.186 E47.22691
G1 X90.781 Y99.763 E47.23845
G1 X96.867 Y93.677 E47.46517
G1 X96.787 Y93.687 E47.46730
G1 X95.991 Y93.955 E47.48941
G1 X91.004 Y98.942 E47.67521
G1 X91.080 Y98.665 E47.68279
G1 X91.467 Y97.882 E47.70578
G1 X95.390 Y93.959 E47.85193
G1 X94.086 Y94.666 F7800.000
G1 F1200
G1 X91.685 Y97.067 E47.94137
G1 Z0.679 F7800.000
G1 E45.94137 F2400.00000
G92 E0
G1 X87.836 Y99.321 F7800.000
G1 E2.00000 F2400.00000
G1 F2487
G1 X85.309 Y99.321 E2.09956
G1 X87.991 Y102.173 F7800.000
G1 F2487
G1 X87.991 Y96.469 E2.32429
G1 X85.155 Y96.469 E2.43603
G1 X85.155 Y102.173 E2.66076
G1 X87.991 Y102.173 E2.77249
G1 E0.77249 F2400.00000
G92 E0
G1 X94.171 Y110.391 F7800.000
G1 E2.00000 F2400.00000
G1 F2487
G1 X93.758 Y110.184 E2.01817
G1 X93.758 Y113.644 E2.15449
G1 X99.462 Y113.644 E2.37922
G1 X99.462 Y111.397 E2.46775
G1 X98.865 Y111.471 E2.49146
G1 X96.919 Y111.332 E2.56834
G1 X95.073 Y110.834 E2.64366
G1 X94.171 Y110.391 E2.68328
G1 X93.913 Y110.792 F7800.000
G1 F2487
G1 X94.632 Y110.792 E2.71162
G1 E0.71162 F2400.00000
G92 E0
G1 X107.911 Y107.924 F7800.000
G1 E2.00000 F2400.00000
G1 F2487
G1 X106.566 Y107.924 E2.05298
G1 X107.321 Y106.935 E2.10202
G1 X108.184 Y105.195 E2.17855
G1 X108.229 Y105.056 E2.18428
G1 X110.613 Y105.056 E2.27822
