; generated by PrusaSlicer 2.1.1+ on 2021-04-06 at 10:10:32 UTC

; 

; external perimeters extrusion width = 0.45mm
; perimeters extrusion width = 0.45mm
; infill extrusion width = 0.45mm
; solid infill extrusion width = 0.45mm
; top infill extrusion width = 0.40mm
; support material extrusion width = 0.40mm
; first layer extrusion width = 0.80mm

M107
M190 S60 ; set bed temperature and wait for it to be reached
M104 S200 ; set temperature
G28 ; home all axes
G1 Z5 F5000 ; lift nozzle
M109 S200 ; set temperature and wait for it to be reached
G21 ; set units to millimeters
G90 ; use absolute coordinates
M82 ; use absolute distances for extrusion
G92 E0
; Filament gcode
G1 Z0.400 F7800.000
G1 E-2.00000 F2400.00000
G92 E0
G1 X77.537 Y86.051 F7800.000
G1 E2.00000 F2400.00000
G1 F1800
G1 X78.295 Y85.405 E2.11825
G1 X79.144 Y84.886 E2.23649
G1 X80.064 Y84.505 E2.35474
G1 X81.144 Y84.257 E2.48625
G1 X100.939 Y81.579 E4.85865
G1 X104.194 Y81.286 E5.24684
G1 X107.839 Y81.645 E5.68180
G1 X111.350 Y82.710 E6.11750
G1 X114.585 Y84.439 E6.55319
G1 X117.421 Y86.766 E6.98889
G1 X119.749 Y89.602 E7.42459
G1 X121.478 Y92.837 E7.86028
G1 X122.543 Y96.348 E8.29598
G1 X122.903 Y99.999 E8.73168
G1 X122.544 Y103.650 E9.16737
G1 X121.479 Y107.160 E9.60307
G1 X119.750 Y110.396 E10.03877
G1 X117.423 Y113.232 E10.47447
G1 X114.587 Y115.559 E10.91016
G1 X111.352 Y117.289 E11.34586
G1 X107.841 Y118.354 E11.78156
G1 X104.190 Y118.714 E12.21725
G1 X100.533 Y118.353 E12.65368
G1 X96.994 Y117.275 E13.09306
G1 X83.400 Y110.433 E14.90054
G1 X82.608 Y109.939 E15.01141
G1 X81.898 Y109.334 E15.12228
G1 X78.939 Y106.374 E15.61929
G1 X78.394 Y105.735 E15.71909
G1 X76.464 Y102.474 E16.16901
G1 X75.992 Y101.398 E16.30863
G1 X75.765 Y100.499 E16.41876
G1 X75.671 Y99.582 E16.52816
G1 X75.669 Y90.552 E17.60064
G1 X75.747 Y89.560 E17.71888
G1 X75.981 Y88.585 E17.83786
G1 X76.362 Y87.666 E17.95611
G1 X76.886 Y86.812 E18.07509
G1 X77.498 Y86.096 E18.18695
G1 E16.18695 F2400.00000
G92 E0
G1 X82.026 Y99.395 F7800.000
G1 E2.00000 F2400.00000
G1 F1800
G1 X82.026 Y90.552 E3.05020
G1 X83.454 Y90.552 E3.21984
G1 X83.454 Y99.073 E4.23187
G1 X83.495 Y99.073 E4.23675
G1 X83.495 Y101.941 E4.57734
G1 X84.882 Y101.941 E4.74210
G1 X84.882 Y90.552 E6.09473
G1 X86.311 Y90.552 E6.26437
G1 X86.311 Y101.941 E7.61700
G1 X86.363 Y101.941 E7.62320
G1 X86.363 Y104.809 E7.96380
G1 X87.739 Y104.809 E8.12723
G1 X87.739 Y90.552 E9.82045
G1 X89.167 Y90.552 E9.99009
G1 X89.167 Y104.809 E11.68332
G1 X90.596 Y104.809 E11.85295
G1 X90.596 Y90.552 E13.54618
G1 X92.016 Y90.552 E13.71491
G1 X92.024 Y95.735 E14.33050
G1 X91.493 Y97.504 E14.54979
G1 X91.250 Y100.029 E14.85103
G1 X91.493 Y102.496 E15.14551
G1 X92.024 Y104.265 E15.36480
G1 X92.024 Y105.130 E15.46761
G1 E13.46761 F2400.00000
G92 E0
G1 X110.034 Y108.747 F7800.000
G1 E2.00000 F2400.00000
G1 F1800
G1 X108.215 Y109.719 E2.24492
G1 X106.241 Y110.317 E2.48984
G1 X104.189 Y110.520 E2.73475
G1 X102.137 Y110.317 E2.97967
G1 X100.163 Y109.719 E3.22459
G1 X98.345 Y108.747 E3.46951
G1 X96.751 Y107.438 E3.71442
G1 X95.442 Y105.844 E3.95934
G1 X94.470 Y104.026 E4.20426
G1 X93.872 Y102.052 E4.44918
G1 X93.670 Y100.000 E4.69410
G1 X93.872 Y97.948 E4.93901
G1 X94.470 Y95.974 E5.18393
G1 X95.442 Y94.156 E5.42885
G1 X96.751 Y92.562 E5.67377
G1 X98.345 Y91.253 E5.91869
G1 X100.163 Y90.281 E6.16360
G1 X102.137 Y89.683 E6.40852
G1 X104.189 Y89.480 E6.65344
G1 X106.241 Y89.683 E6.89836
G1 X108.215 Y90.281 E7.14328
G1 X110.034 Y91.253 E7.38819
G1 X111.628 Y92.562 E7.63311
G1 X112.936 Y94.156 E7.87803
G1 X113.908 Y95.974 E8.12295
G1 X114.507 Y97.948 E8.36787
G1 X114.709 Y100.000 E8.61278
G1 X114.507 Y102.052 E8.85770
G1 X113.908 Y104.026 E9.10262
G1 X112.936 Y105.844 E9.34754
G1 X111.628 Y107.438 E9.59246
G1 X110.080 Y108.709 E9.83025
G1 X110.370 Y109.377 F7800.000
G1 F1800
G1 X108.489 Y110.382 E10.08352
G1 X106.381 Y111.021 E10.34515
G1 X104.189 Y111.237 E10.60677
G1 X101.997 Y111.021 E10.86840
G1 X99.889 Y110.382 E11.13002
G1 X97.946 Y109.343 E11.39165
G1 X96.243 Y107.946 E11.65327
G1 X94.846 Y106.243 E11.91490
G1 X93.807 Y104.300 E12.17652
G1 X93.168 Y102.192 E12.43815
G1 X92.952 Y100.000 E12.69977
G1 X93.168 Y97.808 E12.96140
G1 X93.807 Y95.700 E13.22302
G1 X94.846 Y93.757 E13.48465
G1 X96.243 Y92.054 E13.74628
G1 X97.946 Y90.657 E14.00790
G1 X99.889 Y89.618 E14.26953
G1 X101.997 Y88.979 E14.53115
G1 X104.189 Y88.763 E14.79278
G1 X106.381 Y88.979 E15.05440
G1 X108.489 Y89.618 E15.31603
G1 X110.432 Y90.657 E15.57765
G1 X112.135 Y92.054 E15.83928
G1 X113.533 Y93.757 E16.10091
G1 X114.571 Y95.700 E16.36253
G1 X115.210 Y97.808 E16.62416
G1 X115.426 Y100.000 E16.88578
G1 X115.210 Y102.192 E17.14741
G1 X114.571 Y104.300 E17.40903
G1 X113.533 Y106.243 E17.67066
G1 X112.135 Y107.946 E17.93228
G1 X110.423 Y109.348 E18.19511
G1 X110.707 Y110.006 F7800.000
G1 F1800
G1 X108.764 Y111.045 E18.45674
G1 X106.521 Y111.725 E18.73507
G1 X104.189 Y111.955 E19.01340
G1 X101.857 Y111.725 E19.29174
G1 X99.614 Y111.045 E19.57007
G1 X97.547 Y109.940 E19.84840
G1 X95.736 Y108.453 E20.12674
G1 X94.249 Y106.642 E20.40507
G1 X93.144 Y104.575 E20.68340
G1 X92.464 Y102.332 E20.96174
G1 X92.234 Y100.000 E21.24007
G1 X92.464 Y97.668 E21.51840
G1 X93.144 Y95.425 E21.79673
G1 X94.249 Y93.358 E22.07507
G1 X95.736 Y91.547 E22.35340
G1 X97.547 Y90.060 E22.63173
G1 X99.614 Y88.955 E22.91007
G1 X101.857 Y88.275 E23.18840
G1 X104.189 Y88.045 E23.46673
G1 X106.521 Y88.275 E23.74507
G1 X108.764 Y88.955 E24.02340
G1 X110.831 Y90.060 E24.30173
G1 X112.643 Y91.547 E24.58007
G1 X114.129 Y93.358 E24.85840
G1 X115.234 Y95.425 E25.13673
G1 X115.914 Y97.668 E25.41507
G1 X116.144 Y100.000 E25.69340
G1 X115.914 Y102.332 E25.97173
G1 X115.234 Y104.575 E26.25006
G1 X114.129 Y106.642 E26.52840
G1 X112.642 Y108.453 E26.80673
G1 X110.831 Y109.940 E27.08506
G1 X110.760 Y109.978 E27.09465
G1 X110.355 Y109.817 F7800.000
G1 E25.09465 F2400.00000
G92 E0
G1 X100.830 Y109.697 F7800.000
G1 E2.00000 F2400.00000
G1 F1800
G1 X94.985 Y103.852 E3.01524
G1 X94.519 Y102.342 E3.20935
G1 X101.847 Y109.670 E4.48219
G1 X102.242 Y109.790 E4.53288
G1 X103.095 Y109.874 E4.63822
G1 X94.315 Y101.094 E6.16331
G1 X94.213 Y99.947 E6.30476
G1 X104.242 Y109.976 E8.04690
G1 X105.193 Y109.883 E8.16426
G1 X94.307 Y98.996 E10.05531
G1 X94.401 Y98.046 E10.17253
G1 X106.143 Y109.788 E12.21206
G1 X106.944 Y109.545 E12.31493
G1 X94.645 Y97.245 E14.45144
G1 X94.888 Y96.443 E14.55430
G1 X107.746 Y109.301 E16.78780
G1 X108.009 Y109.222 E16.82157
G1 X108.466 Y108.977 E16.88524
G1 X95.212 Y95.723 E19.18755
G1 X95.576 Y95.042 E19.28235
G1 X109.147 Y108.613 E21.63969
G1 X109.735 Y108.299 E21.72156
G1 X109.813 Y108.235 E21.73399
G1 X95.954 Y94.376 E24.14130
G1 X96.425 Y93.803 E24.23246
G1 X110.387 Y107.764 E26.65764
G1 X110.960 Y107.293 E26.74880
G1 X96.896 Y93.229 E29.19185
G1 X97.131 Y92.942 E29.23743
G1 X97.418 Y92.707 E29.28301
G1 X111.482 Y106.771 E31.72606
G1 X111.953 Y106.197 E31.81721
G1 X97.992 Y92.236 E34.24240
G1 X98.565 Y91.765 E34.33355
G1 X112.424 Y105.624 E36.74087
G1 X112.488 Y105.545 E36.75331
G1 X112.803 Y104.958 E36.83517
G1 X99.232 Y91.387 E39.19252
G1 X99.912 Y91.023 E39.28732
G1 X113.166 Y104.277 E41.58963
G1 X113.411 Y103.820 E41.65331
G1 X113.491 Y103.557 E41.68708
G1 X100.633 Y90.699 E43.92058
G1 X101.434 Y90.455 E44.02344
G1 X113.734 Y102.755 E46.15996
G1 X113.977 Y101.954 E46.26283
G1 X102.235 Y90.212 E48.30237
G1 X103.189 Y90.121 E48.42003
G1 X114.072 Y101.004 E50.31041
G1 X114.165 Y100.053 E50.42776
G1 X104.144 Y90.032 E52.16857
G1 X104.235 Y90.023 E52.17979
G1 X105.283 Y90.126 E52.30917
G1 X114.063 Y98.906 E53.83430
G1 X113.979 Y98.053 E53.93965
G1 X113.859 Y97.658 E53.99032
G1 X106.531 Y90.330 E55.26319
G1 X108.041 Y90.796 E55.45729
G1 X113.886 Y96.641 E56.47259
G1 E54.47259 F2400.00000
G92 E0
G1 X112.977 Y94.687 F7800.000
G1 E2.00000 F2400.00000
G1 F1800
G1 X109.502 Y91.212 E2.60354
G1 E0.60354 F2400.00000
G92 E0
G1 X95.402 Y105.313 F7800.000
G1 E2.00000 F2400.00000
G1 F1800
G1 X98.876 Y108.788 E2.60347
G1 Z0.550 F7800.000
M140 S55 ; set bed temperature
G1 X110.395 Y109.424
G1 F3600
G1 X108.510 Y110.432 E2.65917
G1 X106.392 Y111.074 E2.71684
G1 X104.189 Y111.291 E2.77451
G1 X101.986 Y111.074 E2.83219
G1 X99.868 Y110.432 E2.88986
G1 X97.916 Y109.388 E2.94753
G1 X96.205 Y107.984 E3.00520
G1 X94.801 Y106.273 E3.06288
G1 X93.758 Y104.321 E3.12055
G1 X93.115 Y102.203 E3.17822
G1 X92.898 Y100.000 E3.23589
G1 X93.115 Y97.797 E3.29357
G1 X93.758 Y95.679 E3.35124
G1 X94.801 Y93.727 E3.40891
G1 X96.205 Y92.016 E3.46659
G1 X97.916 Y90.612 E3.52426
G1 X99.868 Y89.568 E3.58193
G1 X101.986 Y88.926 E3.63960
G1 X104.189 Y88.709 E3.69728
G1 X106.392 Y88.926 E3.75495
G1 X108.510 Y89.568 E3.81262
G1 X110.462 Y90.612 E3.87029
G1 X112.173 Y92.016 E3.92797
G1 X113.577 Y93.727 E3.98564
G1 X114.621 Y95.679 E4.04331
G1 X115.263 Y97.797 E4.10098
G1 X115.480 Y100.000 E4.15866
G1 X115.263 Y102.203 E4.21633
G1 X114.621 Y104.321 E4.27400
G1 X113.577 Y106.273 E4.33167
G1 X112.173 Y107.984 E4.38935
G1 X110.448 Y109.396 E4.44742
G1 X110.592 Y109.792 F7800.000
G1 F3600
G1 X108.671 Y110.819 E4.50419
G1 X106.474 Y111.486 E4.56401
G1 X104.189 Y111.711 E4.62383
G1 X101.904 Y111.486 E4.68364
G1 X99.708 Y110.819 E4.74346
G1 X97.683 Y109.737 E4.80328
G1 X95.908 Y108.281 E4.86309
G1 X94.452 Y106.506 E4.92291
G1 X93.370 Y104.482 E4.98273
G1 X92.703 Y102.285 E5.04254
G1 X92.478 Y100.000 E5.10236
G1 X92.703 Y97.715 E5.16218
G1 X93.370 Y95.518 E5.22200
G1 X94.452 Y93.494 E5.28181
G1 X95.908 Y91.719 E5.34163
G1 X97.683 Y90.263 E5.40145
G1 X99.708 Y89.181 E5.46126
G1 X101.904 Y88.514 E5.52108
G1 X104.189 Y88.289 E5.58090
G1 X106.474 Y88.514 E5.64071
G1 X108.671 Y89.181 E5.70053
G1 X110.695 Y90.263 E5.76035
G1 X112.470 Y91.719 E5.82017
G1 X113.926 Y93.494 E5.87998
G1 X115.009 Y95.518 E5.93980
G1 X115.675 Y97.715 E5.99962
G1 X115.900 Y100.000 E6.05943
G1 X115.675 Y102.285 E6.11925
G1 X115.009 Y104.482 E6.17907
G1 X113.926 Y106.506 E6.23888
G1 X112.470 Y108.281 E6.29870
G1 X110.645 Y109.764 E6.35997
G1 X110.789 Y110.161 F7800.000
G1 F1800
G1 X108.831 Y111.207 E6.41782
G1 X106.556 Y111.898 E6.47978
G1 X104.189 Y112.131 E6.54174
G1 X101.823 Y111.898 E6.60370
G1 X99.547 Y111.207 E6.66566
G1 X97.450 Y110.086 E6.72762
G1 X95.611 Y108.578 E6.78958
G1 X94.103 Y106.739 E6.85155
G1 X92.982 Y104.642 E6.91351
G1 X92.292 Y102.367 E6.97547
G1 X92.058 Y100.000 E7.03743
G1 X92.292 Y97.633 E7.09939
G1 X92.982 Y95.358 E7.16135
G1 X94.103 Y93.261 E7.22331
G1 X95.611 Y91.422 E7.28527
G1 X97.450 Y89.914 E7.34724
G1 X99.547 Y88.793 E7.40920
G1 X101.823 Y88.102 E7.47116
G1 X104.189 Y87.869 E7.53312
G1 X106.556 Y88.102 E7.59508
G1 X108.831 Y88.793 E7.65704
G1 X110.929 Y89.914 E7.71900
G1 X112.767 Y91.422 E7.78097
G1 X114.275 Y93.261 E7.84293
G1 X115.396 Y95.358 E7.90489
G1 X116.087 Y97.633 E7.96685
G1 X116.320 Y100.000 E8.02881
G1 X116.087 Y102.367 E8.09077
G1 X115.396 Y104.642 E8.15273
G1 X114.275 Y106.739 E8.21470
G1 X112.767 Y108.578 E8.27666
G1 X110.929 Y110.086 E8.33862
G1 X110.842 Y110.132 E8.34117
G1 X110.437 Y109.971 F7800.000
G1 X110.585 Y109.125
G1 F1200
G1 X113.315 Y106.396 E8.44280
G1 X114.118 Y104.995 F7800.000
G1 F1200
G1 X109.184 Y109.929 E8.62650
G1 X108.087 Y110.429 F7800.000
G1 F1200
G1 X114.336 Y104.180 E8.85912
G1 X114.596 Y103.323 E8.88270
G1 X107.513 Y110.407 E9.14640
G1 X106.656 Y110.667 E9.16997
G1 X114.856 Y102.466 E9.47525
G1 X114.954 Y102.141 E9.48419
G1 X114.995 Y101.730 E9.49506
G1 X105.920 Y110.806 E9.83292
G1 X105.257 Y110.871 E9.85043
G1 X115.060 Y101.068 E10.21537
G1 X115.125 Y100.406 E10.23289
G1 X104.595 Y110.936 E10.62491
G1 X104.189 Y110.976 E10.63565
G1 X103.979 Y110.955 E10.64121
G1 X115.145 Y99.790 E11.05688
G1 X115.091 Y99.246 E11.07126
G1 X103.436 Y110.902 E11.50518
G1 X102.892 Y110.848 E11.51955
G1 X115.038 Y98.703 E11.97171
G1 X114.984 Y98.159 E11.98608
G1 X102.349 Y110.795 E12.45647
G1 X102.048 Y110.765 E12.46443
G1 X101.843 Y110.703 E12.47006
G1 X114.892 Y97.654 E12.95585
G1 X114.753 Y97.196 E12.96845
G1 X101.385 Y110.564 E13.46612
G1 X100.927 Y110.425 E13.47872
G1 X114.615 Y96.738 E13.98827
G1 X114.476 Y96.280 E14.00087
G1 X100.469 Y110.286 E14.52230
G1 X100.011 Y110.147 E14.53490
G1 X114.337 Y95.822 E15.06821
G1 X114.330 Y95.800 E15.06883
G1 X114.132 Y95.430 E15.07987
G1 X99.619 Y109.943 E15.62017
G1 X99.230 Y109.735 E15.63178
G1 X113.924 Y95.041 E16.17883
G1 X113.716 Y94.652 E16.19044
G1 X98.841 Y109.527 E16.74423
G1 X98.452 Y109.319 E16.75584
G1 X113.508 Y94.263 E17.31636
G1 X113.296 Y93.878 E17.32793
G1 X98.067 Y109.107 E17.89487
G1 X97.739 Y108.838 E17.90603
G1 X113.027 Y93.550 E18.47516
G1 X112.758 Y93.222 E18.48632
G1 X97.411 Y108.569 E19.05764
G1 X97.084 Y108.299 E19.06880
G1 X112.489 Y92.894 E19.64230
G1 X112.220 Y92.567 E19.65347
G1 X96.756 Y108.030 E20.22916
G1 X96.428 Y107.761 E20.24033
G1 X111.950 Y92.239 E20.81821
G1 X111.623 Y91.970 E20.82937
G1 X96.159 Y107.433 E21.40506
G1 X95.890 Y107.106 E21.41623
G1 X111.295 Y91.700 E21.98973
G1 X110.967 Y91.431 E22.00090
G1 X95.621 Y106.778 E22.57221
G1 X95.351 Y106.450 E22.58338
G1 X110.639 Y91.162 E23.15250
G1 X110.311 Y90.893 E23.16367
G1 X95.082 Y106.122 E23.73060
G1 X94.870 Y105.737 E23.74217
G1 X109.926 Y90.681 E24.30269
G1 X109.537 Y90.473 E24.31431
G1 X94.662 Y105.348 E24.86809
G1 X94.454 Y104.959 E24.87970
G1 X109.148 Y90.265 E25.42674
G1 X108.759 Y90.057 E25.43836
G1 X94.246 Y104.570 E25.97866
G1 X94.042 Y104.178 E25.99031
G1 X108.367 Y89.852 E26.52361
G1 X107.909 Y89.714 E26.53621
G1 X93.903 Y103.720 E27.05764
G1 X93.764 Y103.262 E27.07024
G1 X107.451 Y89.575 E27.57979
G1 X106.993 Y89.436 E27.59239
G1 X93.625 Y102.804 E28.09006
G1 X93.486 Y102.346 E28.10266
G1 X106.535 Y89.297 E28.58845
G1 X106.331 Y89.235 E28.59407
G1 X106.030 Y89.205 E28.60203
G1 X93.394 Y101.840 E29.07242
G1 X93.341 Y101.297 E29.08680
G1 X105.486 Y89.152 E29.53895
G1 X104.943 Y89.098 E29.55332
G1 X93.287 Y100.754 E29.98723
G1 X93.234 Y100.210 E30.00161
G1 X104.399 Y89.045 E30.41728
G1 X104.189 Y89.024 E30.42284
G1 X103.783 Y89.064 E30.43359
G1 X93.253 Y99.594 E30.82560
G1 X93.318 Y98.932 E30.84311
G1 X103.121 Y89.129 E31.20805
G1 X102.459 Y89.194 E31.22556
G1 X93.383 Y98.269 E31.56342
G1 X93.424 Y97.859 E31.57428
G1 X93.523 Y97.533 E31.58323
G1 X101.723 Y89.333 E31.88850
G1 X100.866 Y89.593 E31.91207
G1 X93.783 Y96.676 E32.17576
G1 X94.042 Y95.820 E32.19934
G1 X100.291 Y89.571 E32.43195
G1 X99.194 Y90.071 F7800.000
G1 F1200
G1 X94.260 Y95.005 E32.61564
G1 X95.064 Y93.604 F7800.000
G1 F1200
G1 X97.793 Y90.875 E32.71722
G1 Z0.695 F7800.000
G1 E30.71722 F2400.00000
G92 E0
G1 X89.174 Y96.263 F7800.000
G1 E2.00000 F2400.00000
G1 F600
G1 X89.174 Y93.395 E2.11834
G1 X83.470 Y93.395 E2.35369
G1 X83.470 Y96.231 E2.47070
G1 X86.338 Y96.231 E2.58904
G1 X86.338 Y99.098 E2.70738
G1 X89.206 Y99.098 E2.82571
G1 X89.206 Y101.966 E2.94405
G1 X91.599 Y101.966 E3.04281
G1 X91.407 Y99.979 E3.12518
G1 X91.649 Y97.527 E3.22686
G1 X92.028 Y96.263 E3.28133
G1 X89.174 Y96.263 E3.39912
G1 X89.021 Y96.247 F7800.000
G1 F600
G1 X86.657 Y96.247 E3.49666
G1 X86.657 Y98.780 E3.60119
G1 X89.524 Y98.780 E3.71953
G1 X89.524 Y99.114 E3.73334
G1 X91.339 Y99.114 E3.80821
G1 Z0.700 F7800.000
G1 E1.80821 F2400.00000
G92 E0
G1 X110.395 Y109.424 F7800.000
G1 E2.00000 F2400.00000
G1 F3600
G1 X108.510 Y110.432 E2.05570
G1 X106.392 Y111.074 E2.11337
G1 X104.189 Y111.291 E2.17105
G1 X101.986 Y111.074 E2.22872
G1 X99.868 Y110.432 E2.28639
G1 X97.916 Y109.388 E2.34406
G1 X96.205 Y107.984 E2.40174
G1 X94.801 Y106.273 E2.45941
G1 X93.758 Y104.321 E2.51708
G1 X93.115 Y102.203 E2.57475
G1 X92.898 Y100.000 E2.63243
G1 X93.115 Y97.797 E2.69010
G1 X93.758 Y95.679 E2.74777
G1 X94.801 Y93.727 E2.80544
G1 X96.205 Y92.016 E2.86312
G1 X97.916 Y90.612 E2.92079
G1 X99.868 Y89.568 E2.97846
G1 X101.986 Y88.926 E3.03614
G1 X104.189 Y88.709 E3.09381
G1 X106.392 Y88.926 E3.15148
G1 X108.510 Y89.568 E3.20915
G1 X110.462 Y90.612 E3.26683
G1 X112.173 Y92.016 E3.32450
G1 X113.577 Y93.727 E3.38217
G1 X114.621 Y95.679 E3.43984
G1 X115.263 Y97.797 E3.49752
G1 X115.480 Y100.000 E3.55519
G1 X115.263 Y102.203 E3.61286
G1 X114.621 Y104.321 E3.67053
