; generated by PrusaSlicer 2.1.1+ on 2021-06-26 at 11:36:45 UTC

; 

; external perimeters extrusion width = 0.45mm
; perimeters extrusion width = 0.45mm
; infill extrusion width = 0.45mm
; solid infill extrusion width = 0.45mm
; top infill extrusion width = 0.40mm
; support material extrusion width = 0.40mm
; first layer extrusion width = 0.80mm

M107
M190 S60 ; set bed temperature and wait for it to be reached
M104 S200 ; set temperature
G28 ; home all axes
G1 Z5 F5000 ; lift nozzle
M109 S200 ; set temperature and wait for it to be reached
G21 ; set units to millimeters
G90 ; use absolute coordinates
M82 ; use absolute distances for extrusion
G92 E0
; Filament gcode
G1 Z0.400 F7800.000
G1 E-2.00000 F2400.00000
G92 E0
G1 X86.577 Y86.578 F7800.000
G1 E2.00000 F2400.00000
G1 F1800
G1 X87.959 Y85.326 E2.22147
G1 X89.454 Y84.217 E2.44261
G1 X91.052 Y83.260 E2.66385
G1 X92.735 Y82.463 E2.88500
G1 X94.491 Y81.836 E3.10639
G1 X96.297 Y81.383 E3.32752
G1 X98.139 Y81.110 E3.54876
G1 X100.005 Y81.019 E3.77061
G1 X101.841 Y81.108 E3.98895
G1 X103.567 Y81.358 E4.19598
G1 X117.292 Y84.073 E5.85762
G1 X118.696 Y84.555 E6.03403
G1 X119.951 Y85.351 E6.21043
G1 X120.771 Y86.150 E6.34637
G1 X121.431 Y87.077 E6.48157
G1 X121.917 Y88.113 E6.61751
G1 X122.209 Y89.220 E6.75344
G1 X122.299 Y90.224 E6.87316
G1 X122.299 Y99.127 E7.93061
G1 X122.235 Y100.028 E8.03779
G1 X122.043 Y100.916 E8.14570
G1 X121.728 Y101.761 E8.25288
G1 X121.293 Y102.559 E8.36080
G1 X115.239 Y111.316 E9.62521
G1 X114.057 Y112.755 E9.84635
G1 X112.705 Y114.102 E10.07299
G1 X111.301 Y115.250 E10.28829
G1 X109.768 Y116.274 E10.50732
G1 X108.138 Y117.148 E10.72694
G1 X106.534 Y117.820 E10.93354
G1 X105.365 Y118.205 E11.07966
G1 X103.575 Y118.640 E11.29848
G1 X101.843 Y118.891 E11.50633
G1 X100.001 Y118.981 E11.72535
G1 X98.138 Y118.889 E11.94690
G1 X96.296 Y118.616 E12.16800
G1 X94.490 Y118.164 E12.38911
G1 X92.737 Y117.537 E12.61024
G1 X91.052 Y116.740 E12.83164
G1 X89.455 Y115.783 E13.05274
G1 X87.959 Y114.673 E13.27398
G1 X86.578 Y113.423 E13.49520
G1 X85.326 Y112.041 E13.71667
G1 X84.217 Y110.545 E13.93781
G1 X83.260 Y108.947 E14.15905
G1 X82.463 Y107.264 E14.38020
G1 X81.836 Y105.509 E14.60159
G1 X81.383 Y103.703 E14.82272
G1 X81.110 Y101.860 E15.04397
G1 X81.019 Y100.000 E15.26507
G1 X81.110 Y98.139 E15.48637
G1 X81.383 Y96.298 E15.70745
G1 X81.836 Y94.491 E15.92870
G1 X82.463 Y92.737 E16.14987
G1 X83.260 Y91.052 E16.37127
G1 X84.217 Y89.455 E16.59238
G1 X85.326 Y87.959 E16.81362
G1 X86.536 Y86.623 E17.02771
G1 E15.02771 F2400.00000
G92 E0
G1 X110.229 Y89.963 F7800.000
G1 E2.00000 F2400.00000
G1 F1800
G1 X110.229 Y91.648 E2.20003
G1 X110.611 Y92.138 E2.27392
G1 X110.984 Y92.669 E2.35091
G1 X111.331 Y93.216 E2.42790
G1 X111.657 Y93.795 E2.50682
G1 X111.657 Y90.285 E2.92375
G1 X113.086 Y90.285 E3.09338
G1 X113.086 Y98.245 E4.03873
G1 X113.150 Y98.806 E4.10585
G1 X114.514 Y98.806 E4.26785
G1 X114.514 Y90.285 E5.27988
G1 X115.942 Y90.285 E5.44951
G1 X115.942 Y99.127 E6.49972
G1 E4.49972 F2400.00000
G92 E0
G1 X107.633 Y107.633 F7800.000
G1 E2.00000 F2400.00000
G1 F1800
G1 X107.250 Y107.998 E2.06289
G1 X106.849 Y108.345 E2.12583
G1 X106.431 Y108.671 E2.18877
G1 X105.997 Y108.976 E2.25170
G1 X105.550 Y109.259 E2.31464
G1 X105.088 Y109.520 E2.37760
G1 X104.615 Y109.759 E2.44055
G1 X104.131 Y109.973 E2.50345
G1 X103.637 Y110.164 E2.56634
G1 X103.134 Y110.330 E2.62927
G1 X102.623 Y110.471 E2.69221
G1 X102.106 Y110.587 E2.75515
G1 X101.584 Y110.678 E2.81809
G1 X101.058 Y110.743 E2.88104
G1 X100.529 Y110.782 E2.94398
G1 X100.000 Y110.795 E3.00687
G1 X99.470 Y110.782 E3.06976
G1 X98.942 Y110.743 E3.13270
G1 X98.416 Y110.678 E3.19565
G1 X97.894 Y110.587 E3.25859
G1 X97.377 Y110.471 E3.32153
G1 X96.866 Y110.330 E3.38447
G1 X96.363 Y110.164 E3.44740
G1 X95.869 Y109.973 E3.51029
G1 X95.384 Y109.759 E3.57319
G1 X94.911 Y109.520 E3.63614
G1 X94.450 Y109.259 E3.69910
G1 X94.002 Y108.976 E3.76204
G1 X93.569 Y108.671 E3.82497
G1 X93.151 Y108.345 E3.88791
G1 X92.750 Y107.998 E3.95085
G1 X92.366 Y107.633 E4.01374
G1 X92.001 Y107.250 E4.07663
G1 X91.655 Y106.849 E4.13956
G1 X91.329 Y106.431 E4.20251
G1 X91.024 Y105.997 E4.26544
G1 X90.740 Y105.550 E4.32838
G1 X90.479 Y105.088 E4.39134
G1 X90.241 Y104.615 E4.45428
G1 X90.026 Y104.131 E4.51719
G1 X89.835 Y103.637 E4.58008
G1 X89.669 Y103.134 E4.64300
G1 X89.528 Y102.623 E4.70592
G1 X89.412 Y102.106 E4.76884
G1 X89.322 Y101.584 E4.83176
G1 X89.257 Y101.058 E4.89471
G1 X89.218 Y100.529 E4.95767
G1 X89.205 Y100.000 E5.02060
G1 X89.218 Y99.470 E5.08352
G1 X89.257 Y98.941 E5.14648
G1 X89.322 Y98.415 E5.20943
G1 X89.412 Y97.893 E5.27236
G1 X89.528 Y97.376 E5.33527
G1 X89.669 Y96.866 E5.39820
G1 X89.835 Y96.363 E5.46111
G1 X90.026 Y95.869 E5.52401
G1 X90.241 Y95.384 E5.58691
G1 X90.479 Y94.911 E5.64985
G1 X90.740 Y94.450 E5.71281
G1 X91.024 Y94.002 E5.77575
G1 X91.329 Y93.569 E5.83868
G1 X91.655 Y93.151 E5.90163
G1 X92.001 Y92.750 E5.96456
G1 X92.366 Y92.366 E6.02745
G1 X92.750 Y92.001 E6.09035
G1 X93.151 Y91.655 E6.15328
G1 X93.569 Y91.329 E6.21622
G1 X94.002 Y91.024 E6.27916
G1 X94.450 Y90.740 E6.34210
G1 X94.911 Y90.479 E6.40505
G1 X95.384 Y90.241 E6.46800
G1 X95.869 Y90.026 E6.53090
G1 X96.363 Y89.835 E6.59379
G1 X96.866 Y89.669 E6.65671
G1 X97.376 Y89.528 E6.71964
G1 X97.893 Y89.412 E6.78255
G1 X98.415 Y89.322 E6.84548
G1 X98.941 Y89.257 E6.90843
G1 X99.470 Y89.218 E6.97138
G1 X100.000 Y89.205 E7.03431
G1 X101.065 Y89.258 E7.16100
G1 X101.584 Y89.322 E7.22311
G1 X102.106 Y89.412 E7.28603
G1 X102.623 Y89.528 E7.34894
G1 X103.134 Y89.669 E7.41187
G1 X103.637 Y89.835 E7.47479
G1 X104.131 Y90.026 E7.53768
G1 X104.615 Y90.241 E7.60058
G1 X105.088 Y90.479 E7.66353
G1 X105.550 Y90.740 E7.72649
G1 X105.997 Y91.024 E7.78943
G1 X106.431 Y91.329 E7.85236
G1 X106.849 Y91.655 E7.91531
G1 X107.250 Y92.001 E7.97824
G1 X107.633 Y92.366 E8.04113
G1 X107.998 Y92.750 E8.10402
G1 X108.345 Y93.151 E8.16695
G1 X108.671 Y93.569 E8.22990
G1 X108.976 Y94.002 E8.29283
G1 X109.259 Y94.450 E8.35577
G1 X109.520 Y94.911 E8.41873
G1 X109.759 Y95.384 E8.48167
G1 X109.973 Y95.869 E8.54458
G1 X110.164 Y96.363 E8.60747
G1 X110.330 Y96.866 E8.67040
G1 X110.471 Y97.377 E8.73334
G1 X110.587 Y97.894 E8.79627
G1 X110.678 Y98.416 E8.85922
G1 X110.743 Y98.942 E8.92217
G1 X110.782 Y99.470 E8.98511
G1 X110.795 Y100.000 E9.04800
G1 X110.782 Y100.529 E9.11089
G1 X110.743 Y101.058 E9.17383
G1 X110.678 Y101.584 E9.23678
G1 X110.587 Y102.106 E9.29972
G1 X110.471 Y102.623 E9.36266
G1 X110.330 Y103.134 E9.42560
G1 X110.164 Y103.637 E9.48853
G1 X109.973 Y104.131 E9.55142
G1 X109.759 Y104.615 E9.61432
G1 X109.520 Y105.088 E9.67727
G1 X109.259 Y105.550 E9.74023
G1 X108.976 Y105.997 E9.80316
G1 X108.671 Y106.431 E9.86610
G1 X108.345 Y106.849 E9.92904
G1 X107.675 Y107.590 E10.04771
G1 X108.151 Y108.126 F7800.000
G1 F1800
G1 X107.729 Y108.528 E10.11687
G1 X107.302 Y108.897 E10.18397
G1 X106.856 Y109.244 E10.25107
G1 X106.394 Y109.570 E10.31817
G1 X105.917 Y109.872 E10.38527
G1 X105.425 Y110.150 E10.45238
G1 X104.920 Y110.404 E10.51949
G1 X104.404 Y110.633 E10.58657
G1 X103.877 Y110.836 E10.65363
G1 X103.341 Y111.014 E10.72072
G1 X102.796 Y111.164 E10.78782
G1 X102.245 Y111.288 E10.85491
G1 X101.689 Y111.385 E10.92201
G1 X101.128 Y111.454 E10.98912
G1 X100.564 Y111.496 E11.05622
G1 X100.000 Y111.510 E11.12330
G1 X99.435 Y111.496 E11.19037
G1 X98.872 Y111.454 E11.25747
G1 X98.311 Y111.385 E11.32458
G1 X97.754 Y111.288 E11.39168
G1 X97.203 Y111.164 E11.45878
G1 X96.658 Y111.014 E11.52587
G1 X96.122 Y110.836 E11.59296
G1 X95.595 Y110.633 E11.66003
G1 X95.079 Y110.404 E11.72710
G1 X94.574 Y110.150 E11.79421
G1 X94.082 Y109.872 E11.86132
G1 X93.605 Y109.570 E11.92843
G1 X93.143 Y109.244 E11.99552
G1 X92.698 Y108.897 E12.06263
G1 X92.270 Y108.528 E12.12972
G1 X91.861 Y108.139 E12.19679
G1 X91.471 Y107.729 E12.26387
G1 X91.103 Y107.302 E12.33096
G1 X90.755 Y106.856 E12.39807
G1 X90.430 Y106.394 E12.46516
G1 X90.127 Y105.917 E12.53227
G1 X89.849 Y105.425 E12.59938
G1 X89.595 Y104.920 E12.66649
G1 X89.366 Y104.404 E12.73356
G1 X89.163 Y103.877 E12.80063
G1 X88.986 Y103.341 E12.86771
G1 X88.835 Y102.796 E12.93480
G1 X88.711 Y102.245 E13.00188
G1 X88.615 Y101.689 E13.06896
G1 X88.546 Y101.128 E13.13607
G1 X88.504 Y100.564 E13.20319
G1 X88.490 Y100.000 E13.27028
G1 X88.504 Y99.435 E13.33738
G1 X88.546 Y98.871 E13.40449
G1 X88.615 Y98.311 E13.47160
G1 X88.711 Y97.754 E13.53869
G1 X88.835 Y97.203 E13.60577
G1 X88.986 Y96.658 E13.67285
G1 X89.163 Y96.122 E13.73993
G1 X89.366 Y95.595 E13.80700
G1 X89.595 Y95.079 E13.87408
G1 X89.849 Y94.574 E13.94118
G1 X90.127 Y94.082 E14.00830
G1 X90.430 Y93.605 E14.07540
G1 X90.755 Y93.143 E14.14250
G1 X91.103 Y92.698 E14.20960
G1 X91.471 Y92.270 E14.27670
G1 X91.861 Y91.861 E14.34377
G1 X92.270 Y91.471 E14.41084
G1 X92.698 Y91.103 E14.47793
G1 X93.143 Y90.755 E14.54504
G1 X93.605 Y90.430 E14.61214
G1 X94.082 Y90.127 E14.67924
G1 X94.574 Y89.849 E14.74635
G1 X95.079 Y89.595 E14.81346
G1 X95.595 Y89.366 E14.88053
G1 X96.122 Y89.163 E14.94760
G1 X96.658 Y88.986 E15.01468
G1 X97.203 Y88.835 E15.08177
G1 X97.754 Y88.711 E15.14885
G1 X98.311 Y88.615 E15.21594
G1 X98.871 Y88.546 E15.28305
G1 X99.435 Y88.504 E15.35016
G1 X100.000 Y88.490 E15.41725
G1 X101.132 Y88.546 E15.55194
G1 X101.689 Y88.615 E15.61853
G1 X102.245 Y88.711 E15.68562
G1 X102.796 Y88.835 E15.75270
G1 X103.341 Y88.986 E15.81978
G1 X103.877 Y89.163 E15.88687
G1 X104.404 Y89.366 E15.95393
G1 X104.920 Y89.595 E16.02101
G1 X105.425 Y89.849 E16.08811
G1 X105.917 Y90.127 E16.15523
G1 X106.394 Y90.430 E16.22233
G1 X106.856 Y90.755 E16.28943
G1 X107.302 Y91.103 E16.35653
G1 X107.729 Y91.471 E16.42363
G1 X108.139 Y91.861 E16.49070
G1 X108.528 Y92.270 E16.55777
G1 X108.897 Y92.698 E16.62487
G1 X109.244 Y93.143 E16.69197
G1 X109.570 Y93.605 E16.75907
G1 X109.872 Y94.082 E16.82617
G1 X110.150 Y94.574 E16.89328
G1 X110.404 Y95.079 E16.96039
G1 X110.633 Y95.595 E17.02747
G1 X110.837 Y96.122 E17.09453
G1 X111.014 Y96.658 E17.16162
G1 X111.164 Y97.203 E17.22872
G1 X111.288 Y97.754 E17.29581
G1 X111.385 Y98.311 E17.36291
G1 X111.454 Y98.872 E17.43002
G1 X111.496 Y99.435 E17.49712
G1 X111.510 Y100.000 E17.56420
G1 X111.496 Y100.564 E17.63127
G1 X111.454 Y101.128 E17.69837
G1 X111.385 Y101.689 E17.76548
G1 X111.288 Y102.245 E17.83258
G1 X111.164 Y102.796 E17.89968
G1 X111.014 Y103.341 E17.96677
G1 X110.837 Y103.877 E18.03386
G1 X110.633 Y104.404 E18.10093
G1 X110.404 Y104.920 E18.16800
G1 X110.150 Y105.425 E18.23511
G1 X109.872 Y105.917 E18.30222
G1 X109.570 Y106.394 E18.36933
G1 X109.244 Y106.856 E18.43642
G1 X108.897 Y107.302 E18.50353
G1 X108.528 Y107.729 E18.57062
G1 X108.192 Y108.082 E18.62847
G1 X108.668 Y108.618 F7800.000
G1 F1800
G1 X108.209 Y109.057 E18.70391
G1 X107.755 Y109.449 E18.77517
G1 X107.282 Y109.818 E18.84643
G1 X106.791 Y110.164 E18.91769
G1 X106.284 Y110.485 E18.98896
G1 X105.762 Y110.780 E19.06023
G1 X105.226 Y111.050 E19.13149
G1 X104.677 Y111.293 E19.20274
G1 X104.118 Y111.509 E19.27399
G1 X103.548 Y111.697 E19.34523
G1 X102.970 Y111.857 E19.41648
G1 X102.385 Y111.989 E19.48774
G1 X101.793 Y112.091 E19.55900
G1 X101.198 Y112.165 E19.63026
G1 X100.599 Y112.209 E19.70153
G1 X100.000 Y112.224 E19.77279
G1 X99.400 Y112.209 E19.84404
G1 X98.801 Y112.165 E19.91531
G1 X98.206 Y112.091 E19.98657
G1 X97.615 Y111.989 E20.05783
G1 X97.029 Y111.857 E20.12909
G1 X96.451 Y111.697 E20.20034
G1 X95.882 Y111.509 E20.27158
G1 X95.322 Y111.293 E20.34283
G1 X94.773 Y111.050 E20.41408
G1 X94.237 Y110.780 E20.48534
G1 X93.715 Y110.485 E20.55661
G1 X93.208 Y110.164 E20.62788
G1 X92.718 Y109.818 E20.69914
G1 X92.245 Y109.449 E20.77040
G1 X91.790 Y109.057 E20.84166
G1 X91.356 Y108.644 E20.91291
G1 X90.942 Y108.209 E20.98416
G1 X90.550 Y107.755 E21.05542
G1 X90.181 Y107.282 E21.12668
G1 X89.836 Y106.791 E21.19795
G1 X89.515 Y106.284 E21.26921
G1 X89.219 Y105.762 E21.34048
G1 X88.949 Y105.226 E21.41175
G1 X88.706 Y104.677 E21.48300
G1 X88.490 Y104.118 E21.55424
G1 X88.302 Y103.548 E21.62548
G1 X88.142 Y102.970 E21.69673
G1 X88.011 Y102.385 E21.76798
G1 X87.908 Y101.794 E21.83923
G1 X87.835 Y101.198 E21.91050
G1 X87.791 Y100.600 E21.98176
G1 X87.776 Y100.000 E22.05303
G1 X87.791 Y99.400 E22.12429
G1 X87.835 Y98.801 E22.19556
G1 X87.908 Y98.206 E22.26682
G1 X88.011 Y97.615 E22.33808
G1 X88.142 Y97.029 E22.40932
G1 X88.302 Y96.451 E22.48057
G1 X88.490 Y95.882 E22.55182
G1 X88.706 Y95.322 E22.62306
G1 X88.949 Y94.773 E22.69431
G1 X89.219 Y94.237 E22.76557
G1 X89.515 Y93.715 E22.83684
G1 X89.836 Y93.208 E22.90811
G1 X90.181 Y92.718 E22.97937
G1 X90.550 Y92.245 E23.05064
G1 X90.942 Y91.790 E23.12189
G1 X91.356 Y91.356 E23.19314
G1 X91.790 Y90.942 E23.26439
G1 X92.245 Y90.550 E23.33565
G1 X92.718 Y90.181 E23.40691
G1 X93.208 Y89.836 E23.47818
G1 X93.715 Y89.515 E23.54944
G1 X94.237 Y89.219 E23.62071
G1 X94.773 Y88.949 E23.69198
G1 X95.322 Y88.706 E23.76323
G1 X95.882 Y88.490 E23.83447
G1 X96.451 Y88.302 E23.90571
G1 X97.029 Y88.142 E23.97696
G1 X97.615 Y88.011 E24.04821
G1 X98.206 Y87.908 E24.11946
G1 X98.801 Y87.835 E24.19073
G1 X99.400 Y87.791 E24.26199
G1 X100.000 Y87.776 E24.33326
G1 X101.200 Y87.835 E24.47593
G1 X101.794 Y87.908 E24.54701
G1 X102.385 Y88.011 E24.61826
G1 X102.970 Y88.142 E24.68951
G1 X103.548 Y88.302 E24.76076
G1 X104.118 Y88.490 E24.83200
G1 X104.677 Y88.706 E24.90324
G1 X105.226 Y88.949 E24.97449
G1 X105.762 Y89.219 E25.04576
G1 X106.284 Y89.515 E25.11703
G1 X106.791 Y89.836 E25.18830
G1 X107.282 Y90.181 E25.25956
G1 X107.755 Y90.550 E25.33082
G1 X108.209 Y90.942 E25.40208
G1 X108.644 Y91.356 E25.47333
G1 X109.057 Y91.790 E25.54458
G1 X109.449 Y92.245 E25.61584
G1 X109.818 Y92.718 E25.68710
G1 X110.164 Y93.208 E25.75836
G1 X110.485 Y93.715 E25.82963
G1 X110.780 Y94.237 E25.90090
G1 X111.050 Y94.773 E25.97216
G1 X111.293 Y95.322 E26.04341
G1 X111.509 Y95.882 E26.11466
G1 X111.697 Y96.451 E26.18590
G1 X111.857 Y97.029 E26.25715
G1 X111.989 Y97.615 E26.32841
G1 X112.091 Y98.206 E26.39967
G1 X112.165 Y98.801 E26.47093
G1 X112.209 Y99.400 E26.54220
G1 X112.224 Y100.000 E26.61346
G1 X112.209 Y100.599 E26.68471
G1 X112.165 Y101.198 E26.75598
G1 X112.091 Y101.793 E26.82724
G1 X111.989 Y102.385 E26.89850
G1 X111.857 Y102.970 E26.96976
G1 X111.697 Y103.548 E27.04101
G1 X111.509 Y104.118 E27.11226
G1 X111.293 Y104.677 E27.18350
G1 X111.050 Y105.226 E27.25475
G1 X110.780 Y105.762 E27.32601
G1 X110.485 Y106.284 E27.39728
G1 X110.164 Y106.791 E27.46855
G1 X109.818 Y107.282 E27.53981
G1 X109.449 Y107.755 E27.61107
G1 X109.057 Y108.209 E27.68233
G1 X108.709 Y108.575 E27.74227
G1 X108.281 Y108.515 F7800.000
G1 E25.74227 F2400.00000
G92 E0
G1 X109.994 Y96.533 F7800.000
G1 E2.00000 F2400.00000
G1 F1800
G1 X104.028 Y90.566 E3.02751
G1 X103.456 Y90.340 E3.10234
G1 X102.978 Y90.182 E3.16365
G1 X102.468 Y90.042 E3.22801
G1 X109.957 Y97.531 E4.51759
G1 X110.062 Y97.998 E4.57589
G1 X110.185 Y98.795 E4.67404
G1 X101.205 Y89.815 E6.22046
G1 X100.402 Y89.751 E6.31852
G1 X100.107 Y89.752 E6.35453
G1 X110.257 Y99.902 E8.10249
G1 X110.247 Y100.503 E8.17564
G1 X110.218 Y100.898 E8.22394
G1 X99.102 Y89.782 E10.13821
G1 X98.189 Y89.905 E10.25039
G1 X110.095 Y101.811 E12.30075
G1 X109.906 Y102.657 E12.40637
G1 X97.342 Y90.093 E14.56998
G1 X96.550 Y90.337 E14.67083
G1 X109.662 Y103.449 E16.92868
G1 X109.363 Y104.186 E17.02550
G1 X95.814 Y90.636 E19.35880
G1 X95.119 Y90.977 E19.45304
G1 X109.023 Y104.881 E21.84735
G1 X108.637 Y105.531 E21.93938
G1 X94.469 Y91.362 E24.37930
G1 X93.855 Y91.784 E24.46996
G1 X108.215 Y106.144 E26.94276
G1 X107.751 Y106.716 E27.03241
G1 X93.283 Y92.248 E29.52393
G1 X92.745 Y92.745 E29.61317
G1 X107.255 Y107.255 E32.11184
G1 X106.716 Y107.752 E32.20107
G1 X92.248 Y93.283 E34.69259
G1 X91.784 Y93.855 E34.78224
G1 X106.144 Y108.215 E37.25504
G1 X105.531 Y108.637 E37.34570
G1 X91.362 Y94.469 E39.78561
G1 X90.977 Y95.119 E39.87764
G1 X104.880 Y109.023 E42.27195
G1 X104.186 Y109.363 E42.36619
G1 X90.636 Y95.814 E44.69948
G1 X90.337 Y96.551 E44.79630
G1 X103.449 Y109.662 E47.05414
G1 X102.657 Y109.906 E47.15499
G1 X90.093 Y97.342 E49.31859
G1 X89.904 Y98.189 E49.42422
G1 X101.811 Y110.095 E51.47456
