; generated by PrusaSlicer 2.1.1+ on 2021-02-13 at 19:14:28 UTC

; 

; external perimeters extrusion width = 0.45mm
; perimeters extrusion width = 0.45mm
; infill extrusion width = 0.45mm
; solid infill extrusion width = 0.45mm
; top infill extrusion width = 0.40mm
; first layer extrusion width = 0.80mm

M107
M190 S60 ; set bed temperature and wait for it to be reached
M104 S200 ; set temperature
G28 ; home all axes
G1 Z5 F5000 ; lift nozzle
M109 S200 ; set temperature and wait for it to be reached
G21 ; set units to millimeters
G90 ; use absolute coordinates
M82 ; use absolute distances for extrusion
G92 E0
; Filament gcode
G1 Z0.400 F7800.000
G1 E-2.00000 F2400.00000
G92 E0
G1 X58.264 Y57.793 F7800.000
G1 E2.00000 F2400.00000
G1 F1800
G1 X60.461 Y55.729 E2.35801
G1 X62.664 Y53.856 E2.70144
G1 X64.538 Y52.401 E2.98325
G1 X66.979 Y50.676 E3.33816
G1 X69.468 Y49.098 E3.68817
G1 X72.064 Y47.628 E4.04248
G1 X74.725 Y46.293 E4.39605
G1 X77.455 Y45.091 E4.75037
G1 X80.242 Y44.028 E5.10468
G1 X83.080 Y43.106 E5.45899
G1 X85.959 Y42.327 E5.81329
G1 X88.838 Y41.702 E6.16316
G1 X91.122 Y41.311 E6.43839
G1 X94.077 Y40.939 E6.79210
G1 X97.021 Y40.718 E7.14271
G1 X100.004 Y40.643 E7.49703
G1 X102.980 Y40.718 E7.85059
G1 X105.955 Y40.942 E8.20491
G1 X108.914 Y41.316 E8.55921
G1 X111.815 Y41.831 E8.90909
G1 X114.723 Y42.498 E9.26339
G1 X116.956 Y43.116 E9.53863
G1 X119.759 Y44.028 E9.88864
G1 X122.579 Y45.105 E10.24725
G1 X125.276 Y46.294 E10.59725
G1 X127.943 Y47.631 E10.95158
G1 X130.533 Y49.098 E11.30514
G1 X133.052 Y50.697 E11.65945
G1 X135.488 Y52.420 E12.01375
G1 X137.833 Y54.263 E12.36807
G1 X140.084 Y56.222 E12.72238
G1 X142.206 Y58.264 E13.07226
G1 X144.271 Y60.461 E13.43026
G1 X146.144 Y62.664 E13.77368
G1 X147.599 Y64.538 E14.05548
G1 X149.324 Y66.978 E14.41041
G1 X150.902 Y69.467 E14.76042
G1 X152.372 Y72.063 E15.11472
G1 X153.707 Y74.724 E15.46829
G1 X154.909 Y77.455 E15.82261
G1 X155.972 Y80.242 E16.17692
G1 X156.894 Y83.079 E16.53122
G1 X157.673 Y85.959 E16.88553
G1 X158.298 Y88.838 E17.23539
G1 X158.689 Y91.122 E17.51064
G1 X159.061 Y94.077 E17.86433
G1 X159.282 Y97.021 E18.21495
G1 X159.357 Y100.003 E18.56928
G1 X159.282 Y102.979 E18.92284
G1 X159.058 Y105.954 E19.27714
G1 X158.684 Y108.914 E19.63145
G1 X158.169 Y111.815 E19.98134
G1 X157.493 Y114.759 E20.34008
G1 X156.690 Y117.593 E20.68995
G1 X155.960 Y119.792 E20.96518
G1 X154.895 Y122.579 E21.31948
G1 X153.707 Y125.276 E21.66949
G1 X152.369 Y127.942 E22.02381
G1 X150.902 Y130.533 E22.37737
G1 X149.304 Y133.052 E22.73168
G1 X147.581 Y135.487 E23.08601
G1 X145.737 Y137.833 E23.44031
G1 X143.779 Y140.084 E23.79463
G1 X141.736 Y142.206 E24.14448
G1 X140.057 Y143.803 E24.41973
G1 X137.805 Y145.760 E24.77403
G1 X135.487 Y147.580 E25.12403
G1 X133.026 Y149.321 E25.48207
G1 X130.533 Y150.902 E25.83268
G1 X127.937 Y152.372 E26.18700
G1 X125.276 Y153.707 E26.54058
G1 X122.545 Y154.909 E26.89488
G1 X119.758 Y155.972 E27.24920
G1 X116.921 Y156.894 E27.60352
G1 X114.040 Y157.673 E27.95785
G1 X111.162 Y158.298 E28.30772
G1 X108.878 Y158.689 E28.58296
G1 X105.923 Y159.061 E28.93667
G1 X102.979 Y159.282 E29.28729
G1 X99.996 Y159.357 E29.64161
G1 X97.020 Y159.282 E29.99519
G1 X94.045 Y159.058 E30.34950
G1 X91.085 Y158.684 E30.70382
G1 X88.185 Y158.169 E31.05371
G1 X85.923 Y157.664 E31.32894
G1 X83.043 Y156.883 E31.68326
G1 X80.241 Y155.972 E32.03327
G1 X77.454 Y154.908 E32.38758
G1 X74.729 Y153.709 E32.74116
G1 X72.062 Y152.371 E33.09547
G1 X69.466 Y150.901 E33.44979
G1 X66.978 Y149.324 E33.79967
G1 X64.512 Y147.580 E34.15843
G1 X62.195 Y145.760 E34.50830
G1 X59.988 Y143.844 E34.85543
G1 X58.264 Y142.206 E35.13786
G1 X56.220 Y140.082 E35.48787
G1 X54.262 Y137.832 E35.84219
G1 X52.422 Y135.491 E36.19575
G1 X50.699 Y133.056 E36.55008
G1 X49.100 Y130.537 E36.90440
G1 X47.630 Y127.941 E37.25872
G1 X46.293 Y125.274 E37.61304
G1 X45.105 Y122.578 E37.96291
G1 X44.265 Y120.418 E38.23815
G1 X43.310 Y117.592 E38.59246
G1 X42.506 Y114.757 E38.94248
G1 X41.832 Y111.819 E39.30049
G1 X41.316 Y108.912 E39.65111
G1 X40.942 Y105.952 E40.00542
G1 X40.718 Y102.983 E40.35901
G1 X40.643 Y100.002 E40.71316
G1 X40.718 Y97.020 E41.06745
G1 X40.942 Y94.045 E41.42176
G1 X41.316 Y91.086 E41.77608
G1 X41.831 Y88.185 E42.12595
G1 X42.498 Y85.277 E42.48026
G1 X43.116 Y83.044 E42.75549
G1 X44.028 Y80.241 E43.10549
G1 X45.103 Y77.425 E43.46350
G1 X46.294 Y74.724 E43.81412
G1 X47.631 Y72.057 E44.16843
G1 X49.098 Y69.467 E44.52200
G1 X50.697 Y66.948 E44.87631
G1 X52.424 Y64.507 E45.23136
G1 X54.263 Y62.166 E45.58494
G1 X56.222 Y59.916 E45.93925
G1 X58.223 Y57.837 E46.28200
G1 E44.28200 F2400.00000
G92 E0
G1 X138.122 Y134.130 F7800.000
G1 E2.00000 F2400.00000
G1 F1800
G1 X136.860 Y135.495 E2.22084
G1 X135.956 Y136.410 E2.37358
G1 X135.030 Y137.302 E2.52631
G1 X134.081 Y138.171 E2.67905
G1 X133.111 Y139.015 E2.83179
G1 X132.120 Y139.835 E2.98453
G1 X131.109 Y140.629 E3.13727
G1 X130.078 Y141.398 E3.29001
G1 X129.028 Y142.141 E3.44278
G1 X128.015 Y142.821 E3.58773
G1 X126.319 Y143.884 E3.82535
G1 X125.214 Y144.528 E3.97733
G1 X124.087 Y145.148 E4.13007
G1 X122.945 Y145.739 E4.28281
G1 X121.788 Y146.301 E4.43555
G1 X120.618 Y146.834 E4.58829
G1 X119.434 Y147.338 E4.74103
G1 X118.238 Y147.811 E4.89377
G1 X117.031 Y148.254 E5.04651
G1 X115.813 Y148.667 E5.19925
G1 X114.585 Y149.049 E5.35199
G1 X113.348 Y149.400 E5.50473
G1 X112.102 Y149.720 E5.65747
G1 X110.849 Y150.008 E5.81021
G1 X109.589 Y150.265 E5.96295
G1 X108.322 Y150.490 E6.11569
G1 X107.051 Y150.683 E6.26843
G1 X105.775 Y150.845 E6.42117
G1 X104.495 Y150.974 E6.57391
G1 X103.213 Y151.071 E6.72665
G1 X101.929 Y151.135 E6.87939
G1 X100.643 Y151.167 E7.03213
G1 X99.363 Y151.167 E7.18419
G1 X97.423 Y151.107 E7.41466
G1 X96.145 Y151.026 E7.56671
G1 X94.864 Y150.913 E7.71945
G1 X93.586 Y150.768 E7.87219
G1 X92.313 Y150.591 E8.02493
G1 X91.044 Y150.382 E8.17767
G1 X89.780 Y150.141 E8.33041
G1 X88.523 Y149.868 E8.48315
G1 X87.274 Y149.564 E8.63589
G1 X86.032 Y149.228 E8.78863
G1 X84.800 Y148.862 E8.94137
G1 X83.577 Y148.464 E9.09411
G1 X82.364 Y148.036 E9.24685
G1 X81.162 Y147.578 E9.39959
G1 X79.972 Y147.090 E9.55233
G1 X78.795 Y146.571 E9.70507
G1 X77.637 Y146.026 E9.85713
G1 X75.908 Y145.145 E10.08760
G1 X74.786 Y144.528 E10.23965
G1 X73.675 Y143.881 E10.39240
G1 X72.580 Y143.205 E10.54513
G1 X71.503 Y142.503 E10.69787
G1 X70.444 Y141.773 E10.85062
G1 X69.404 Y141.017 E11.00335
G1 X68.383 Y140.235 E11.15609
G1 X67.382 Y139.428 E11.30883
G1 X66.401 Y138.596 E11.46157
G1 X65.442 Y137.739 E11.61431
G1 X64.504 Y136.859 E11.76705
G1 X63.589 Y135.955 E11.91979
G1 X62.697 Y135.029 E12.07253
G1 X61.829 Y134.080 E12.22527
G1 X60.984 Y133.110 E12.37801
G1 X60.168 Y132.124 E12.53007
G1 X58.979 Y130.590 E12.76054
G1 X58.226 Y129.555 E12.91260
G1 X57.497 Y128.495 E13.06534
G1 X56.794 Y127.418 E13.21808
G1 X56.119 Y126.324 E13.37082
G1 X55.471 Y125.213 E13.52356
G1 X54.851 Y124.086 E13.67630
G1 X54.260 Y122.944 E13.82904
G1 X53.698 Y121.787 E13.98178
G1 X53.165 Y120.616 E14.13452
G1 X52.662 Y119.433 E14.28726
G1 X52.189 Y118.237 E14.44000
G1 X51.745 Y117.030 E14.59274
G1 X51.333 Y115.812 E14.74548
G1 X50.951 Y114.584 E14.89822
G1 X50.600 Y113.347 E15.05096
G1 X50.280 Y112.101 E15.20370
G1 X49.991 Y110.848 E15.35644
G1 X49.735 Y109.587 E15.50918
G1 X49.510 Y108.321 E15.66192
G1 X49.316 Y107.050 E15.81466
G1 X49.155 Y105.774 E15.96740
G1 X49.026 Y104.494 E16.12014
G1 X48.929 Y103.212 E16.27288
G1 X48.865 Y101.927 E16.42562
G1 X48.832 Y100.642 E16.57836
G1 X48.832 Y99.357 E16.73094
G1 X48.865 Y98.071 E16.88368
G1 X48.929 Y96.787 E17.03641
G1 X49.026 Y95.505 E17.18915
G1 X49.155 Y94.225 E17.34189
G1 X49.317 Y92.949 E17.49463
G1 X49.510 Y91.678 E17.64736
G1 X49.735 Y90.411 E17.80010
G1 X49.991 Y89.157 E17.95216
G1 X50.438 Y87.269 E18.18262
G1 X50.772 Y86.033 E18.33467
G1 X51.138 Y84.800 E18.48741
G1 X51.536 Y83.577 E18.64015
G1 X51.964 Y82.364 E18.79289
G1 X52.422 Y81.163 E18.94562
G1 X52.910 Y79.973 E19.09836
G1 X53.428 Y78.796 E19.25110
G1 X53.976 Y77.632 E19.40384
G1 X54.553 Y76.483 E19.55657
G1 X55.158 Y75.348 E19.70931
G1 X55.792 Y74.229 E19.86205
G1 X56.453 Y73.126 E20.01479
G1 X57.142 Y72.040 E20.16753
G1 X57.855 Y70.977 E20.31958
G1 X58.986 Y69.400 E20.55004
G1 X59.764 Y68.383 E20.70210
G1 X60.572 Y67.382 E20.85484
G1 X61.404 Y66.401 E21.00758
G1 X62.260 Y65.442 E21.16031
G1 X63.141 Y64.505 E21.31305
G1 X64.044 Y63.590 E21.46579
G1 X64.971 Y62.698 E21.61853
G1 X65.919 Y61.829 E21.77126
G1 X66.889 Y60.985 E21.92400
G1 X67.880 Y60.165 E22.07674
G1 X68.891 Y59.370 E22.22948
G1 X69.922 Y58.601 E22.38222
G1 X70.972 Y57.859 E22.53495
G1 X72.035 Y57.146 E22.68701
G1 X73.680 Y56.116 E22.91747
G1 X74.786 Y55.471 E23.06953
G1 X75.913 Y54.852 E23.22226
G1 X77.056 Y54.261 E23.37500
G1 X78.212 Y53.699 E23.52774
G1 X79.383 Y53.166 E23.68047
G1 X80.566 Y52.662 E23.83321
G1 X81.762 Y52.189 E23.98595
G1 X82.969 Y51.746 E24.13869
G1 X84.187 Y51.333 E24.29142
G1 X85.415 Y50.951 E24.44416
G1 X86.652 Y50.600 E24.59690
G1 X87.898 Y50.280 E24.74963
G1 X89.151 Y49.992 E24.90237
G1 X90.411 Y49.735 E25.05511
G1 X91.678 Y49.510 E25.20785
G1 X92.949 Y49.317 E25.36058
G1 X94.225 Y49.155 E25.51332
G1 X95.504 Y49.026 E25.66606
G1 X96.787 Y48.929 E25.81879
G1 X98.071 Y48.865 E25.97153
G1 X99.357 Y48.832 E26.12430
G1 X100.578 Y48.832 E26.26925
G1 X102.577 Y48.893 E26.50686
G1 X103.854 Y48.974 E26.65884
G1 X105.136 Y49.087 E26.81158
G1 X106.413 Y49.232 E26.96431
G1 X107.687 Y49.409 E27.11705
G1 X108.956 Y49.618 E27.26979
G1 X110.219 Y49.859 E27.42252
G1 X111.476 Y50.132 E27.57526
G1 X112.726 Y50.436 E27.72800
G1 X113.967 Y50.772 E27.88073
G1 X115.200 Y51.138 E28.03347
G1 X116.423 Y51.535 E28.18621
G1 X117.636 Y51.963 E28.33895
G1 X118.837 Y52.422 E28.49168
G1 X120.027 Y52.910 E28.64442
G1 X121.204 Y53.428 E28.79716
G1 X122.368 Y53.976 E28.94990
G1 X123.517 Y54.553 E29.10263
G1 X124.652 Y55.158 E29.25537
G1 X125.771 Y55.792 E29.40811
G1 X126.874 Y56.453 E29.56084
G1 X127.960 Y57.142 E29.71358
G1 X129.023 Y57.855 E29.86564
G1 X130.600 Y58.986 E30.09610
G1 X131.617 Y59.764 E30.24815
G1 X132.618 Y60.572 E30.40089
G1 X133.598 Y61.404 E30.55363
G1 X134.558 Y62.260 E30.70636
G1 X135.495 Y63.141 E30.85910
G1 X136.410 Y64.044 E31.01184
G1 X137.302 Y64.971 E31.16457
G1 X138.171 Y65.919 E31.31731
G1 X139.015 Y66.889 E31.47005
G1 X139.835 Y67.880 E31.62279
G1 X140.630 Y68.891 E31.77552
G1 X141.398 Y69.922 E31.92826
G1 X142.141 Y70.972 E32.08100
G1 X142.857 Y72.040 E32.23373
G1 X143.547 Y73.126 E32.38647
G1 X144.208 Y74.229 E32.53921
G1 X144.842 Y75.348 E32.69194
G1 X145.447 Y76.482 E32.84468
G1 X146.024 Y77.632 E32.99742
G1 X146.571 Y78.796 E33.15016
G1 X147.090 Y79.973 E33.30293
G1 X147.554 Y81.102 E33.44787
G1 X148.256 Y82.975 E33.68549
G1 X148.667 Y84.187 E33.83746
G1 X149.049 Y85.415 E33.99020
G1 X149.400 Y86.652 E34.14294
G1 X149.720 Y87.898 E34.29568
G1 X150.008 Y89.151 E34.44841
G1 X150.265 Y90.411 E34.60115
G1 X150.490 Y91.677 E34.75389
G1 X150.683 Y92.949 E34.90662
G1 X150.845 Y94.225 E35.05936
G1 X150.974 Y95.504 E35.21210
G1 X151.071 Y96.787 E35.36484
G1 X151.135 Y98.071 E35.51757
G1 X151.167 Y99.357 E35.67031
G1 X151.168 Y100.643 E35.82305
G1 X151.135 Y101.928 E35.97578
G1 X151.071 Y103.207 E36.12784
G1 X150.913 Y105.141 E36.35830
G1 X150.768 Y106.413 E36.51036
G1 X150.591 Y107.687 E36.66309
G1 X150.382 Y108.956 E36.81583
G1 X150.141 Y110.219 E36.96857
G1 X149.868 Y111.476 E37.12130
G1 X149.564 Y112.725 E37.27404
G1 X149.229 Y113.967 E37.42678
G1 X148.862 Y115.200 E37.57952
G1 X148.465 Y116.423 E37.73225
G1 X148.037 Y117.636 E37.88499
G1 X147.578 Y118.837 E38.03773
G1 X147.092 Y120.021 E38.18978
G1 X146.299 Y121.793 E38.42024
G1 X145.739 Y122.944 E38.57230
G1 X145.148 Y124.086 E38.72504
G1 X144.529 Y125.213 E38.87777
G1 X143.881 Y126.324 E39.03051
G1 X143.206 Y127.419 E39.18325
G1 X142.503 Y128.496 E39.33598
G1 X141.774 Y129.555 E39.48872
G1 X141.018 Y130.595 E39.64146
G1 X140.236 Y131.616 E39.79419
G1 X139.429 Y132.618 E39.94693
G1 X138.162 Y134.085 E40.17715
G1 X138.655 Y134.605 F7800.000
G1 F1800
G1 X137.374 Y135.990 E40.40118
G1 X136.458 Y136.918 E40.55605
G1 X135.519 Y137.823 E40.71092
G1 X134.557 Y138.703 E40.86579
G1 X133.573 Y139.560 E41.02066
G1 X132.569 Y140.391 E41.17553
G1 X131.543 Y141.197 E41.33040
G1 X130.498 Y141.976 E41.48528
G1 X129.433 Y142.729 E41.64017
G1 X128.403 Y143.421 E41.78748
G1 X126.689 Y144.495 E42.02778
G1 X125.566 Y145.150 E42.18219
G1 X124.423 Y145.778 E42.33706
G1 X123.265 Y146.377 E42.49193
G1 X122.092 Y146.948 E42.64680
G1 X120.905 Y147.488 E42.80168
G1 X119.705 Y147.998 E42.95655
G1 X118.493 Y148.478 E43.11142
G1 X117.269 Y148.928 E43.26629
G1 X116.034 Y149.346 E43.42116
G1 X114.789 Y149.734 E43.57604
G1 X113.534 Y150.090 E43.73091
G1 X112.271 Y150.414 E43.88578
G1 X111.000 Y150.706 E44.04065
G1 X109.722 Y150.967 E44.19552
G1 X108.439 Y151.195 E44.35040
G1 X107.149 Y151.391 E44.50527
G1 X105.856 Y151.554 E44.66014
G1 X104.558 Y151.685 E44.81501
G1 X103.258 Y151.783 E44.96988
G1 X101.956 Y151.849 E45.12475
G1 X100.652 Y151.882 E45.27963
G1 X99.351 Y151.882 E45.43408
G1 X97.389 Y151.820 E45.66721
G1 X96.091 Y151.738 E45.82167
G1 X94.793 Y151.624 E45.97654
G1 X93.497 Y151.477 E46.13141
G1 X92.205 Y151.297 E46.28629
G1 X90.919 Y151.085 E46.44116
G1 X89.638 Y150.840 E46.59603
G1 X88.363 Y150.564 E46.75090
G1 X87.096 Y150.256 E46.90577
G1 X85.837 Y149.915 E47.06064
G1 X84.587 Y149.544 E47.21552
G1 X83.347 Y149.141 E47.37039
G1 X82.118 Y148.707 E47.52526
G1 X80.899 Y148.242 E47.68013
G1 X79.693 Y147.747 E47.83500
G1 X78.499 Y147.221 E47.98988
G1 X77.323 Y146.668 E48.14433
G1 X75.574 Y145.776 E48.37746
G1 X74.434 Y145.150 E48.53192
G1 X73.307 Y144.493 E48.68679
G1 X72.198 Y143.808 E48.84166
G1 X71.106 Y143.096 E48.99653
G1 X70.032 Y142.356 E49.15141
G1 X68.977 Y141.590 E49.30628
G1 X67.941 Y140.797 E49.46115
G1 X66.926 Y139.978 E49.61602
G1 X65.932 Y139.134 E49.77089
G1 X64.959 Y138.266 E49.92577
G1 X64.009 Y137.373 E50.08064
G1 X63.081 Y136.457 E50.23551
G1 X62.176 Y135.518 E50.39038
G1 X61.296 Y134.556 E50.54525
G1 X60.440 Y133.572 E50.70012
G1 X59.611 Y132.570 E50.85458
G1 X58.408 Y131.019 E51.08771
G1 X57.643 Y129.967 E51.24217
G1 X56.903 Y128.893 E51.39704
G1 X56.191 Y127.801 E51.55191
G1 X55.506 Y126.691 E51.70678
G1 X54.849 Y125.565 E51.86166
G1 X54.221 Y124.422 E52.01653
G1 X53.622 Y123.264 E52.17140
G1 X53.052 Y122.091 E52.32627
G1 X52.512 Y120.904 E52.48114
G1 X52.001 Y119.704 E52.63602
G1 X51.521 Y118.492 E52.79089
G1 X51.072 Y117.268 E52.94576
G1 X50.653 Y116.033 E53.10063
G1 X50.266 Y114.787 E53.25550
G1 X49.910 Y113.533 E53.41037
G1 X49.586 Y112.270 E53.56525
G1 X49.293 Y110.999 E53.72012
G1 X49.033 Y109.721 E53.87499
G1 X48.805 Y108.437 E54.02986
G1 X48.609 Y107.148 E54.18473
G1 X48.446 Y105.854 E54.33961
G1 X48.315 Y104.557 E54.49448
G1 X48.217 Y103.257 E54.64935
G1 X48.151 Y101.954 E54.80422
G1 X48.118 Y100.651 E54.95909
G1 X48.118 Y99.348 E55.11380
G1 X48.151 Y98.044 E55.26867
G1 X48.217 Y96.742 E55.42354
G1 X48.315 Y95.442 E55.57841
G1 X48.446 Y94.144 E55.73328
G1 X48.609 Y92.851 E55.88815
G1 X48.805 Y91.561 E56.04302
G1 X49.033 Y90.278 E56.19789
G1 X49.293 Y89.003 E56.35234
G1 X49.745 Y87.093 E56.58547
G1 X50.084 Y85.838 E56.73992
G1 X50.456 Y84.588 E56.89479
G1 X50.859 Y83.348 E57.04966
G1 X51.293 Y82.118 E57.20453
G1 X51.758 Y80.900 E57.35940
G1 X52.253 Y79.693 E57.51427
G1 X52.778 Y78.500 E57.66914
G1 X53.334 Y77.320 E57.82401
G1 X53.918 Y76.154 E57.97888
G1 X54.532 Y75.004 E58.13375
G1 X55.175 Y73.869 E58.28862
G1 X55.846 Y72.751 E58.44349
G1 X56.544 Y71.650 E58.59836
G1 X57.268 Y70.570 E58.75281
G1 X58.412 Y68.974 E58.98594
G1 X59.203 Y67.942 E59.14039
G1 X60.021 Y66.927 E59.29526
G1 X60.865 Y65.933 E59.45013
G1 X61.734 Y64.960 E59.60500
G1 X62.626 Y64.009 E59.75987
G1 X63.542 Y63.081 E59.91474
G1 X64.482 Y62.177 E60.06961
G1 X65.443 Y61.296 E60.22448
G1 X66.427 Y60.440 E60.37935
G1 X67.432 Y59.609 E60.53422
G1 X68.457 Y58.803 E60.68909
G1 X69.502 Y58.024 E60.84396
G1 X70.567 Y57.270 E60.99883
G1 X71.647 Y56.546 E61.15328
G1 X73.311 Y55.505 E61.38641
G1 X74.434 Y54.850 E61.54086
G1 X75.577 Y54.222 E61.69573
