; generated by PrusaSlicer 2.1.1+ on 2021-04-03 at 23:42:15 UTC

; 

; external perimeters extrusion width = 0.45mm
; perimeters extrusion width = 0.45mm
; infill extrusion width = 0.45mm
; solid infill extrusion width = 0.45mm
; top infill extrusion width = 0.40mm
; first layer extrusion width = 0.80mm

M107
M190 S60 ; set bed temperature and wait for it to be reached
M104 S200 ; set temperature
G28 ; home all axes
G1 Z5 F5000 ; lift nozzle
M109 S200 ; set temperature and wait for it to be reached
G21 ; set units to millimeters
G90 ; use absolute coordinates
M82 ; use absolute distances for extrusion
G92 E0
; Filament gcode
G1 Z0.400 F7800.000
G1 E-2.00000 F2400.00000
G92 E0
G1 X58.363 Y58.826 F7800.000
G1 E2.00000 F2400.00000
G1 F1800
G1 X60.458 Y56.810 E2.34524
G1 X62.678 Y54.878 E2.69478
G1 X64.987 Y53.064 E3.04359
G1 X67.390 Y51.364 E3.39312
G1 X69.875 Y49.787 E3.74267
G1 X72.436 Y48.336 E4.09221
G1 X75.066 Y47.017 E4.44176
G1 X77.725 Y45.845 E4.78685
G1 X80.510 Y44.782 E5.14083
G1 X83.273 Y43.883 E5.48593
G1 X86.050 Y43.129 E5.82769
G1 X88.346 Y42.614 E6.10712
G1 X91.208 Y42.107 E6.45237
G1 X94.128 Y41.738 E6.80190
G1 X97.057 Y41.517 E7.15072
G1 X100.004 Y41.443 E7.50082
G1 X102.946 Y41.517 E7.85034
G1 X105.874 Y41.738 E8.19915
G1 X108.794 Y42.107 E8.54869
G1 X111.655 Y42.615 E8.89378
G1 X114.554 Y43.280 E9.24701
G1 X117.293 Y44.055 E9.58506
G1 X119.522 Y44.793 E9.86389
G1 X122.276 Y45.845 E10.21404
G1 X124.936 Y47.018 E10.55927
G1 X127.566 Y48.337 E10.90881
G1 X130.122 Y49.784 E11.25761
G1 X132.607 Y51.361 E11.60714
G1 X135.010 Y53.061 E11.95667
G1 X137.324 Y54.879 E12.30621
G1 X139.544 Y56.812 E12.65575
G1 X141.637 Y58.827 E13.00085
G1 X143.214 Y60.484 E13.27250
G1 X145.144 Y62.705 E13.62203
G1 X146.940 Y64.991 E13.96727
G1 X148.659 Y67.424 E14.32111
G1 X150.216 Y69.879 E14.66633
G1 X151.666 Y72.440 E15.01588
G1 X152.983 Y75.065 E15.36466
G1 X154.169 Y77.759 E15.71420
G1 X155.218 Y80.509 E16.06373
G1 X156.117 Y83.272 E16.40884
G1 X156.886 Y86.112 E16.75837
G1 X157.385 Y88.345 E17.03000
G1 X157.893 Y91.207 E17.37524
G1 X158.262 Y94.127 E17.72478
G1 X158.483 Y97.055 E18.07358
G1 X158.557 Y99.997 E18.42312
G1 X158.483 Y102.939 E18.77264
G1 X158.262 Y105.874 E19.12217
G1 X157.893 Y108.794 E19.47171
G1 X157.385 Y111.655 E19.81682
G1 X156.718 Y114.560 E20.17079
G1 X155.926 Y117.356 E20.51588
G1 X155.205 Y119.526 E20.78753
G1 X154.155 Y122.276 E21.13707
G1 X152.983 Y124.936 E21.48230
G1 X151.663 Y127.566 E21.83184
G1 X150.216 Y130.122 E22.18062
G1 X148.639 Y132.607 E22.53016
G1 X146.939 Y135.009 E22.87969
G1 X145.121 Y137.324 E23.22924
G1 X143.188 Y139.543 E23.57877
G1 X141.174 Y141.637 E23.92387
G1 X139.030 Y143.653 E24.27340
G1 X137.295 Y145.144 E24.54505
G1 X135.009 Y146.939 E24.89028
G1 X132.576 Y148.659 E25.24414
G1 X130.121 Y150.216 E25.58936
G1 X127.560 Y151.666 E25.93888
G1 X124.935 Y152.983 E26.28766
G1 X122.241 Y154.169 E26.63721
G1 X119.492 Y155.218 E26.98675
G1 X116.693 Y156.127 E27.33627
G1 X113.852 Y156.895 E27.68582
G1 X111.012 Y157.512 E28.03091
G1 X108.109 Y157.993 E28.38045
G1 X105.838 Y158.265 E28.65210
G1 X102.939 Y158.483 E28.99733
G1 X99.997 Y158.557 E29.34686
G1 X97.061 Y158.483 E29.69565
G1 X94.126 Y158.262 E30.04521
G1 X91.206 Y157.893 E30.39473
G1 X88.345 Y157.385 E30.73983
G1 X85.447 Y156.720 E31.09304
G1 X82.708 Y155.945 E31.43110
G1 X80.479 Y155.207 E31.70994
G1 X77.725 Y154.155 E32.06009
G1 X75.065 Y152.983 E32.40532
G1 X72.434 Y151.663 E32.75485
G1 X69.878 Y150.216 E33.10366
G1 X67.393 Y148.639 E33.45318
G1 X64.991 Y146.939 E33.80271
G1 X62.677 Y145.121 E34.15225
G1 X60.457 Y143.189 E34.50178
G1 X58.363 Y141.174 E34.84688
G1 X56.347 Y139.030 E35.19641
G1 X54.856 Y137.295 E35.46806
G1 X53.061 Y135.009 E35.81329
G1 X51.344 Y132.580 E36.16654
G1 X49.784 Y130.121 E36.51238
G1 X48.334 Y127.560 E36.86193
G1 X47.017 Y124.935 E37.21073
G1 X45.831 Y122.241 E37.56027
G1 X44.782 Y119.491 E37.90982
G1 X43.883 Y116.728 E38.25491
G1 X43.273 Y114.524 E38.52657
G1 X42.615 Y111.655 E38.87610
G1 X42.107 Y108.793 E39.22135
G1 X41.738 Y105.873 E39.57089
G1 X41.517 Y102.938 E39.92043
G1 X41.443 Y100.002 E40.26924
G1 X41.517 Y97.060 E40.61877
G1 X41.738 Y94.125 E40.96832
G1 X42.107 Y91.206 E41.31786
G1 X42.615 Y88.344 E41.66297
G1 X43.114 Y86.112 E41.93462
G1 X43.883 Y83.271 E42.28416
G1 X44.783 Y80.507 E42.62940
G1 X45.832 Y77.757 E42.97893
G1 X47.015 Y75.069 E43.32774
G1 X48.335 Y72.439 E43.67728
G1 X49.785 Y69.878 E44.02683
G1 X51.341 Y67.424 E44.37193
G1 X52.650 Y65.548 E44.64358
G1 X54.441 Y63.213 E44.99312
G1 X56.323 Y60.997 E45.33835
G1 X58.322 Y58.870 E45.68507
G1 E43.68507 F2400.00000
G92 E0
G1 X134.448 Y136.746 F7800.000
G1 E2.00000 F2400.00000
G1 F1800
G1 X133.073 Y137.993 E2.22038
G1 X132.108 Y138.812 E2.37073
G1 X131.123 Y139.606 E2.52108
G1 X130.118 Y140.376 E2.67143
G1 X129.093 Y141.120 E2.82178
G1 X128.051 Y141.838 E2.97213
G1 X126.995 Y142.527 E3.12180
G1 X125.363 Y143.520 E3.34868
G1 X124.267 Y144.141 E3.49834
G1 X123.150 Y144.737 E3.64869
G1 X122.018 Y145.304 E3.79904
G1 X120.873 Y145.843 E3.94939
G1 X119.714 Y146.353 E4.09974
G1 X118.549 Y146.832 E4.24941
G1 X116.759 Y147.502 E4.47629
G1 X115.566 Y147.906 E4.62595
G1 X114.357 Y148.282 E4.77630
G1 X113.139 Y148.628 E4.92665
G1 X111.913 Y148.943 E5.07700
G1 X110.679 Y149.226 E5.22735
G1 X109.439 Y149.479 E5.37770
G1 X108.193 Y149.701 E5.52805
G1 X106.941 Y149.891 E5.67840
G1 X105.685 Y150.050 E5.82875
G1 X104.426 Y150.177 E5.97910
G1 X103.163 Y150.272 E6.12945
G1 X101.899 Y150.336 E6.27979
G1 X100.633 Y150.368 E6.43015
G1 X99.367 Y150.368 E6.58049
G1 X98.102 Y150.336 E6.73084
G1 X96.837 Y150.272 E6.88119
G1 X95.575 Y150.177 E7.03154
G1 X94.316 Y150.050 E7.18189
G1 X93.060 Y149.891 E7.33224
G1 X91.808 Y149.701 E7.48259
G1 X90.562 Y149.479 E7.63294
G1 X89.321 Y149.227 E7.78329
G1 X88.088 Y148.943 E7.93364
G1 X86.861 Y148.628 E8.08399
G1 X85.644 Y148.282 E8.23434
G1 X84.435 Y147.906 E8.38469
G1 X83.236 Y147.500 E8.53503
G1 X82.047 Y147.064 E8.68538
G1 X80.870 Y146.598 E8.83573
G1 X79.711 Y146.105 E8.98540
G1 X77.977 Y145.302 E9.21228
G1 X76.851 Y144.737 E9.36195
G1 X75.734 Y144.141 E9.51230
G1 X74.632 Y143.517 E9.66265
G1 X73.547 Y142.866 E9.81299
G1 X72.478 Y142.188 E9.96334
G1 X71.426 Y141.483 E10.11369
G1 X70.393 Y140.752 E10.26404
G1 X69.378 Y139.995 E10.41439
G1 X68.383 Y139.213 E10.56474
G1 X67.407 Y138.406 E10.71509
G1 X66.452 Y137.575 E10.86544
G1 X65.519 Y136.720 E11.01579
G1 X64.607 Y135.841 E11.16614
G1 X63.717 Y134.941 E11.31649
G1 X62.851 Y134.018 E11.46684
G1 X62.008 Y133.074 E11.61719
G1 X61.188 Y132.108 E11.76754
G1 X60.394 Y131.123 E11.91789
G1 X59.624 Y130.118 E12.06824
G1 X58.880 Y129.094 E12.21859
G1 X58.162 Y128.051 E12.36898
G1 X57.508 Y127.050 E12.51095
G1 X56.480 Y125.363 E12.74559
G1 X55.859 Y124.267 E12.89517
G1 X55.263 Y123.150 E13.04552
G1 X54.696 Y122.018 E13.19587
G1 X54.157 Y120.873 E13.34622
G1 X53.647 Y119.714 E13.49658
G1 X53.168 Y118.549 E13.64625
G1 X52.498 Y116.759 E13.87313
G1 X52.094 Y115.566 E14.02280
G1 X51.718 Y114.357 E14.17315
G1 X51.372 Y113.139 E14.32350
G1 X51.057 Y111.913 E14.47386
G1 X50.774 Y110.679 E14.62421
G1 X50.521 Y109.439 E14.77456
G1 X50.299 Y108.192 E14.92491
G1 X50.109 Y106.941 E15.07527
G1 X49.950 Y105.685 E15.22562
G1 X49.823 Y104.425 E15.37597
G1 X49.728 Y103.163 E15.52632
G1 X49.664 Y101.898 E15.67667
G1 X49.632 Y100.633 E15.82703
G1 X49.632 Y99.367 E15.97738
G1 X49.664 Y98.101 E16.12773
G1 X49.728 Y96.837 E16.27808
G1 X49.823 Y95.575 E16.42844
G1 X49.950 Y94.315 E16.57879
G1 X50.109 Y93.059 E16.72914
G1 X50.298 Y91.813 E16.87881
G1 X50.644 Y89.934 E17.10569
G1 X50.912 Y88.703 E17.25536
G1 X51.211 Y87.473 E17.40571
G1 X51.541 Y86.251 E17.55607
G1 X51.902 Y85.037 E17.70642
G1 X52.293 Y83.833 E17.85677
G1 X52.715 Y82.639 E18.00712
G1 X53.166 Y81.457 E18.15748
G1 X53.647 Y80.286 E18.30783
G1 X54.157 Y79.127 E18.45818
G1 X54.693 Y77.987 E18.60785
G1 X55.561 Y76.284 E18.83473
G1 X56.168 Y75.180 E18.98440
G1 X56.805 Y74.086 E19.13476
G1 X57.470 Y73.009 E19.28511
G1 X58.162 Y71.949 E19.43546
G1 X58.880 Y70.906 E19.58581
G1 X59.624 Y69.882 E19.73616
G1 X60.394 Y68.877 E19.88652
G1 X61.188 Y67.892 E20.03687
G1 X62.008 Y66.926 E20.18722
G1 X62.851 Y65.982 E20.33757
G1 X63.717 Y65.059 E20.48792
G1 X64.607 Y64.158 E20.63828
G1 X65.519 Y63.280 E20.78863
G1 X66.453 Y62.425 E20.93898
G1 X67.407 Y61.594 E21.08933
G1 X68.383 Y60.787 E21.23969
G1 X69.378 Y60.005 E21.39004
G1 X70.393 Y59.248 E21.54039
G1 X71.426 Y58.517 E21.69074
G1 X72.478 Y57.812 E21.84109
G1 X73.547 Y57.134 E21.99145
G1 X74.632 Y56.482 E22.14180
G1 X75.734 Y55.859 E22.29215
G1 X76.851 Y55.263 E22.44250
G1 X77.983 Y54.695 E22.59285
G1 X79.123 Y54.159 E22.74252
G1 X80.876 Y53.400 E22.96941
G1 X82.048 Y52.936 E23.11908
G1 X83.236 Y52.500 E23.26943
G1 X84.435 Y52.094 E23.41978
G1 X85.644 Y51.717 E23.57013
G1 X86.862 Y51.372 E23.72049
G1 X88.088 Y51.057 E23.87084
G1 X89.322 Y50.773 E24.02119
G1 X90.562 Y50.520 E24.17154
G1 X91.809 Y50.299 E24.32189
G1 X93.060 Y50.109 E24.47225
G1 X94.316 Y49.950 E24.62260
G1 X95.576 Y49.823 E24.77295
G1 X96.838 Y49.728 E24.92330
G1 X98.103 Y49.664 E25.07366
G1 X99.369 Y49.632 E25.22404
G1 X100.563 Y49.632 E25.36585
G1 X102.537 Y49.692 E25.60049
G1 X103.794 Y49.772 E25.75007
G1 X105.055 Y49.883 E25.90042
G1 X106.313 Y50.026 E26.05077
G1 X107.567 Y50.200 E26.20112
G1 X108.816 Y50.406 E26.35147
G1 X110.060 Y50.643 E26.50182
G1 X111.297 Y50.912 E26.65217
G1 X112.527 Y51.211 E26.80252
G1 X113.749 Y51.541 E26.95287
G1 X114.962 Y51.902 E27.10321
G1 X116.166 Y52.293 E27.25357
G1 X117.360 Y52.715 E27.40391
G1 X118.543 Y53.166 E27.55426
G1 X119.714 Y53.647 E27.70461
G1 X120.873 Y54.157 E27.85496
G1 X122.018 Y54.696 E28.00531
G1 X123.150 Y55.263 E28.15566
G1 X124.267 Y55.859 E28.30601
G1 X125.368 Y56.483 E28.45636
G1 X126.454 Y57.134 E28.60671
G1 X127.523 Y57.813 E28.75710
G1 X128.516 Y58.478 E28.89906
G1 X130.123 Y59.628 E29.13370
G1 X131.123 Y60.393 E29.28328
G1 X132.108 Y61.188 E29.43363
G1 X133.073 Y62.007 E29.58398
G1 X134.018 Y62.850 E29.73433
G1 X134.940 Y63.717 E29.88468
G1 X135.841 Y64.606 E30.03503
G1 X136.719 Y65.518 E30.18538
G1 X137.574 Y66.452 E30.33573
G1 X138.405 Y67.407 E30.48608
G1 X139.212 Y68.382 E30.63643
G1 X139.995 Y69.378 E30.78678
G1 X140.751 Y70.392 E30.93713
G1 X141.483 Y71.426 E31.08747
G1 X142.188 Y72.477 E31.23783
G1 X142.866 Y73.546 E31.38818
G1 X143.517 Y74.632 E31.53852
G1 X144.141 Y75.733 E31.68887
G1 X144.737 Y76.850 E31.83922
G1 X145.304 Y77.982 E31.98957
G1 X145.843 Y79.127 E32.13992
G1 X146.353 Y80.286 E32.29027
G1 X146.834 Y81.457 E32.44062
G1 X147.285 Y82.640 E32.59097
G1 X147.707 Y83.834 E32.74132
G1 X148.098 Y85.038 E32.89167
G1 X148.457 Y86.245 E33.04133
G1 X148.944 Y88.093 E33.26821
G1 X149.226 Y89.321 E33.41788
G1 X149.479 Y90.561 E33.56823
G1 X149.701 Y91.808 E33.71858
G1 X149.891 Y93.059 E33.86893
G1 X150.050 Y94.315 E34.01928
G1 X150.177 Y95.575 E34.16963
G1 X150.272 Y96.837 E34.31998
G1 X150.336 Y98.101 E34.47033
G1 X150.368 Y99.367 E34.62068
G1 X150.368 Y100.633 E34.77102
G1 X150.336 Y101.898 E34.92137
G1 X150.272 Y103.163 E35.07172
G1 X150.177 Y104.425 E35.22207
G1 X150.050 Y105.685 E35.37242
G1 X149.891 Y106.941 E35.52277
G1 X149.701 Y108.192 E35.67312
G1 X149.479 Y109.439 E35.82347
G1 X149.227 Y110.679 E35.97382
G1 X148.943 Y111.913 E36.12417
G1 X148.628 Y113.139 E36.27452
G1 X148.282 Y114.357 E36.42487
G1 X147.906 Y115.566 E36.57522
G1 X147.500 Y116.765 E36.72556
G1 X147.064 Y117.953 E36.87591
G1 X146.598 Y119.130 E37.02626
G1 X146.102 Y120.295 E37.17661
G1 X145.578 Y121.447 E37.32696
G1 X145.024 Y122.586 E37.47731
G1 X144.442 Y123.710 E37.62766
G1 X143.833 Y124.819 E37.77801
G1 X143.195 Y125.913 E37.92836
G1 X142.533 Y126.985 E38.07803
G1 X141.479 Y128.579 E38.30491
G1 X140.752 Y129.607 E38.45457
G1 X139.995 Y130.622 E38.60492
G1 X139.212 Y131.618 E38.75527
G1 X138.406 Y132.593 E38.90562
G1 X137.574 Y133.548 E39.05597
G1 X136.719 Y134.482 E39.20632
G1 X135.841 Y135.393 E39.35667
G1 X134.491 Y136.705 E39.58018
G1 X134.937 Y137.266 F7800.000
G1 F1800
G1 X133.542 Y138.531 E39.80376
G1 X132.563 Y139.362 E39.95624
G1 X131.564 Y140.168 E40.10872
G1 X130.545 Y140.949 E40.26120
G1 X129.506 Y141.703 E40.41368
G1 X128.449 Y142.431 E40.56616
G1 X127.376 Y143.131 E40.71823
G1 X125.725 Y144.136 E40.94777
G1 X124.611 Y144.767 E41.09984
G1 X123.478 Y145.371 E41.25232
G1 X122.331 Y145.947 E41.40480
G1 X121.169 Y146.493 E41.55728
G1 X119.994 Y147.011 E41.70976
G1 X118.809 Y147.497 E41.86183
G1 X116.999 Y148.174 E42.09137
G1 X115.787 Y148.585 E42.24344
G1 X114.561 Y148.967 E42.39592
G1 X113.326 Y149.317 E42.54840
G1 X112.082 Y149.636 E42.70088
G1 X110.831 Y149.924 E42.85336
G1 X109.573 Y150.181 E43.00584
G1 X108.309 Y150.406 E43.15832
G1 X107.039 Y150.598 E43.31080
G1 X105.766 Y150.759 E43.46329
G1 X104.488 Y150.888 E43.61577
G1 X103.208 Y150.985 E43.76825
G1 X101.926 Y151.049 E43.92073
G1 X100.642 Y151.082 E44.07321
G1 X99.358 Y151.082 E44.22569
G1 X98.075 Y151.049 E44.37817
G1 X96.793 Y150.985 E44.53065
G1 X95.512 Y150.888 E44.68313
G1 X94.235 Y150.759 E44.83562
G1 X92.961 Y150.599 E44.98810
G1 X91.692 Y150.406 E45.14058
G1 X90.428 Y150.181 E45.29306
G1 X89.170 Y149.925 E45.44554
G1 X87.919 Y149.637 E45.59802
G1 X86.675 Y149.317 E45.75050
G1 X85.440 Y148.967 E45.90298
G1 X84.214 Y148.586 E46.05546
G1 X82.998 Y148.174 E46.20794
G1 X81.793 Y147.731 E46.36043
G1 X80.599 Y147.258 E46.51291
G1 X79.421 Y146.757 E46.66497
G1 X77.667 Y145.945 E46.89452
G1 X76.522 Y145.371 E47.04658
G1 X75.390 Y144.767 E47.19906
G1 X74.272 Y144.134 E47.35154
G1 X73.171 Y143.474 E47.50403
G1 X72.087 Y142.786 E47.65651
G1 X71.021 Y142.071 E47.80899
G1 X69.973 Y141.330 E47.96147
G1 X68.944 Y140.562 E48.11395
G1 X67.934 Y139.769 E48.26643
G1 X66.945 Y138.950 E48.41891
G1 X65.977 Y138.107 E48.57139
G1 X65.030 Y137.240 E48.72387
G1 X64.105 Y136.350 E48.87636
G1 X63.203 Y135.436 E49.02884
G1 X62.324 Y134.500 E49.18132
G1 X61.469 Y133.543 E49.33380
G1 X60.638 Y132.564 E49.48628
G1 X59.832 Y131.564 E49.63877
G1 X59.052 Y130.545 E49.79125
G1 X58.297 Y129.506 E49.94373
G1 X57.569 Y128.449 E50.09624
G1 X56.904 Y127.431 E50.24057
G1 X55.864 Y125.725 E50.47789
G1 X55.233 Y124.611 E50.62990
G1 X54.629 Y123.478 E50.78239
G1 X54.053 Y122.331 E50.93487
G1 X53.507 Y121.169 E51.08735
G1 X52.989 Y119.994 E51.23984
G1 X52.503 Y118.809 E51.39191
G1 X51.826 Y116.999 E51.62145
G1 X51.415 Y115.787 E51.77352
G1 X51.033 Y114.561 E51.92601
G1 X50.683 Y113.325 E52.07849
G1 X50.363 Y112.082 E52.23097
G1 X50.076 Y110.831 E52.38346
G1 X49.819 Y109.573 E52.53594
G1 X49.594 Y108.308 E52.68843
G1 X49.402 Y107.039 E52.84091
G1 X49.241 Y105.765 E52.99339
G1 X49.112 Y104.488 E53.14588
G1 X49.015 Y103.208 E53.29836
G1 X48.951 Y101.925 E53.45085
G1 X48.918 Y100.642 E53.60333
G1 X48.918 Y99.358 E53.75581
G1 X48.951 Y98.074 E53.90830
G1 X49.015 Y96.792 E54.06078
G1 X49.112 Y95.512 E54.21327
G1 X49.241 Y94.234 E54.36575
G1 X49.402 Y92.961 E54.51823
G1 X49.594 Y91.695 E54.67030
G1 X49.944 Y89.794 E54.89985
G1 X50.216 Y88.543 E55.05192
G1 X50.519 Y87.295 E55.20440
G1 X50.854 Y86.056 E55.35689
G1 X51.220 Y84.825 E55.50937
G1 X51.617 Y83.604 E55.66186
G1 X52.044 Y82.393 E55.81434
G1 X52.502 Y81.194 E55.96682
G1 X52.989 Y80.006 E56.11931
G1 X53.507 Y78.831 E56.27179
G1 X54.052 Y77.672 E56.42386
G1 X54.929 Y75.950 E56.65341
G1 X55.546 Y74.828 E56.80548
G1 X56.193 Y73.719 E56.95796
G1 X56.867 Y72.626 E57.11044
G1 X57.569 Y71.551 E57.26293
G1 X58.297 Y70.494 E57.41541
G1 X59.052 Y69.455 E57.56790
G1 X59.832 Y68.436 E57.72038
G1 X60.638 Y67.436 E57.87286
G1 X61.469 Y66.457 E58.02535
G1 X62.324 Y65.500 E58.17783
G1 X63.203 Y64.564 E58.33032
G1 X64.105 Y63.650 E58.48280
G1 X65.030 Y62.760 E58.63528
G1 X65.977 Y61.893 E58.78777
G1 X66.945 Y61.050 E58.94025
G1 X67.935 Y60.231 E59.09274
G1 X68.944 Y59.438 E59.24522
G1 X69.973 Y58.670 E59.39770
G1 X71.021 Y57.929 E59.55019
G1 X72.088 Y57.214 E59.70267
G1 X73.172 Y56.526 E59.85516
G1 X74.273 Y55.865 E60.00764
G1 X75.390 Y55.233 E60.16012
G1 X76.523 Y54.628 E60.31261
G1 X77.670 Y54.053 E60.46509
G1 X78.829 Y53.508 E60.61716
G1 X80.603 Y52.740 E60.84671
G1 X81.793 Y52.269 E60.99878
