; generated by PrusaSlicer 2.1.1+ on 2021-03-20 at 13:36:26 UTC

; 

; external perimeters extrusion width = 0.45mm
; perimeters extrusion width = 0.45mm
; infill extrusion width = 0.45mm
; solid infill extrusion width = 0.45mm
; top infill extrusion width = 0.40mm
; first layer extrusion width = 0.80mm

M107
M190 S60 ; set bed temperature and wait for it to be reached
M104 S200 ; set temperature
G28 ; home all axes
G1 Z5 F5000 ; lift nozzle
M109 S200 ; set temperature and wait for it to be reached
G21 ; set units to millimeters
G90 ; use absolute coordinates
M82 ; use absolute distances for extrusion
G92 E0
; Filament gcode
G1 Z0.400 F7800.000
G1 E-2.00000 F2400.00000
G92 E0
G1 X58.826 Y58.363 F7800.000
G1 E2.00000 F2400.00000
G1 F1800
G1 X60.484 Y56.787 E2.27165
G1 X62.705 Y54.856 E2.62119
G1 X64.991 Y53.061 E2.96641
G1 X67.420 Y51.344 E3.31965
G1 X69.879 Y49.784 E3.66548
G1 X72.440 Y48.334 E4.01501
G1 X75.065 Y47.017 E4.36381
G1 X77.759 Y45.831 E4.71336
G1 X80.508 Y44.782 E5.06289
G1 X83.307 Y43.873 E5.41242
G1 X86.148 Y43.105 E5.76195
G1 X88.988 Y42.488 E6.10706
G1 X91.891 Y42.007 E6.45658
G1 X94.163 Y41.735 E6.72824
G1 X97.061 Y41.517 E7.07346
G1 X100.003 Y41.443 E7.42301
G1 X102.939 Y41.517 E7.77180
G1 X105.874 Y41.738 E8.12133
G1 X108.794 Y42.107 E8.47086
G1 X111.655 Y42.615 E8.81597
G1 X114.554 Y43.280 E9.16920
G1 X117.292 Y44.055 E9.50724
G1 X119.521 Y44.793 E9.78607
G1 X122.275 Y45.845 E10.13622
G1 X124.935 Y47.017 E10.48144
G1 X127.566 Y48.337 E10.83098
G1 X130.127 Y49.787 E11.18052
G1 X132.606 Y51.361 E11.52931
G1 X135.009 Y53.061 E11.87884
G1 X137.323 Y54.879 E12.22838
G1 X139.543 Y56.811 E12.57792
G1 X141.637 Y58.826 E12.92301
G1 X143.213 Y60.484 E13.19467
G1 X145.144 Y62.705 E13.54420
G1 X146.939 Y64.991 E13.88942
G1 X148.656 Y67.420 E14.24267
G1 X150.216 Y69.879 E14.58851
G1 X151.666 Y72.440 E14.93805
G1 X152.983 Y75.065 E15.28686
G1 X154.169 Y77.759 E15.63641
G1 X155.218 Y80.509 E15.98596
G1 X156.117 Y83.272 E16.33106
G1 X156.727 Y85.476 E16.60271
G1 X157.385 Y88.345 E16.95223
G1 X157.893 Y91.207 E17.29748
G1 X158.262 Y94.127 E17.64703
G1 X158.483 Y97.062 E17.99657
G1 X158.557 Y99.998 E18.34538
G1 X158.483 Y102.940 E18.69491
G1 X158.262 Y105.875 E19.04446
G1 X157.893 Y108.794 E19.39400
G1 X157.385 Y111.656 E19.73910
G1 X156.886 Y113.888 E20.01076
G1 X156.117 Y116.729 E20.36030
G1 X155.217 Y119.493 E20.70553
G1 X154.168 Y122.243 E21.05506
G1 X152.985 Y124.931 E21.40388
G1 X151.665 Y127.561 E21.75342
G1 X150.215 Y130.122 E22.10294
G1 X148.659 Y132.576 E22.44806
G1 X147.350 Y134.452 E22.71972
G1 X145.559 Y136.787 E23.06926
G1 X143.677 Y139.003 E23.41450
G1 X141.637 Y141.174 E23.76834
G1 X139.542 Y143.190 E24.11358
G1 X137.322 Y145.122 E24.46312
G1 X135.013 Y146.936 E24.81192
G1 X132.610 Y148.636 E25.16146
G1 X130.125 Y150.213 E25.51101
G1 X127.564 Y151.664 E25.86056
G1 X124.934 Y152.983 E26.21009
G1 X122.275 Y154.155 E26.55519
G1 X119.526 Y155.206 E26.90472
G1 X117.354 Y155.926 E27.17639
G1 X114.558 Y156.719 E27.52163
G1 X111.659 Y157.385 E27.87485
G1 X108.792 Y157.893 E28.22070
G1 X105.872 Y158.262 E28.57024
G1 X102.937 Y158.483 E28.91979
G1 X100.002 Y158.557 E29.26842
G1 X97.060 Y158.483 E29.61793
G1 X94.126 Y158.262 E29.96749
G1 X91.206 Y157.893 E30.31702
G1 X88.345 Y157.385 E30.66212
G1 X86.113 Y156.886 E30.93376
G1 X83.277 Y156.118 E31.28269
G1 X80.508 Y155.218 E31.62854
G1 X77.758 Y154.168 E31.97806
G1 X75.070 Y152.985 E32.32687
G1 X72.439 Y151.666 E32.67640
G1 X69.878 Y150.216 E33.02595
G1 X67.424 Y148.659 E33.37104
G1 X64.990 Y146.939 E33.72501
G1 X62.705 Y145.144 E34.07010
G1 X60.484 Y143.214 E34.41964
G1 X58.827 Y141.637 E34.69130
G1 X56.811 Y139.543 E35.03653
G1 X54.879 Y137.323 E35.38606
G1 X53.064 Y135.014 E35.73486
G1 X51.364 Y132.611 E36.08441
G1 X49.787 Y130.126 E36.43393
G1 X48.337 Y127.565 E36.78347
G1 X47.017 Y124.935 E37.13301
G1 X45.845 Y122.276 E37.47810
G1 X44.784 Y119.497 E37.83133
G1 X43.902 Y116.791 E38.16938
G1 X43.274 Y114.529 E38.44821
G1 X42.615 Y111.655 E38.79835
G1 X42.107 Y108.793 E39.14359
G1 X41.738 Y105.873 E39.49312
G1 X41.517 Y102.945 E39.84192
G1 X41.443 Y100.003 E40.19146
G1 X41.517 Y97.061 E40.54098
G1 X41.738 Y94.126 E40.89052
G1 X42.107 Y91.206 E41.24006
G1 X42.615 Y88.345 E41.58516
G1 X43.257 Y85.540 E41.92690
G1 X43.883 Y83.272 E42.20633
G1 X44.782 Y80.508 E42.55157
G1 X45.843 Y77.729 E42.90479
G1 X47.017 Y75.064 E43.25064
G1 X48.337 Y72.434 E43.60017
G1 X49.784 Y69.878 E43.94897
G1 X51.361 Y67.393 E44.29850
G1 X53.065 Y64.986 E44.64878
G1 X54.879 Y62.676 E44.99758
G1 X56.811 Y60.457 E45.34710
G1 X58.785 Y58.406 E45.68508
G1 E43.68508 F2400.00000
G92 E0
G1 X136.746 Y134.448 F7800.000
G1 E2.00000 F2400.00000
G1 F1800
G1 X135.393 Y135.842 E2.23070
G1 X134.481 Y136.720 E2.38105
G1 X133.552 Y137.571 E2.53072
G1 X132.103 Y138.816 E2.75761
G1 X131.122 Y139.607 E2.90728
G1 X130.117 Y140.377 E3.05763
G1 X129.093 Y141.121 E3.20798
G1 X128.050 Y141.839 E3.35833
G1 X126.990 Y142.531 E3.50868
G1 X125.912 Y143.195 E3.65904
G1 X124.819 Y143.833 E3.80939
G1 X123.709 Y144.443 E3.95974
G1 X122.585 Y145.025 E4.11009
G1 X121.446 Y145.578 E4.26045
G1 X120.294 Y146.102 E4.41080
G1 X119.129 Y146.598 E4.56115
G1 X117.952 Y147.064 E4.71150
G1 X116.764 Y147.500 E4.86185
G1 X115.565 Y147.906 E5.01220
G1 X114.356 Y148.283 E5.16256
G1 X113.138 Y148.628 E5.31291
G1 X111.912 Y148.943 E5.46326
G1 X110.678 Y149.227 E5.61361
G1 X109.438 Y149.480 E5.76397
G1 X108.191 Y149.701 E5.91432
G1 X106.940 Y149.891 E6.06467
G1 X105.684 Y150.050 E6.21502
G1 X104.424 Y150.177 E6.36537
G1 X103.162 Y150.272 E6.51573
G1 X101.897 Y150.336 E6.66608
G1 X100.632 Y150.368 E6.81643
G1 X99.367 Y150.368 E6.96663
G1 X98.101 Y150.336 E7.11698
G1 X96.837 Y150.272 E7.26733
G1 X95.575 Y150.177 E7.41768
G1 X94.321 Y150.050 E7.56734
G1 X92.427 Y149.799 E7.79422
G1 X91.184 Y149.594 E7.94389
G1 X89.940 Y149.357 E8.09424
G1 X88.703 Y149.088 E8.24459
G1 X87.473 Y148.789 E8.39494
G1 X86.251 Y148.459 E8.54529
G1 X85.038 Y148.098 E8.69564
G1 X83.834 Y147.707 E8.84599
G1 X82.640 Y147.285 E8.99634
G1 X81.457 Y146.834 E9.14669
G1 X80.286 Y146.353 E9.29704
G1 X79.127 Y145.843 E9.44739
G1 X77.982 Y145.304 E9.59774
G1 X76.850 Y144.737 E9.74809
G1 X75.733 Y144.141 E9.89844
G1 X74.632 Y143.517 E10.04879
G1 X73.546 Y142.866 E10.19914
G1 X72.477 Y142.188 E10.34949
G1 X71.426 Y141.483 E10.49984
G1 X70.392 Y140.751 E10.65019
G1 X69.382 Y139.998 E10.79986
G1 X67.888 Y138.808 E11.02674
G1 X66.927 Y137.993 E11.17641
G1 X65.982 Y137.150 E11.32675
G1 X65.060 Y136.283 E11.47710
G1 X64.159 Y135.394 E11.62746
G1 X63.281 Y134.482 E11.77780
G1 X62.426 Y133.548 E11.92815
G1 X61.595 Y132.593 E12.07850
G1 X60.788 Y131.618 E12.22885
G1 X60.005 Y130.622 E12.37920
G1 X59.249 Y129.608 E12.52955
G1 X58.517 Y128.574 E12.67990
G1 X57.812 Y127.523 E12.83025
G1 X57.134 Y126.454 E12.98060
G1 X56.483 Y125.368 E13.13095
G1 X55.859 Y124.267 E13.28130
G1 X55.263 Y123.150 E13.43165
G1 X54.696 Y122.018 E13.58200
G1 X54.157 Y120.873 E13.73235
G1 X53.646 Y119.714 E13.88273
G1 X53.192 Y118.608 E14.02470
G1 X52.498 Y116.759 E14.25933
G1 X52.094 Y115.566 E14.40891
G1 X51.718 Y114.357 E14.55926
G1 X51.372 Y113.139 E14.70961
G1 X51.057 Y111.913 E14.85996
G1 X50.774 Y110.679 E15.01031
G1 X50.521 Y109.439 E15.16066
G1 X50.299 Y108.192 E15.31101
G1 X50.109 Y106.941 E15.46136
G1 X49.950 Y105.685 E15.61171
G1 X49.823 Y104.425 E15.76205
G1 X49.728 Y103.163 E15.91240
G1 X49.664 Y101.899 E16.06275
G1 X49.632 Y100.633 E16.21310
G1 X49.632 Y99.367 E16.36345
G1 X49.664 Y98.102 E16.51380
G1 X49.728 Y96.843 E16.66347
G1 X49.883 Y94.939 E16.89035
G1 X50.026 Y93.687 E17.04002
G1 X50.200 Y92.433 E17.19036
G1 X50.406 Y91.184 E17.34071
G1 X50.643 Y89.940 E17.49106
G1 X50.912 Y88.703 E17.64141
G1 X51.211 Y87.473 E17.79176
G1 X51.541 Y86.251 E17.94211
G1 X51.902 Y85.038 E18.09246
G1 X52.293 Y83.834 E18.24281
G1 X52.714 Y82.640 E18.39316
G1 X53.166 Y81.457 E18.54351
G1 X53.646 Y80.286 E18.69386
G1 X54.157 Y79.127 E18.84421
G1 X54.696 Y77.982 E18.99456
G1 X55.263 Y76.850 E19.14494
G1 X55.826 Y75.795 E19.28690
G1 X56.808 Y74.082 E19.52154
G1 X57.470 Y73.010 E19.67112
G1 X58.162 Y71.949 E19.82147
G1 X58.880 Y70.907 E19.97182
G1 X59.624 Y69.883 E20.12217
G1 X60.393 Y68.878 E20.27251
G1 X61.188 Y67.892 E20.42286
G1 X62.007 Y66.927 E20.57321
G1 X62.850 Y65.983 E20.72356
G1 X63.717 Y65.060 E20.87391
G1 X64.606 Y64.159 E21.02426
G1 X65.518 Y63.281 E21.17461
G1 X66.452 Y62.426 E21.32496
G1 X67.407 Y61.595 E21.47531
G1 X68.382 Y60.788 E21.62566
G1 X69.377 Y60.006 E21.77601
G1 X70.392 Y59.249 E21.92636
G1 X71.426 Y58.517 E22.07674
G1 X72.418 Y57.851 E22.21871
G1 X74.092 Y56.802 E22.45334
G1 X75.180 Y56.168 E22.60292
G1 X76.290 Y55.558 E22.75327
G1 X77.414 Y54.976 E22.90362
G1 X78.553 Y54.423 E23.05397
G1 X79.705 Y53.898 E23.20431
G1 X80.870 Y53.403 E23.35466
G1 X82.047 Y52.937 E23.50501
G1 X83.235 Y52.500 E23.65536
G1 X84.434 Y52.094 E23.80571
G1 X85.643 Y51.718 E23.95606
G1 X86.861 Y51.372 E24.10641
G1 X88.087 Y51.057 E24.25676
G1 X89.321 Y50.774 E24.40711
G1 X90.561 Y50.521 E24.55746
G1 X91.807 Y50.299 E24.70781
G1 X93.059 Y50.109 E24.85816
G1 X94.315 Y49.950 E25.00850
G1 X95.574 Y49.823 E25.15885
G1 X96.837 Y49.728 E25.30920
G1 X98.101 Y49.664 E25.45955
G1 X99.367 Y49.632 E25.60994
G1 X100.562 Y49.632 E25.75190
G1 X102.537 Y49.692 E25.98653
G1 X103.794 Y49.772 E26.13611
G1 X105.055 Y49.883 E26.28646
G1 X106.313 Y50.026 E26.43681
G1 X107.567 Y50.200 E26.58716
G1 X108.816 Y50.406 E26.73751
G1 X110.059 Y50.643 E26.88786
G1 X111.296 Y50.911 E27.03821
G1 X112.527 Y51.211 E27.18856
G1 X113.749 Y51.541 E27.33891
G1 X114.962 Y51.902 E27.48926
G1 X116.166 Y52.293 E27.63961
G1 X117.360 Y52.714 E27.78996
G1 X118.543 Y53.166 E27.94031
G1 X119.708 Y53.644 E28.08997
G1 X121.452 Y54.425 E28.31685
G1 X122.585 Y54.976 E28.46652
G1 X123.710 Y55.557 E28.61687
G1 X124.819 Y56.167 E28.76722
G1 X125.913 Y56.805 E28.91757
G1 X126.990 Y57.470 E29.06792
G1 X128.050 Y58.161 E29.21827
G1 X129.093 Y58.879 E29.36861
G1 X130.117 Y59.624 E29.51896
G1 X131.122 Y60.393 E29.66931
G1 X132.108 Y61.188 E29.81966
G1 X133.073 Y62.007 E29.97001
G1 X134.017 Y62.850 E30.12036
G1 X134.940 Y63.717 E30.27071
G1 X135.841 Y64.606 E30.42106
G1 X136.719 Y65.518 E30.57141
G1 X137.574 Y66.452 E30.72176
G1 X138.405 Y67.406 E30.87211
G1 X139.212 Y68.382 E31.02246
G1 X139.994 Y69.377 E31.17281
G1 X140.751 Y70.392 E31.32317
G1 X141.482 Y71.425 E31.47352
G1 X142.184 Y72.472 E31.62319
G1 X143.198 Y74.092 E31.85007
G1 X143.832 Y75.180 E31.99974
G1 X144.442 Y76.290 E32.15009
G1 X145.024 Y77.414 E32.30045
G1 X145.577 Y78.553 E32.45080
G1 X146.102 Y79.705 E32.60115
G1 X146.597 Y80.870 E32.75150
G1 X147.064 Y82.047 E32.90185
G1 X147.500 Y83.235 E33.05221
G1 X147.906 Y84.434 E33.20256
G1 X148.282 Y85.643 E33.35291
G1 X148.628 Y86.861 E33.50326
G1 X148.943 Y88.087 E33.65361
G1 X149.226 Y89.321 E33.80397
G1 X149.479 Y90.561 E33.95432
G1 X149.701 Y91.808 E34.10467
G1 X149.891 Y93.059 E34.25502
G1 X150.050 Y94.315 E34.40538
G1 X150.177 Y95.575 E34.55573
G1 X150.272 Y96.837 E34.70608
G1 X150.336 Y98.102 E34.85643
G1 X150.368 Y99.367 E35.00678
G1 X150.368 Y100.633 E35.15714
G1 X150.336 Y101.899 E35.30749
G1 X150.272 Y103.163 E35.45784
G1 X150.177 Y104.425 E35.60819
G1 X150.050 Y105.685 E35.75854
G1 X149.891 Y106.941 E35.90890
G1 X149.701 Y108.192 E36.05925
G1 X149.479 Y109.439 E36.20960
G1 X149.226 Y110.679 E36.35995
G1 X148.943 Y111.913 E36.51030
G1 X148.628 Y113.139 E36.66066
G1 X148.282 Y114.357 E36.81101
G1 X147.906 Y115.566 E36.96136
G1 X147.500 Y116.765 E37.11171
G1 X147.065 Y117.948 E37.26138
G1 X146.351 Y119.720 E37.48827
G1 X145.843 Y120.873 E37.63794
G1 X145.304 Y122.019 E37.78829
G1 X144.737 Y123.150 E37.93864
G1 X144.141 Y124.267 E38.08899
G1 X143.517 Y125.369 E38.23935
G1 X142.866 Y126.454 E38.38970
G1 X142.187 Y127.523 E38.54009
G1 X141.522 Y128.516 E38.68205
G1 X140.372 Y130.123 E38.91669
G1 X139.606 Y131.123 E39.06627
G1 X138.812 Y132.109 E39.21663
G1 X137.992 Y133.074 E39.36698
G1 X136.787 Y134.404 E39.58018
G1 X137.266 Y134.936 F7800.000
G1 F1800
G1 X135.895 Y136.350 E39.81407
G1 X134.970 Y137.240 E39.96656
G1 X134.026 Y138.105 E40.11862
G1 X132.560 Y139.365 E40.34818
G1 X131.563 Y140.169 E40.50024
G1 X130.544 Y140.949 E40.65273
G1 X129.505 Y141.704 E40.80521
G1 X128.448 Y142.432 E40.95769
G1 X127.372 Y143.134 E41.11018
G1 X126.280 Y143.808 E41.26266
G1 X125.171 Y144.454 E41.41515
G1 X124.045 Y145.073 E41.56763
G1 X122.905 Y145.663 E41.72011
G1 X121.750 Y146.224 E41.87260
G1 X120.582 Y146.756 E42.02508
G1 X119.400 Y147.259 E42.17757
G1 X118.207 Y147.731 E42.33005
G1 X117.001 Y148.174 E42.48253
G1 X115.785 Y148.586 E42.63502
G1 X114.559 Y148.967 E42.78750
G1 X113.324 Y149.318 E42.93999
G1 X112.081 Y149.637 E43.09247
G1 X110.829 Y149.925 E43.24495
G1 X109.571 Y150.181 E43.39744
G1 X108.307 Y150.406 E43.54992
G1 X107.038 Y150.599 E43.70241
G1 X105.764 Y150.760 E43.85489
G1 X104.487 Y150.888 E44.00737
G1 X103.206 Y150.985 E44.15986
G1 X101.924 Y151.049 E44.31234
G1 X100.641 Y151.082 E44.46483
G1 X99.358 Y151.082 E44.61715
G1 X98.075 Y151.049 E44.76963
G1 X96.792 Y150.985 E44.92211
G1 X95.512 Y150.888 E45.07460
G1 X94.238 Y150.760 E45.22666
G1 X92.322 Y150.505 E45.45621
G1 X91.059 Y150.297 E45.60827
G1 X89.798 Y150.057 E45.76076
G1 X88.543 Y149.784 E45.91324
G1 X87.295 Y149.481 E46.06572
G1 X86.056 Y149.146 E46.21820
G1 X84.825 Y148.780 E46.37068
G1 X83.604 Y148.383 E46.52316
G1 X82.394 Y147.956 E46.67564
G1 X81.194 Y147.498 E46.82812
G1 X80.006 Y147.011 E46.98061
G1 X78.831 Y146.493 E47.13309
G1 X77.670 Y145.947 E47.28557
G1 X76.522 Y145.371 E47.43805
G1 X75.389 Y144.767 E47.59053
G1 X74.272 Y144.134 E47.74302
G1 X73.171 Y143.474 E47.89550
G1 X72.087 Y142.786 E48.04798
G1 X71.021 Y142.071 E48.20046
G1 X69.973 Y141.329 E48.35294
G1 X68.946 Y140.564 E48.50501
G1 X67.434 Y139.360 E48.73455
G1 X66.458 Y138.531 E48.88662
G1 X65.500 Y137.676 E49.03910
G1 X64.564 Y136.798 E49.19158
G1 X63.651 Y135.895 E49.34407
G1 X62.760 Y134.971 E49.49655
G1 X61.893 Y134.024 E49.64903
G1 X61.050 Y133.055 E49.80151
G1 X60.232 Y132.066 E49.95399
G1 X59.438 Y131.057 E50.10647
G1 X58.671 Y130.027 E50.25896
G1 X57.929 Y128.979 E50.41144
G1 X57.214 Y127.913 E50.56392
G1 X56.526 Y126.829 E50.71640
G1 X55.866 Y125.728 E50.86888
G1 X55.233 Y124.611 E51.02136
G1 X54.629 Y123.478 E51.17384
G1 X54.053 Y122.330 E51.32632
G1 X53.507 Y121.169 E51.47881
G1 X52.989 Y119.993 E51.63131
G1 X52.527 Y118.869 E51.77564
G1 X51.825 Y116.999 E52.01295
G1 X51.415 Y115.786 E52.16496
G1 X51.033 Y114.560 E52.31744
G1 X50.683 Y113.325 E52.46992
G1 X50.363 Y112.082 E52.62240
G1 X50.076 Y110.831 E52.77488
G1 X49.819 Y109.573 E52.92737
G1 X49.594 Y108.308 E53.07985
G1 X49.402 Y107.039 E53.23233
G1 X49.241 Y105.765 E53.38481
G1 X49.112 Y104.488 E53.53729
G1 X49.015 Y103.208 E53.68977
G1 X48.951 Y101.925 E53.84225
G1 X48.918 Y100.642 E53.99473
G1 X48.918 Y99.358 E54.14721
G1 X48.951 Y98.075 E54.29969
G1 X49.015 Y96.796 E54.45176
G1 X49.173 Y94.870 E54.68131
G1 X49.317 Y93.597 E54.83337
G1 X49.494 Y92.326 E54.98585
G1 X49.703 Y91.059 E55.13833
G1 X49.943 Y89.798 E55.29081
G1 X50.216 Y88.543 E55.44329
G1 X50.519 Y87.296 E55.59578
G1 X50.854 Y86.056 E55.74826
G1 X51.220 Y84.826 E55.90074
G1 X51.617 Y83.604 E56.05322
G1 X52.044 Y82.394 E56.20570
G1 X52.502 Y81.194 E56.35818
G1 X52.989 Y80.007 E56.51066
G1 X53.506 Y78.831 E56.66314
G1 X54.053 Y77.670 E56.81562
G1 X54.629 Y76.522 E56.96813
G1 X55.201 Y75.450 E57.11246
G1 X56.195 Y73.716 E57.34977
G1 X56.867 Y72.627 E57.50178
G1 X57.568 Y71.552 E57.65426
G1 X58.297 Y70.494 E57.80674
G1 X59.051 Y69.456 E57.95922
G1 X59.832 Y68.436 E58.11170
G1 X60.638 Y67.437 E58.26418
G1 X61.468 Y66.458 E58.41666
G1 X62.323 Y65.500 E58.56915
G1 X63.202 Y64.564 E58.72163
G1 X64.104 Y63.651 E58.87411
G1 X65.029 Y62.760 E59.02659
G1 X65.976 Y61.893 E59.17907
G1 X66.944 Y61.050 E59.33155
G1 X67.934 Y60.232 E59.48403
G1 X68.943 Y59.439 E59.63651
G1 X69.972 Y58.671 E59.78899
G1 X71.021 Y57.929 E59.94150
G1 X72.030 Y57.252 E60.08583
G1 X73.723 Y56.191 E60.32314
G1 X74.828 Y55.546 E60.47515
G1 X75.954 Y54.928 E60.62763
G1 X77.094 Y54.338 E60.78011
