; generated by PrusaSlicer 2.1.1+ on 2021-01-30 at 12:48:27 UTC

; 

; external perimeters extrusion width = 0.45mm
; perimeters extrusion width = 0.45mm
; infill extrusion width = 0.45mm
; solid infill extrusion width = 0.45mm
; top infill extrusion width = 0.40mm
; first layer extrusion width = 0.80mm

M107
M190 S60 ; set bed temperature and wait for it to be reached
M104 S200 ; set temperature
G28 ; home all axes
G1 Z5 F5000 ; lift nozzle
M109 S200 ; set temperature and wait for it to be reached
G21 ; set units to millimeters
G90 ; use absolute coordinates
M82 ; use absolute distances for extrusion
G92 E0
; Filament gcode
G1 Z0.400 F7800.000
G1 E-2.00000 F2400.00000
G92 E0
G1 X65.409 Y65.424 F7800.000
G1 E2.00000 F2400.00000
G1 F1800
G1 X67.148 Y63.768 E2.28524
G1 X68.967 Y62.200 E2.57045
G1 X70.860 Y60.722 E2.85568
G1 X72.825 Y59.339 E3.14104
G1 X74.856 Y58.053 E3.42654
G1 X76.947 Y56.869 E3.71193
G1 X79.093 Y55.789 E3.99719
G1 X81.288 Y54.816 E4.28237
G1 X83.528 Y53.952 E4.56751
G1 X85.806 Y53.200 E4.85249
G1 X88.118 Y52.560 E5.13740
G1 X90.460 Y52.035 E5.42236
G1 X92.825 Y51.625 E5.70747
G1 X95.209 Y51.333 E5.99270
G1 X97.606 Y51.158 E6.27813
G1 X100.004 Y51.103 E6.56306
G1 X102.416 Y51.169 E6.84965
G1 X104.806 Y51.354 E7.13432
G1 X107.192 Y51.656 E7.41992
G1 X109.544 Y52.070 E7.70357
G1 X111.876 Y52.598 E7.98758
G1 X114.186 Y53.238 E8.27221
G1 X116.456 Y53.986 E8.55613
G1 X118.701 Y54.848 E8.84171
G1 X120.881 Y55.808 E9.12465
G1 X123.033 Y56.884 E9.41034
G1 X125.128 Y58.064 E9.69589
G1 X127.166 Y59.350 E9.98209
G1 X129.133 Y60.738 E10.26800
G1 X131.024 Y62.219 E10.55324
G1 X132.839 Y63.790 E10.83835
G1 X134.571 Y65.442 E11.12266
G1 X136.225 Y67.176 E11.40722
G1 X137.795 Y68.990 E11.69221
G1 X139.275 Y70.879 E11.97716
G1 X140.662 Y72.845 E12.26292
G1 X141.951 Y74.883 E12.54932
G1 X143.127 Y76.969 E12.83368
G1 X144.202 Y79.114 E13.11870
G1 X145.170 Y81.304 E13.40299
G1 X146.034 Y83.538 E13.68754
G1 X146.791 Y85.815 E13.97253
G1 X147.435 Y88.127 E14.25750
G1 X147.964 Y90.474 E14.54328
G1 X148.374 Y92.851 E14.82974
G1 X148.662 Y95.230 E15.11429
G1 X148.832 Y97.626 E15.39966
G1 X148.885 Y100.011 E15.68298
G1 X148.822 Y102.417 E15.96878
G1 X148.645 Y104.803 E16.25293
G1 X148.353 Y107.183 E16.53778
G1 X147.946 Y109.548 E16.82269
G1 X147.429 Y111.879 E17.10631
G1 X146.794 Y114.198 E17.39184
G1 X146.046 Y116.481 E17.67718
G1 X145.181 Y118.729 E17.96318
G1 X144.202 Y120.933 E18.24969
G1 X143.116 Y123.076 E18.53501
G1 X141.926 Y125.164 E18.82041
G1 X140.641 Y127.181 E19.10450
G1 X139.255 Y129.142 E19.38963
G1 X137.780 Y131.027 E19.67397
G1 X136.214 Y132.840 E19.95844
G1 X134.561 Y134.576 E20.24313
G1 X132.824 Y136.230 E20.52806
G1 X131.007 Y137.797 E20.81294
G1 X129.116 Y139.273 E21.09780
G1 X127.155 Y140.654 E21.38270
G1 X125.128 Y141.938 E21.66768
G1 X123.041 Y143.120 E21.95259
G1 X120.898 Y144.199 E22.23746
G1 X118.705 Y145.171 E22.52237
G1 X116.466 Y146.034 E22.80736
G1 X114.188 Y146.787 E23.09226
G1 X111.877 Y147.427 E23.37711
G1 X109.537 Y147.953 E23.66200
G1 X107.173 Y148.363 E23.94693
G1 X104.794 Y148.657 E24.23164
G1 X102.405 Y148.836 E24.51615
G1 X99.999 Y148.899 E24.80201
G1 X97.617 Y148.846 E25.08496
G1 X95.219 Y148.676 E25.37050
G1 X92.833 Y148.388 E25.65586
G1 X90.460 Y147.979 E25.94186
G1 X88.107 Y147.448 E26.22837
G1 X85.793 Y146.801 E26.51369
G1 X83.514 Y146.041 E26.79908
G1 X81.296 Y145.179 E27.08166
G1 X79.097 Y144.201 E27.36745
G1 X76.961 Y143.124 E27.65160
G1 X74.873 Y141.943 E27.93643
G1 X72.850 Y140.667 E28.22058
G1 X70.889 Y139.294 E28.50488
G1 X68.990 Y137.822 E28.79021
G1 X67.168 Y136.260 E29.07518
G1 X65.414 Y134.599 E29.36211
G1 X63.760 Y132.868 E29.64651
G1 X62.191 Y131.052 E29.93152
G1 X60.711 Y129.157 E30.21705
G1 X59.327 Y127.193 E30.50245
G1 X58.042 Y125.163 E30.78779
G1 X56.858 Y123.072 E31.07318
G1 X55.779 Y120.923 E31.35868
G1 X54.811 Y118.728 E31.64365
G1 X53.948 Y116.474 E31.93026
G1 X53.204 Y114.195 E32.21498
G1 X52.570 Y111.875 E32.50069
G1 X52.053 Y109.542 E32.78453
G1 X51.647 Y107.183 E33.06879
G1 X51.355 Y104.802 E33.35364
G1 X51.178 Y102.417 E33.63773
G1 X51.115 Y100.013 E33.92335
G1 X51.168 Y97.632 E34.20616
G1 X51.336 Y95.235 E34.49149
G1 X51.622 Y92.853 E34.77646
G1 X52.027 Y90.484 E35.06192
G1 X52.548 Y88.140 E35.34705
G1 X53.188 Y85.821 E35.63279
G1 X53.941 Y83.538 E35.91831
G1 X54.802 Y81.301 E36.20294
G1 X55.778 Y79.100 E36.48897
G1 X56.858 Y76.955 E36.77415
G1 X58.041 Y74.866 E37.05927
G1 X59.325 Y72.837 E37.34443
G1 X60.708 Y70.874 E37.62966
G1 X62.186 Y68.981 E37.91481
G1 X63.754 Y67.163 E38.19992
G1 X65.368 Y65.468 E38.47795
G1 E36.47795 F2400.00000
G92 E0
G1 X128.920 Y128.633 F7800.000
G1 E2.00000 F2400.00000
G1 F1800
G1 X127.327 Y130.165 E2.26249
G1 X125.814 Y131.469 E2.49971
G1 X124.240 Y132.698 E2.73692
G1 X122.607 Y133.848 E2.97411
G1 X120.920 Y134.916 E3.21131
G1 X119.182 Y135.901 E3.44851
G1 X117.398 Y136.799 E3.68573
G1 X115.572 Y137.608 E3.92292
G1 X113.709 Y138.327 E4.16011
G1 X111.812 Y138.953 E4.39732
G1 X109.887 Y139.486 E4.63454
G1 X107.938 Y139.924 E4.87174
G1 X105.970 Y140.266 E5.10897
G1 X103.987 Y140.511 E5.34629
G1 X101.994 Y140.660 E5.58370
G1 X99.995 Y140.713 E5.82118
G1 X97.996 Y140.669 E6.05862
G1 X96.003 Y140.528 E6.29590
G1 X94.022 Y140.289 E6.53295
G1 X92.057 Y139.950 E6.76980
G1 X90.111 Y139.511 E7.00664
G1 X88.189 Y138.974 E7.24370
G1 X86.294 Y138.342 E7.48099
G1 X84.430 Y137.617 E7.71844
G1 X82.603 Y136.804 E7.95596
G1 X80.817 Y135.903 E8.19349
G1 X79.076 Y134.919 E8.43102
G1 X77.385 Y133.852 E8.66855
G1 X75.747 Y132.705 E8.90604
G1 X74.167 Y131.480 E9.14345
G1 X72.649 Y130.180 E9.38072
G1 X71.199 Y128.808 E9.61786
G1 X69.820 Y127.364 E9.85500
G1 X68.514 Y125.853 E10.09223
G1 X67.284 Y124.278 E10.32956
G1 X66.133 Y122.644 E10.56694
G1 X65.063 Y120.955 E10.80432
G1 X64.079 Y119.216 E11.04165
G1 X63.183 Y117.431 E11.27889
G1 X62.377 Y115.604 E11.51603
G1 X61.664 Y113.739 E11.75317
G1 X61.044 Y111.840 E11.99044
G1 X60.517 Y109.912 E12.22784
G1 X60.084 Y107.960 E12.46534
G1 X59.746 Y105.988 E12.70286
G1 X59.502 Y104.003 E12.94040
G1 X59.354 Y102.009 E13.17794
G1 X59.301 Y100.009 E13.41547
G1 X59.345 Y98.010 E13.65296
G1 X59.485 Y96.016 E13.89037
G1 X59.723 Y94.033 E14.12764
G1 X60.059 Y92.064 E14.36478
G1 X60.492 Y90.115 E14.60192
G1 X61.023 Y88.190 E14.83916
G1 X61.649 Y86.292 E15.07649
G1 X62.368 Y84.427 E15.31388
G1 X63.178 Y82.599 E15.55130
G1 X64.077 Y80.813 E15.78875
G1 X65.063 Y79.074 E16.02620
G1 X66.132 Y77.385 E16.26363
G1 X67.283 Y75.750 E16.50106
G1 X68.513 Y74.174 E16.73851
G1 X69.819 Y72.660 E16.97596
G1 X71.198 Y71.212 E17.21340
G1 X72.646 Y69.834 E17.45083
G1 X74.160 Y68.528 E17.68830
G1 X75.737 Y67.297 E17.92583
G1 X77.372 Y66.146 E18.16342
G1 X79.063 Y65.075 E18.40110
G1 X80.805 Y64.089 E18.63883
G1 X82.593 Y63.189 E18.87650
G1 X84.421 Y62.379 E19.11401
G1 X86.285 Y61.660 E19.35134
G1 X88.182 Y61.034 E19.58855
G1 X90.107 Y60.501 E19.82572
G1 X92.055 Y60.064 E20.06291
G1 X94.024 Y59.723 E20.30015
G1 X96.007 Y59.480 E20.53742
G1 X97.997 Y59.335 E20.77447
G1 X100.063 Y59.291 E21.01989
G1 X101.991 Y59.344 E21.24891
G1 X103.983 Y59.498 E21.48616
G1 X105.965 Y59.749 E21.72350
G1 X107.933 Y60.096 E21.96085
G1 X109.882 Y60.537 E22.19814
G1 X111.807 Y61.071 E22.43541
G1 X113.705 Y61.696 E22.67271
G1 X115.571 Y62.412 E22.91012
G1 X117.402 Y63.218 E23.14765
G1 X119.191 Y64.112 E23.38516
G1 X120.932 Y65.092 E23.62249
G1 X122.620 Y66.158 E23.85960
G1 X124.251 Y67.309 E24.09664
G1 X125.823 Y68.541 E24.33388
G1 X127.335 Y69.850 E24.57139
G1 X128.783 Y71.231 E24.80912
G1 X130.165 Y72.680 E25.04684
G1 X131.474 Y74.191 E25.28433
G1 X132.706 Y75.763 E25.52150
G1 X133.856 Y77.393 E25.75840
G1 X134.922 Y79.079 E25.99530
G1 X135.902 Y80.819 E26.23247
G1 X136.798 Y82.606 E26.46996
G1 X137.607 Y84.437 E26.70769
G1 X138.329 Y86.304 E26.94541
G1 X138.960 Y88.201 E27.18290
G1 X139.497 Y90.125 E27.42006
G1 X139.936 Y92.071 E27.65695
G1 X140.274 Y94.036 E27.89381
G1 X140.514 Y96.018 E28.13087
G1 X140.655 Y98.011 E28.36816
G1 X140.699 Y100.010 E28.60562
G1 X140.646 Y102.009 E28.84313
G1 X140.498 Y104.003 E29.08066
G1 X140.254 Y105.988 E29.31819
G1 X139.916 Y107.959 E29.55571
G1 X139.483 Y109.911 E29.79316
G1 X138.956 Y111.838 E30.03045
G1 X138.334 Y113.735 E30.26750
G1 X137.618 Y115.596 E30.50435
G1 X136.808 Y117.419 E30.74120
G1 X135.906 Y119.199 E30.97825
G1 X134.917 Y120.935 E31.21553
G1 X133.843 Y122.621 E31.45297
G1 X132.688 Y124.254 E31.69045
G1 X131.457 Y125.828 E31.92786
G1 X130.151 Y127.341 E32.16519
G1 X128.962 Y128.590 E32.36998
G1 X129.438 Y129.126 F7800.000
G1 F1800
G1 X127.806 Y130.694 E32.63871
G1 X126.267 Y132.021 E32.88009
G1 X124.665 Y133.272 E33.12146
G1 X123.004 Y134.442 E33.36282
G1 X121.287 Y135.529 E33.60418
G1 X119.518 Y136.531 E33.84555
G1 X117.703 Y137.445 E34.08692
G1 X115.845 Y138.268 E34.32828
G1 X113.949 Y139.000 E34.56964
G1 X112.019 Y139.637 E34.81101
G1 X110.061 Y140.179 E35.05239
G1 X108.078 Y140.625 E35.29375
G1 X106.075 Y140.972 E35.53513
G1 X104.058 Y141.222 E35.77658
G1 X102.030 Y141.374 E36.01810
G1 X99.997 Y141.427 E36.25966
G1 X97.963 Y141.383 E36.50122
G1 X95.935 Y141.239 E36.74267
G1 X93.918 Y140.995 E36.98397
G1 X91.917 Y140.650 E37.22513
G1 X89.936 Y140.203 E37.46629
G1 X87.980 Y139.657 E37.70759
G1 X86.051 Y139.013 E37.94905
G1 X84.155 Y138.277 E38.19061
G1 X82.297 Y137.449 E38.43221
G1 X80.480 Y136.533 E38.67381
G1 X78.710 Y135.532 E38.91540
G1 X76.989 Y134.446 E39.15701
G1 X75.323 Y133.280 E39.39860
G1 X73.715 Y132.034 E39.64014
G1 X72.171 Y130.711 E39.88159
G1 X70.695 Y129.314 E40.12296
G1 X69.291 Y127.845 E40.36435
G1 X67.962 Y126.307 E40.60581
G1 X66.710 Y124.704 E40.84734
G1 X65.539 Y123.041 E41.08890
G1 X64.451 Y121.322 E41.33047
G1 X63.449 Y119.553 E41.57200
G1 X62.537 Y117.736 E41.81346
G1 X61.716 Y115.876 E42.05485
G1 X60.990 Y113.978 E42.29622
G1 X60.359 Y112.045 E42.53767
G1 X59.823 Y110.083 E42.77921
G1 X59.383 Y108.097 E43.02080
G1 X59.039 Y106.092 E43.26241
G1 X58.791 Y104.073 E43.50401
G1 X58.640 Y102.045 E43.74561
G1 X58.587 Y100.011 E43.98721
G1 X58.631 Y97.977 E44.22880
G1 X58.774 Y95.949 E44.47034
G1 X59.016 Y93.930 E44.71179
G1 X59.358 Y91.927 E44.95317
G1 X59.799 Y89.943 E45.19455
G1 X60.340 Y87.983 E45.43602
G1 X60.977 Y86.051 E45.67755
G1 X61.708 Y84.153 E45.91912
G1 X62.533 Y82.294 E46.16072
G1 X63.447 Y80.477 E46.40232
G1 X64.450 Y78.706 E46.64394
G1 X65.538 Y76.988 E46.88553
G1 X66.710 Y75.325 E47.12713
G1 X67.961 Y73.721 E47.36875
G1 X69.290 Y72.180 E47.61036
G1 X70.693 Y70.707 E47.85196
G1 X72.166 Y69.304 E48.09356
G1 X73.707 Y67.976 E48.33520
G1 X75.311 Y66.724 E48.57689
G1 X76.976 Y65.552 E48.81865
G1 X78.696 Y64.463 E49.06050
G1 X80.468 Y63.459 E49.30239
G1 X82.287 Y62.544 E49.54421
G1 X84.148 Y61.719 E49.78589
G1 X86.045 Y60.987 E50.02738
G1 X87.975 Y60.350 E50.26877
G1 X89.933 Y59.808 E50.51010
G1 X91.916 Y59.363 E50.75146
G1 X93.919 Y59.016 E50.99289
G1 X95.937 Y58.769 E51.23435
G1 X97.964 Y58.621 E51.47568
G1 X100.065 Y58.577 E51.72535
G1 X102.028 Y58.631 E51.95853
G1 X104.055 Y58.787 E52.19997
G1 X106.072 Y59.043 E52.44143
G1 X108.074 Y59.396 E52.68288
G1 X110.056 Y59.844 E52.92425
G1 X112.014 Y60.387 E53.16558
G1 X113.945 Y61.023 E53.40695
G1 X115.843 Y61.752 E53.64844
G1 X117.705 Y62.571 E53.89008
G1 X119.526 Y63.481 E54.13175
G1 X121.298 Y64.479 E54.37333
G1 X123.017 Y65.564 E54.61474
G1 X124.677 Y66.735 E54.85608
G1 X126.278 Y67.989 E55.09754
G1 X127.815 Y69.321 E55.33916
G1 X129.289 Y70.726 E55.58093
G1 X130.694 Y72.199 E55.82270
G1 X132.025 Y73.737 E56.06431
G1 X133.279 Y75.337 E56.30569
G1 X134.450 Y76.996 E56.54688
G1 X135.535 Y78.713 E56.78807
G1 X136.533 Y80.483 E57.02945
G1 X137.444 Y82.302 E57.27105
G1 X138.267 Y84.164 E57.51282
G1 X139.002 Y86.062 E57.75459
G1 X139.644 Y87.993 E57.99619
G1 X140.190 Y89.950 E58.23757
G1 X140.636 Y91.931 E58.47875
G1 X140.981 Y93.932 E58.71992
G1 X141.225 Y95.950 E58.96122
G1 X141.369 Y97.978 E59.20268
G1 X141.413 Y100.011 E59.44425
G1 X141.360 Y102.045 E59.68584
G1 X141.209 Y104.073 E59.92744
G1 X140.961 Y106.092 E60.16903
G1 X140.617 Y108.097 E60.41063
G1 X140.176 Y110.083 E60.65219
G1 X139.640 Y112.044 E60.89365
G1 X139.007 Y113.975 E61.13495
G1 X138.278 Y115.870 E61.37611
G1 X137.454 Y117.725 E61.61727
G1 X136.536 Y119.538 E61.85857
G1 X135.528 Y121.304 E62.10003
G1 X134.436 Y123.019 E62.34159
G1 X133.261 Y124.680 E62.58315
G1 X132.009 Y126.282 E62.82467
G1 X130.680 Y127.821 E63.06612
G1 X129.479 Y129.082 E63.27298
G1 X129.955 Y129.618 F7800.000
G1 F1800
G1 X128.286 Y131.223 E63.54796
G1 X126.721 Y132.574 E63.79349
G1 X125.091 Y133.846 E64.03902
G1 X123.401 Y135.036 E64.28455
G1 X121.654 Y136.142 E64.53008
G1 X119.855 Y137.161 E64.77561
G1 X118.009 Y138.090 E65.02114
G1 X116.119 Y138.928 E65.26667
G1 X114.190 Y139.672 E65.51219
G1 X112.227 Y140.321 E65.75773
G1 X110.234 Y140.872 E66.00326
G1 X108.217 Y141.325 E66.24879
G1 X106.180 Y141.679 E66.49432
G1 X104.128 Y141.933 E66.73990
G1 X102.066 Y142.087 E66.98551
G1 X99.998 Y142.142 E67.23118
G1 X97.930 Y142.096 E67.47685
G1 X95.867 Y141.950 E67.72248
G1 X93.815 Y141.702 E67.96802
G1 X91.778 Y141.351 E68.21349
G1 X89.762 Y140.896 E68.45896
G1 X87.770 Y140.340 E68.70451
G1 X85.808 Y139.685 E68.95013
G1 X83.880 Y138.936 E69.19581
G1 X81.991 Y138.094 E69.44149
G1 X80.144 Y137.163 E69.68715
G1 X78.343 Y136.145 E69.93281
G1 X76.594 Y135.041 E70.17849
G1 X74.899 Y133.855 E70.42418
G1 X73.264 Y132.588 E70.66985
G1 X71.693 Y131.242 E70.91549
G1 X70.191 Y129.820 E71.16110
G1 X68.763 Y128.325 E71.40673
G1 X67.410 Y126.760 E71.65241
G1 X66.136 Y125.130 E71.89814
G1 X64.945 Y123.438 E72.14389
G1 X63.838 Y121.690 E72.38965
G1 X62.819 Y119.889 E72.63538
G1 X61.890 Y118.040 E72.88106
G1 X61.056 Y116.148 E73.12669
G1 X60.317 Y114.216 E73.37230
G1 X59.675 Y112.250 E73.61794
G1 X59.130 Y110.255 E73.86361
G1 X58.682 Y108.235 E74.10930
G1 X58.332 Y106.196 E74.35497
G1 X58.080 Y104.143 E74.60064
G1 X57.927 Y102.080 E74.84630
G1 X57.872 Y100.013 E75.09198
G1 X57.918 Y97.944 E75.33767
G1 X58.063 Y95.881 E75.58334
G1 X58.309 Y93.827 E75.82898
G1 X58.657 Y91.789 E76.07459
G1 X59.106 Y89.770 E76.32022
G1 X59.656 Y87.776 E76.56590
G1 X60.304 Y85.811 E76.81163
G1 X61.048 Y83.880 E77.05739
G1 X61.887 Y81.988 E77.30315
G1 X62.817 Y80.140 E77.54893
G1 X63.837 Y78.339 E77.79470
G1 X64.944 Y76.591 E78.04047
G1 X66.136 Y74.899 E78.28623
G1 X67.409 Y73.268 E78.53201
G1 X68.761 Y71.701 E78.77778
G1 X70.187 Y70.202 E79.02355
G1 X71.686 Y68.775 E79.26932
G1 X73.254 Y67.423 E79.51512
G1 X74.886 Y66.150 E79.76098
G1 X76.579 Y64.958 E80.00691
G1 X78.329 Y63.850 E80.25293
G1 X80.132 Y62.829 E80.49897
G1 X81.982 Y61.898 E80.74495
G1 X83.874 Y61.059 E80.99080
G1 X85.804 Y60.315 E81.23646
G1 X87.767 Y59.666 E81.48201
G1 X89.760 Y59.115 E81.72751
G1 X91.777 Y58.663 E81.97304
G1 X93.815 Y58.310 E82.21865
G1 X95.868 Y58.058 E82.46431
G1 X97.930 Y57.908 E82.70993
G1 X100.068 Y57.863 E82.96384
G1 X102.065 Y57.917 E83.20119
G1 X104.127 Y58.077 E83.44680
G1 X106.179 Y58.336 E83.69239
G1 X108.215 Y58.695 E83.93793
G1 X110.231 Y59.151 E84.18337
G1 X112.222 Y59.703 E84.42877
G1 X114.184 Y60.350 E84.67422
G1 X116.115 Y61.091 E84.91979
G1 X118.009 Y61.925 E85.16554
G1 X119.861 Y62.850 E85.41138
G1 X121.664 Y63.865 E85.65719
G1 X123.413 Y64.970 E85.90291
G1 X125.103 Y66.162 E86.14855
G1 X126.732 Y67.438 E86.39422
G1 X128.296 Y68.792 E86.63997
G1 X129.794 Y70.221 E86.88578
G1 X131.222 Y71.719 E87.13159
G1 X132.577 Y73.283 E87.37731
G1 X133.852 Y74.910 E87.62290
G1 X135.044 Y76.599 E87.86838
G1 X136.148 Y78.346 E88.11386
G1 X137.164 Y80.148 E88.35945
G1 X138.090 Y81.997 E88.60517
G1 X138.927 Y83.890 E88.85098
G1 X139.674 Y85.821 E89.09679
G1 X140.327 Y87.784 E89.34251
G1 X140.882 Y89.776 E89.58810
G1 X141.337 Y91.792 E89.83358
G1 X141.688 Y93.829 E90.07905
G1 X141.936 Y95.881 E90.32460
G1 X142.082 Y97.945 E90.57023
G1 X142.128 Y100.013 E90.81591
G1 X142.073 Y102.080 E91.06158
G1 X141.920 Y104.143 E91.30724
G1 X141.668 Y106.196 E91.55291
G1 X141.318 Y108.235 E91.79858
G1 X140.870 Y110.255 E92.04426
G1 X140.324 Y112.249 E92.28989
G1 X139.680 Y114.214 E92.53543
G1 X138.938 Y116.143 E92.78090
