; generated by PrusaSlicer 2.1.1+ on 2021-01-28 at 16:52:42 UTC

; 

; external perimeters extrusion width = 0.45mm
; perimeters extrusion width = 0.45mm
; infill extrusion width = 0.45mm
; solid infill extrusion width = 0.45mm
; top infill extrusion width = 0.40mm
; support material extrusion width = 0.40mm
; first layer extrusion width = 0.80mm

M107
M190 S60 ; set bed temperature and wait for it to be reached
M104 S200 ; set temperature
G28 ; home all axes
G1 Z5 F5000 ; lift nozzle
M109 S200 ; set temperature and wait for it to be reached
G21 ; set units to millimeters
G90 ; use absolute coordinates
M82 ; use absolute distances for extrusion
G92 E0
; Filament gcode
G1 Z0.400 F7800.000
G1 E-2.00000 F2400.00000
G92 E0
G1 X63.092 Y54.134 F7800.000
G1 E2.00000 F2400.00000
G1 F1800
G1 X64.655 Y52.323 E2.28415
G1 X66.305 Y50.590 E2.56834
G1 X68.039 Y48.939 E2.85261
G1 X69.851 Y47.376 E3.13684
G1 X71.737 Y45.904 E3.42106
G1 X73.695 Y44.526 E3.70537
G1 X75.718 Y43.245 E3.98979
G1 X77.801 Y42.065 E4.27412
G1 X79.939 Y40.989 E4.55836
G1 X82.127 Y40.019 E4.84258
G1 X84.360 Y39.158 E5.12680
G1 X86.631 Y38.408 E5.41089
G1 X88.936 Y37.770 E5.69492
G1 X91.270 Y37.246 E5.97901
G1 X93.628 Y36.837 E6.26321
G1 X96.004 Y36.545 E6.54754
G1 X98.393 Y36.371 E6.83200
G1 X100.783 Y36.316 E7.11599
G1 X103.187 Y36.382 E7.40161
G1 X105.569 Y36.565 E7.68534
G1 X107.947 Y36.866 E7.97005
G1 X110.293 Y37.279 E8.25285
G1 X112.618 Y37.805 E8.53605
G1 X114.921 Y38.443 E8.81986
G1 X117.185 Y39.190 E9.10294
G1 X119.422 Y40.049 E9.38762
G1 X121.595 Y41.006 E9.66961
G1 X123.739 Y42.078 E9.95429
G1 X125.827 Y43.254 E10.23879
G1 X127.856 Y44.536 E10.52393
G1 X129.816 Y45.918 E10.80879
G1 X131.700 Y47.394 E11.09301
G1 X133.509 Y48.960 E11.37713
G1 X135.235 Y50.607 E11.66049
G1 X136.879 Y52.330 E11.94336
G1 X138.449 Y54.143 E12.22813
G1 X139.924 Y56.025 E12.51213
G1 X141.306 Y57.984 E12.79694
G1 X142.587 Y60.011 E13.08165
G1 X143.762 Y62.095 E13.36579
G1 X144.834 Y64.233 E13.64986
G1 X145.799 Y66.415 E13.93320
G1 X146.660 Y68.642 E14.21681
G1 X147.414 Y70.912 E14.50084
G1 X148.057 Y73.215 E14.78485
G1 X148.584 Y75.555 E15.06968
G1 X148.993 Y77.924 E15.35517
G1 X149.280 Y80.300 E15.63949
G1 X149.449 Y82.689 E15.92391
G1 X149.502 Y85.066 E16.20629
G1 X149.440 Y87.458 E16.49043
G1 X149.262 Y89.842 E16.77438
G1 X148.972 Y92.209 E17.05757
G1 X148.566 Y94.565 E17.34155
G1 X148.051 Y96.889 E17.62424
G1 X147.418 Y99.200 E17.90882
G1 X146.672 Y101.475 E18.19320
G1 X145.811 Y103.715 E18.47823
G1 X144.834 Y105.912 E18.76376
G1 X143.753 Y108.048 E19.04810
G1 X142.566 Y110.129 E19.33254
G1 X141.286 Y112.140 E19.61567
G1 X139.904 Y114.093 E19.89985
G1 X138.434 Y115.973 E20.18326
G1 X136.874 Y117.780 E20.46680
G1 X135.227 Y119.511 E20.75055
G1 X133.495 Y121.159 E21.03455
G1 X131.684 Y122.721 E21.31851
G1 X129.800 Y124.192 E21.60242
G1 X127.845 Y125.569 E21.88639
G1 X125.824 Y126.848 E22.17043
G1 X123.744 Y128.027 E22.45440
G1 X121.609 Y129.102 E22.73832
G1 X119.423 Y130.071 E23.02229
G1 X117.191 Y130.931 E23.30634
G1 X114.921 Y131.681 E23.59029
G1 X112.617 Y132.319 E23.87422
G1 X110.284 Y132.843 E24.15817
G1 X107.928 Y133.252 E24.44216
G1 X105.557 Y133.545 E24.72595
G1 X103.176 Y133.723 E25.00952
G1 X100.778 Y133.786 E25.29445
G1 X98.404 Y133.733 E25.57643
G1 X96.014 Y133.564 E25.86103
G1 X93.637 Y133.276 E26.14542
G1 X91.272 Y132.868 E26.43044
G1 X88.926 Y132.339 E26.71598
G1 X86.620 Y131.695 E27.00031
G1 X84.349 Y130.937 E27.28473
G1 X82.138 Y130.078 E27.56638
G1 X79.947 Y129.103 E27.85125
G1 X77.817 Y128.030 E28.13447
G1 X75.742 Y126.856 E28.41765
G1 X73.720 Y125.580 E28.70162
G1 X71.765 Y124.211 E28.98500
G1 X69.873 Y122.744 E29.26940
G1 X68.057 Y121.188 E29.55342
G1 X66.309 Y119.532 E29.83940
G1 X64.665 Y117.811 E30.12209
G1 X63.097 Y115.997 E30.40685
G1 X61.622 Y114.108 E30.69140
G1 X60.243 Y112.151 E30.97582
G1 X58.962 Y110.128 E31.26017
G1 X57.783 Y108.044 E31.54457
G1 X56.707 Y105.903 E31.82909
G1 X55.742 Y103.715 E32.11309
G1 X54.882 Y101.469 E32.39872
G1 X54.140 Y99.198 E32.68248
G1 X53.508 Y96.885 E32.96726
G1 X52.992 Y94.560 E33.25016
G1 X52.587 Y92.202 E33.53426
G1 X52.297 Y89.835 E33.81746
G1 X52.120 Y87.458 E34.10063
G1 X52.058 Y85.061 E34.38534
G1 X52.110 Y82.688 E34.66723
G1 X52.279 Y80.300 E34.95163
G1 X52.563 Y77.931 E35.23492
G1 X52.967 Y75.564 E35.52015
G1 X53.487 Y73.228 E35.80432
G1 X54.124 Y70.917 E36.08908
G1 X54.875 Y68.642 E36.37363
G1 X55.734 Y66.413 E36.65729
G1 X56.707 Y64.219 E36.94234
G1 X57.782 Y62.081 E37.22655
G1 X58.962 Y59.999 E37.51071
G1 X60.242 Y57.978 E37.79491
G1 X61.620 Y56.021 E38.07917
G1 X63.055 Y54.182 E38.35624
G1 E36.35624 F2400.00000
G92 E0
G1 X136.022 Y105.085 F7800.000
G1 E2.00000 F2400.00000
G1 F1800
G1 X135.557 Y105.901 E2.11154
G1 X134.487 Y107.580 E2.34803
G1 X133.337 Y109.206 E2.58456
G1 X132.111 Y110.775 E2.82103
G1 X130.810 Y112.281 E3.05741
G1 X129.439 Y113.722 E3.29370
G1 X127.998 Y115.094 E3.52995
G1 X126.491 Y116.393 E3.76622
G1 X124.923 Y117.617 E4.00249
G1 X123.297 Y118.763 E4.23874
G1 X121.616 Y119.827 E4.47499
G1 X119.885 Y120.807 E4.71126
G1 X118.108 Y121.702 E4.94753
G1 X116.290 Y122.508 E5.18377
G1 X114.434 Y123.224 E5.42002
G1 X112.545 Y123.848 E5.65629
G1 X110.627 Y124.378 E5.89256
G1 X108.687 Y124.814 E6.12882
G1 X106.726 Y125.155 E6.36510
G1 X104.751 Y125.399 E6.60148
G1 X102.766 Y125.547 E6.83795
G1 X100.775 Y125.600 E7.07448
G1 X98.784 Y125.556 E7.31097
G1 X96.799 Y125.415 E7.54730
G1 X94.825 Y125.177 E7.78340
G1 X92.868 Y124.839 E8.01930
G1 X90.930 Y124.402 E8.25521
G1 X89.016 Y123.867 E8.49132
G1 X87.128 Y123.238 E8.72765
G1 X85.272 Y122.516 E8.96415
G1 X83.452 Y121.706 E9.20072
G1 X81.673 Y120.809 E9.43731
G1 X79.940 Y119.828 E9.67389
G1 X78.255 Y118.766 E9.91047
G1 X76.623 Y117.623 E10.14701
G1 X75.050 Y116.403 E10.38346
G1 X73.539 Y115.109 E10.61977
G1 X72.095 Y113.741 E10.85597
G1 X70.721 Y112.303 E11.09215
G1 X69.420 Y110.798 E11.32844
G1 X68.195 Y109.229 E11.56481
G1 X67.049 Y107.602 E11.80124
G1 X65.984 Y105.920 E12.03766
G1 X65.004 Y104.188 E12.27404
G1 X64.111 Y102.410 E12.51033
G1 X63.308 Y100.591 E12.74651
G1 X62.597 Y98.733 E12.98270
G1 X61.979 Y96.842 E13.21902
G1 X61.455 Y94.921 E13.45547
G1 X61.023 Y92.977 E13.69201
G1 X60.686 Y91.014 E13.92859
G1 X60.443 Y89.036 E14.16517
G1 X60.296 Y87.050 E14.40176
G1 X60.243 Y85.059 E14.63834
G1 X60.287 Y83.067 E14.87488
G1 X60.427 Y81.081 E15.11133
G1 X60.664 Y79.106 E15.34764
G1 X60.999 Y77.145 E15.58384
G1 X61.431 Y75.204 E15.82002
G1 X61.960 Y73.286 E16.05631
G1 X62.584 Y71.396 E16.29269
G1 X63.300 Y69.539 E16.52912
G1 X64.107 Y67.719 E16.76559
G1 X65.002 Y65.940 E17.00208
G1 X65.983 Y64.207 E17.23857
G1 X67.049 Y62.525 E17.47504
G1 X68.195 Y60.897 E17.71152
G1 X69.420 Y59.328 E17.94801
G1 X70.721 Y57.820 E18.18450
G1 X72.094 Y56.378 E18.42097
G1 X73.536 Y55.005 E18.65745
G1 X75.044 Y53.704 E18.89395
G1 X76.614 Y52.479 E19.13049
G1 X78.242 Y51.332 E19.36704
G1 X79.926 Y50.266 E19.60366
G1 X81.660 Y49.284 E19.84031
G1 X83.439 Y48.389 E20.07693
G1 X85.260 Y47.581 E20.31346
G1 X87.117 Y46.865 E20.54987
G1 X89.007 Y46.241 E20.78623
G1 X90.925 Y45.710 E21.02256
G1 X92.866 Y45.275 E21.25889
G1 X94.827 Y44.935 E21.49524
G1 X96.802 Y44.692 E21.73158
G1 X98.784 Y44.548 E21.96760
G1 X100.876 Y44.505 E22.21609
G1 X102.763 Y44.557 E22.44022
G1 X104.746 Y44.709 E22.67653
G1 X106.721 Y44.959 E22.91294
G1 X108.682 Y45.305 E23.14940
G1 X110.624 Y45.744 E23.38584
G1 X112.542 Y46.276 E23.62226
G1 X114.433 Y46.899 E23.85872
G1 X116.292 Y47.613 E24.09523
G1 X118.115 Y48.415 E24.33178
G1 X119.896 Y49.305 E24.56825
G1 X121.629 Y50.282 E24.80452
G1 X123.310 Y51.343 E25.04056
G1 X124.934 Y52.489 E25.27659
G1 X126.500 Y53.716 E25.51285
G1 X128.005 Y55.020 E25.74940
G1 X129.448 Y56.396 E25.98617
G1 X130.824 Y57.838 E26.22294
G1 X132.128 Y59.344 E26.45948
G1 X133.355 Y60.909 E26.69570
G1 X134.500 Y62.532 E26.93165
G1 X135.561 Y64.212 E27.16760
G1 X136.538 Y65.945 E27.40382
G1 X137.430 Y67.725 E27.64036
G1 X138.236 Y69.549 E27.87714
G1 X138.955 Y71.408 E28.11391
G1 X139.584 Y73.298 E28.35045
G1 X140.118 Y75.214 E28.58666
G1 X140.555 Y77.152 E28.82261
G1 X140.893 Y79.109 E29.05852
G1 X141.132 Y81.083 E29.29463
G1 X141.272 Y83.068 E29.53097
G1 X141.316 Y85.059 E29.76747
G1 X141.264 Y87.050 E30.00404
G1 X141.116 Y89.036 E30.24062
G1 X140.873 Y91.014 E30.47720
G1 X140.536 Y92.977 E30.71377
G1 X140.105 Y94.921 E30.95027
G1 X139.580 Y96.840 E31.18661
G1 X138.960 Y98.729 E31.42272
G1 X138.247 Y100.583 E31.65862
G1 X137.441 Y102.398 E31.89452
G1 X136.543 Y104.172 E32.13063
G1 X136.052 Y105.033 E32.24829
G1 X136.642 Y105.438 F7800.000
G1 F1800
G1 X136.168 Y106.269 E32.36191
G1 X135.080 Y107.978 E32.60252
G1 X133.911 Y109.633 E32.84314
G1 X132.663 Y111.228 E33.08371
G1 X131.340 Y112.761 E33.32422
G1 X129.944 Y114.227 E33.56466
G1 X128.477 Y115.623 E33.80508
G1 X126.944 Y116.945 E34.04551
G1 X125.349 Y118.191 E34.28594
G1 X123.694 Y119.357 E34.52635
G1 X121.983 Y120.440 E34.76677
G1 X120.222 Y121.437 E35.00720
G1 X118.414 Y122.348 E35.24763
G1 X116.563 Y123.168 E35.48804
G1 X114.674 Y123.896 E35.72846
G1 X112.752 Y124.531 E35.96889
G1 X110.801 Y125.071 E36.20932
G1 X108.826 Y125.515 E36.44974
G1 X106.831 Y125.861 E36.69018
G1 X104.822 Y126.110 E36.93068
G1 X102.802 Y126.261 E37.17125
G1 X100.776 Y126.314 E37.41187
G1 X98.751 Y126.270 E37.65248
G1 X96.731 Y126.126 E37.89299
G1 X94.722 Y125.884 E38.13334
G1 X92.729 Y125.540 E38.37354
G1 X90.756 Y125.095 E38.61376
G1 X88.806 Y124.550 E38.85411
G1 X86.885 Y123.909 E39.09462
G1 X84.997 Y123.175 E39.33523
G1 X83.146 Y122.351 E39.57588
G1 X81.337 Y121.439 E39.81653
G1 X79.573 Y120.442 E40.05718
G1 X77.859 Y119.360 E40.29784
G1 X76.200 Y118.198 E40.53848
G1 X74.599 Y116.957 E40.77906
G1 X73.061 Y115.639 E41.01956
G1 X71.591 Y114.248 E41.25999
G1 X70.192 Y112.784 E41.50042
G1 X68.868 Y111.252 E41.74092
G1 X67.622 Y109.655 E41.98150
G1 X66.455 Y107.999 E42.22211
G1 X65.371 Y106.287 E42.46272
G1 X64.373 Y104.524 E42.70329
G1 X63.464 Y102.715 E42.94380
G1 X62.647 Y100.863 E43.18423
G1 X61.924 Y98.972 E43.42465
G1 X61.295 Y97.047 E43.66515
G1 X60.761 Y95.093 E43.90574
G1 X60.322 Y93.115 E44.14638
G1 X59.979 Y91.118 E44.38703
G1 X59.732 Y89.106 E44.62769
G1 X59.582 Y87.086 E44.86834
G1 X59.529 Y85.060 E45.10899
G1 X59.573 Y83.034 E45.34963
G1 X59.716 Y81.014 E45.59022
G1 X59.957 Y79.003 E45.83072
G1 X60.298 Y77.008 E46.07114
G1 X60.738 Y75.032 E46.31157
G1 X61.276 Y73.079 E46.55208
G1 X61.911 Y71.156 E46.79265
G1 X62.640 Y69.265 E47.03327
G1 X63.461 Y67.413 E47.27391
G1 X64.372 Y65.603 E47.51456
G1 X65.371 Y63.840 E47.75521
G1 X66.455 Y62.128 E47.99585
G1 X67.621 Y60.472 E48.23650
G1 X68.868 Y58.874 E48.47715
G1 X70.191 Y57.340 E48.71780
G1 X71.589 Y55.872 E48.95844
G1 X73.056 Y54.475 E49.19909
G1 X74.591 Y53.152 E49.43975
G1 X76.188 Y51.905 E49.68045
G1 X77.846 Y50.738 E49.92118
G1 X79.559 Y49.654 E50.16196
G1 X81.323 Y48.654 E50.40277
G1 X83.134 Y47.743 E50.64355
G1 X84.986 Y46.921 E50.88424
G1 X86.877 Y46.193 E51.12483
G1 X88.800 Y45.557 E51.36535
G1 X90.751 Y45.017 E51.60585
G1 X92.727 Y44.574 E51.84635
G1 X94.723 Y44.228 E52.08688
G1 X96.733 Y43.981 E52.32741
G1 X98.751 Y43.834 E52.56775
G1 X100.879 Y43.791 E52.82048
G1 X102.800 Y43.843 E53.04874
G1 X104.819 Y43.999 E53.28923
G1 X106.828 Y44.253 E53.52977
G1 X108.823 Y44.604 E53.77033
G1 X110.798 Y45.051 E54.01084
G1 X112.749 Y45.592 E54.25134
G1 X114.673 Y46.227 E54.49187
G1 X116.564 Y46.952 E54.73246
G1 X118.419 Y47.769 E54.97312
G1 X120.231 Y48.675 E55.21376
G1 X121.996 Y49.668 E55.45427
G1 X123.707 Y50.749 E55.69462
G1 X125.360 Y51.916 E55.93494
G1 X126.954 Y53.164 E56.17541
G1 X128.486 Y54.491 E56.41608
G1 X129.953 Y55.890 E56.65690
G1 X131.352 Y57.358 E56.89771
G1 X132.679 Y58.889 E57.13837
G1 X133.928 Y60.483 E57.37880
G1 X135.094 Y62.136 E57.61904
G1 X136.175 Y63.846 E57.85928
G1 X137.169 Y65.609 E58.09971
G1 X138.076 Y67.421 E58.34036
G1 X138.896 Y69.275 E58.58118
G1 X139.628 Y71.166 E58.82199
G1 X140.267 Y73.089 E59.06265
G1 X140.811 Y75.039 E59.30307
G1 X141.256 Y77.012 E59.54331
G1 X141.600 Y79.006 E59.78352
G1 X141.843 Y81.015 E60.02388
G1 X141.986 Y83.035 E60.26439
G1 X142.030 Y85.060 E60.50500
G1 X141.977 Y87.086 E60.74565
G1 X141.827 Y89.106 E60.98630
G1 X141.580 Y91.118 E61.22695
G1 X141.237 Y93.115 E61.46760
G1 X140.798 Y95.092 E61.70822
G1 X140.264 Y97.046 E61.94872
G1 X139.633 Y98.969 E62.18908
G1 X138.907 Y100.857 E62.42929
G1 X138.086 Y102.705 E62.66950
G1 X137.172 Y104.510 E62.90985
G1 X136.672 Y105.386 E63.02962
G1 X137.263 Y105.792 F7800.000
G1 F1800
G1 X136.780 Y106.638 E63.14530
G1 X135.673 Y108.376 E63.39003
G1 X134.484 Y110.059 E63.63474
G1 X133.215 Y111.682 E63.87942
G1 X131.869 Y113.241 E64.12405
G1 X130.449 Y114.733 E64.36865
G1 X128.957 Y116.153 E64.61323
G1 X127.398 Y117.498 E64.85782
G1 X125.774 Y118.765 E65.10241
G1 X124.090 Y119.951 E65.34700
G1 X122.351 Y121.052 E65.59158
G1 X120.559 Y122.067 E65.83617
G1 X118.719 Y122.993 E66.08076
G1 X116.836 Y123.828 E66.32534
G1 X114.915 Y124.569 E66.56992
G1 X112.959 Y125.215 E66.81451
G1 X110.975 Y125.764 E67.05910
G1 X108.965 Y126.216 E67.30369
G1 X106.936 Y126.568 E67.54828
G1 X104.892 Y126.821 E67.79291
G1 X102.838 Y126.974 E68.03759
G1 X100.778 Y127.028 E68.28230
G1 X98.718 Y126.983 E68.52703
G1 X96.663 Y126.838 E68.77170
G1 X94.618 Y126.590 E69.01630
G1 X92.589 Y126.240 E69.26081
G1 X90.581 Y125.787 E69.50533
G1 X88.597 Y125.233 E69.74993
G1 X86.643 Y124.581 E69.99461
G1 X84.722 Y123.835 E70.23934
G1 X82.840 Y122.997 E70.48406
G1 X81.000 Y122.069 E70.72879
G1 X79.206 Y121.055 E70.97351
G1 X77.464 Y119.955 E71.21824
G1 X75.776 Y118.773 E71.46298
G1 X74.147 Y117.511 E71.70770
G1 X72.583 Y116.170 E71.95238
G1 X71.087 Y114.754 E72.19704
G1 X69.664 Y113.264 E72.44171
G1 X68.316 Y111.705 E72.68644
G1 X67.048 Y110.081 E72.93121
G1 X65.861 Y108.396 E73.17601
G1 X64.758 Y106.654 E73.42080
G1 X63.743 Y104.861 E73.66557
G1 X62.818 Y103.019 E73.91030
G1 X61.987 Y101.134 E74.15497
G1 X61.251 Y99.210 E74.39963
G1 X60.611 Y97.252 E74.64431
G1 X60.068 Y95.264 E74.88904
G1 X59.621 Y93.253 E75.13378
G1 X59.273 Y91.222 E75.37851
G1 X59.022 Y89.176 E75.62323
G1 X58.869 Y87.122 E75.86795
G1 X58.815 Y85.062 E76.11268
G1 X58.860 Y83.001 E76.35742
G1 X59.005 Y80.946 E76.60214
G1 X59.250 Y78.900 E76.84682
G1 X59.597 Y76.870 E77.09148
G1 X60.045 Y74.859 E77.33615
G1 X60.593 Y72.873 E77.58088
G1 X61.238 Y70.915 E77.82565
G1 X61.980 Y68.992 E78.07045
G1 X62.815 Y67.108 E78.31526
G1 X63.742 Y65.266 E78.56007
G1 X64.758 Y63.473 E78.80489
G1 X65.861 Y61.731 E79.04970
G1 X67.048 Y60.046 E79.29450
G1 X68.316 Y58.421 E79.53932
G1 X69.662 Y56.860 E79.78413
G1 X71.083 Y55.367 E80.02894
G1 X72.576 Y53.946 E80.27375
G1 X74.137 Y52.600 E80.51858
G1 X75.763 Y51.331 E80.76344
G1 X77.449 Y50.144 E81.00834
G1 X79.191 Y49.041 E81.25329
G1 X80.986 Y48.024 E81.49826
G1 X82.828 Y47.097 E81.74320
G1 X84.713 Y46.261 E81.98806
G1 X86.636 Y45.520 E82.23281
G1 X88.592 Y44.874 E82.47750
G1 X90.578 Y44.325 E82.72216
G1 X92.588 Y43.873 E82.96683
G1 X94.618 Y43.521 E83.21154
G1 X96.663 Y43.270 E83.45627
G1 X98.718 Y43.120 E83.70092
G1 X100.881 Y43.076 E83.95790
G1 X102.837 Y43.130 E84.19029
G1 X104.891 Y43.288 E84.43496
G1 X106.935 Y43.547 E84.67964
G1 X108.964 Y43.904 E84.92429
G1 X110.972 Y44.359 E85.16888
G1 X112.957 Y44.909 E85.41345
G1 X114.913 Y45.554 E85.65805
G1 X116.836 Y46.292 E85.90272
G1 X118.722 Y47.122 E86.14750
G1 X120.566 Y48.044 E86.39230
G1 X122.362 Y49.055 E86.63705
G1 X124.103 Y50.155 E86.88171
G1 X125.786 Y51.342 E87.12633
G1 X127.408 Y52.613 E87.37101
G1 X128.966 Y53.962 E87.61579
G1 X130.458 Y55.385 E87.86065
G1 X131.881 Y56.877 E88.10551
G1 X133.230 Y58.435 E88.35028
G1 X134.501 Y60.056 E88.59492
G1 X135.688 Y61.739 E88.83945
G1 X136.788 Y63.479 E89.08398
G1 X137.799 Y65.274 E89.32862
G1 X138.722 Y67.116 E89.57339
G1 X139.556 Y69.002 E89.81825
G1 X140.300 Y70.925 E90.06311
G1 X140.950 Y72.880 E90.30787
G1 X141.504 Y74.865 E90.55251
G1 X141.957 Y76.873 E90.79704
G1 X142.307 Y78.902 E91.04156
G1 X142.554 Y80.947 E91.28616
G1 X142.699 Y83.002 E91.53084
G1 X142.745 Y85.062 E91.77557
G1 X142.691 Y87.122 E92.02030
