; generated by PrusaSlicer 2.1.1+ on 2021-01-28 at 10:17:14 UTC

; 

; external perimeters extrusion width = 0.45mm
; perimeters extrusion width = 0.45mm
; infill extrusion width = 0.45mm
; solid infill extrusion width = 0.45mm
; top infill extrusion width = 0.40mm
; first layer extrusion width = 0.80mm

M107
M190 S60 ; set bed temperature and wait for it to be reached
M104 S200 ; set temperature
G28 ; home all axes
G1 Z5 F5000 ; lift nozzle
M109 S200 ; set temperature and wait for it to be reached
G21 ; set units to millimeters
G90 ; use absolute coordinates
M82 ; use absolute distances for extrusion
G92 E0
; Filament gcode
G1 Z0.400 F7800.000
G1 E-2.00000 F2400.00000
G92 E0
G1 X66.697 Y66.332 F7800.000
G1 E2.00000 F2400.00000
G1 F1800
G1 X69.845 Y63.485 E2.50406
G1 X71.688 Y62.038 E2.78244
G1 X73.657 Y60.646 E3.06882
G1 X75.641 Y59.388 E3.34779
G1 X77.712 Y58.215 E3.63047
G1 X79.840 Y57.148 E3.91316
G1 X82.013 Y56.192 E4.19510
G1 X84.237 Y55.343 E4.47778
G1 X86.500 Y54.608 E4.76047
G1 X88.798 Y53.987 E5.04314
G1 X91.087 Y53.489 E5.32139
G1 X95.287 Y52.878 E5.82544
G1 X97.625 Y52.703 E6.10382
G1 X100.004 Y52.643 E6.38650
G1 X102.377 Y52.703 E6.66845
G1 X104.751 Y52.882 E6.95112
G1 X107.112 Y53.180 E7.23380
G1 X109.425 Y53.590 E7.51279
G1 X111.775 Y54.130 E7.79917
G1 X114.029 Y54.769 E8.07741
G1 X118.018 Y56.204 E8.58086
G1 X120.167 Y57.152 E8.85986
G1 X122.295 Y58.219 E9.14253
G1 X124.360 Y59.389 E9.42448
G1 X126.370 Y60.664 E9.70716
G1 X128.313 Y62.039 E9.98983
G1 X130.185 Y63.509 E10.27251
G1 X131.980 Y65.072 E10.55519
G1 X133.668 Y66.696 E10.83343
G1 X136.515 Y69.844 E11.33749
G1 X137.962 Y71.688 E11.61587
G1 X139.354 Y73.657 E11.90225
G1 X140.612 Y75.641 E12.18123
G1 X141.785 Y77.712 E12.46391
G1 X142.852 Y79.840 E12.74660
G1 X143.808 Y82.013 E13.02854
G1 X144.657 Y84.236 E13.31123
G1 X145.381 Y86.464 E13.58945
G1 X146.411 Y90.582 E14.09352
G1 X146.820 Y92.889 E14.37189
G1 X147.118 Y95.251 E14.65456
G1 X147.297 Y97.618 E14.93651
G1 X147.357 Y99.998 E15.21920
G1 X147.297 Y102.377 E15.50188
G1 X147.122 Y104.713 E15.78014
G1 X146.511 Y108.913 E16.28419
G1 X146.013 Y111.204 E16.56257
G1 X145.392 Y113.501 E16.84523
G1 X144.658 Y115.759 E17.12717
G1 X143.808 Y117.989 E17.41060
G1 X142.851 Y120.161 E17.69254
G1 X141.784 Y122.289 E17.97522
G1 X140.611 Y124.360 E18.25791
G1 X139.357 Y126.339 E18.53614
G1 X137.965 Y128.308 E18.82253
G1 X136.541 Y130.124 E19.09662
G1 X133.668 Y133.304 E19.60556
G1 X131.979 Y134.929 E19.88394
G1 X130.184 Y136.492 E20.16662
G1 X128.317 Y137.958 E20.44858
G1 X126.369 Y139.337 E20.73199
G1 X124.365 Y140.609 E21.01394
G1 X122.293 Y141.782 E21.29662
G1 X120.166 Y142.849 E21.57929
G1 X118.022 Y143.794 E21.85755
G1 X114.029 Y145.231 E22.36160
G1 X111.774 Y145.870 E22.63996
G1 X109.424 Y146.410 E22.92635
G1 X107.111 Y146.820 E23.20534
G1 X104.749 Y147.118 E23.48802
G1 X102.382 Y147.297 E23.76997
G1 X100.003 Y147.357 E24.05265
G1 X97.624 Y147.297 E24.33520
G1 X95.251 Y147.118 E24.61788
G1 X92.889 Y146.820 E24.90057
G1 X90.582 Y146.411 E25.17883
G1 X86.465 Y145.382 E25.68288
G1 X84.236 Y144.656 E25.96126
G1 X81.983 Y143.796 E26.24764
G1 X79.834 Y142.849 E26.52662
G1 X77.706 Y141.781 E26.80931
G1 X75.641 Y140.612 E27.09125
G1 X73.631 Y139.336 E27.37394
G1 X71.688 Y137.962 E27.65663
G1 X69.816 Y136.491 E27.93932
G1 X68.021 Y134.929 E28.22202
G1 X66.332 Y133.304 E28.50025
G1 X63.486 Y130.156 E29.00432
G1 X62.038 Y128.312 E29.28271
G1 X60.646 Y126.343 E29.56910
G1 X59.388 Y124.360 E29.84809
G1 X58.216 Y122.288 E30.13077
G1 X57.151 Y120.166 E30.41271
G1 X56.192 Y117.988 E30.69541
G1 X55.344 Y115.764 E30.97809
G1 X54.608 Y113.500 E31.26077
G1 X53.987 Y111.203 E31.54347
G1 X53.489 Y108.913 E31.82171
G1 X52.878 Y104.713 E32.32578
G1 X52.703 Y102.376 E32.60415
G1 X52.643 Y99.996 E32.88684
G1 X52.703 Y97.623 E33.16880
G1 X52.882 Y95.250 E33.45148
G1 X53.180 Y92.888 E33.73417
G1 X53.589 Y90.581 E34.01241
G1 X54.619 Y86.464 E34.51648
G1 X55.344 Y84.235 E34.79486
G1 X56.204 Y81.982 E35.08124
G1 X57.152 Y79.833 E35.36023
G1 X58.219 Y77.705 E35.64292
G1 X59.389 Y75.640 E35.92486
G1 X60.664 Y73.630 E36.20756
G1 X62.043 Y71.682 E36.49098
G1 X63.509 Y69.815 E36.77293
G1 X65.072 Y68.020 E37.05561
G1 X66.655 Y66.375 E37.32673
G1 E35.32673 F2400.00000
G92 E0
G1 X108.520 Y108.205 F7800.000
G1 E2.00000 F2400.00000
G1 F1800
G1 X108.097 Y108.623 E2.07061
G1 X107.654 Y109.019 E2.14122
G1 X107.191 Y109.392 E2.21183
G1 X106.710 Y109.741 E2.28243
G1 X106.212 Y110.066 E2.35304
G1 X105.699 Y110.366 E2.42365
G1 X105.171 Y110.639 E2.49426
G1 X104.614 Y110.892 E2.56692
G1 X103.672 Y111.245 E2.68637
G1 X103.085 Y111.419 E2.75903
G1 X102.508 Y111.560 E2.82963
G1 X101.924 Y111.671 E2.90024
G1 X101.335 Y111.753 E2.97085
G1 X100.743 Y111.806 E3.04146
G1 X100.149 Y111.828 E3.11207
G1 X99.554 Y111.821 E3.18264
G1 X98.961 Y111.783 E3.25325
G1 X98.370 Y111.716 E3.32386
G1 X97.784 Y111.619 E3.39447
G1 X97.203 Y111.493 E3.46508
G1 X96.629 Y111.338 E3.53569
G1 X96.063 Y111.155 E3.60630
G1 X95.508 Y110.943 E3.67691
G1 X94.964 Y110.703 E3.74752
G1 X94.432 Y110.437 E3.81813
G1 X93.915 Y110.144 E3.88874
G1 X93.413 Y109.825 E3.95935
G1 X92.928 Y109.482 E4.02996
G1 X92.447 Y109.104 E4.10262
G1 X91.701 Y108.429 E4.22207
G1 X91.276 Y107.989 E4.29473
G1 X90.874 Y107.527 E4.36738
G1 X90.268 Y106.725 E4.48684
G1 X89.934 Y106.212 E4.55950
G1 X89.634 Y105.699 E4.63011
G1 X89.361 Y105.171 E4.70071
G1 X89.115 Y104.630 E4.77132
G1 X88.896 Y104.077 E4.84193
G1 X88.705 Y103.514 E4.91254
G1 X88.543 Y102.942 E4.98315
G1 X88.405 Y102.345 E5.05587
G1 X88.243 Y101.319 E5.17930
G1 X88.172 Y100.171 E5.31582
G1 X88.180 Y99.554 E5.38912
G1 X88.217 Y98.961 E5.45973
G1 X88.284 Y98.370 E5.53034
G1 X88.381 Y97.783 E5.60095
G1 X88.507 Y97.202 E5.67156
G1 X88.662 Y96.629 E5.74216
G1 X88.845 Y96.063 E5.81277
G1 X89.057 Y95.508 E5.88338
G1 X89.297 Y94.963 E5.95399
G1 X89.564 Y94.432 E6.02460
G1 X89.856 Y93.915 E6.09521
G1 X90.185 Y93.398 E6.16793
G1 X90.801 Y92.561 E6.29136
G1 X91.567 Y91.704 E6.42788
G1 X92.012 Y91.276 E6.50117
G1 X92.460 Y90.886 E6.57178
G1 X92.928 Y90.518 E6.64239
G1 X93.427 Y90.165 E6.71511
G1 X94.315 Y89.625 E6.83853
G1 X95.350 Y89.123 E6.97505
G1 X95.923 Y88.896 E7.04835
G1 X96.486 Y88.705 E7.11895
G1 X97.058 Y88.543 E7.18956
G1 X97.638 Y88.409 E7.26017
G1 X98.223 Y88.305 E7.33078
G1 X98.831 Y88.229 E7.40350
G1 X99.868 Y88.170 E7.52692
G1 X101.017 Y88.214 E7.66344
G1 X101.630 Y88.284 E7.73673
G1 X102.217 Y88.381 E7.80734
G1 X102.798 Y88.507 E7.87795
G1 X103.372 Y88.662 E7.94856
G1 X103.937 Y88.845 E8.01917
G1 X104.492 Y89.057 E8.08977
G1 X105.037 Y89.297 E8.16038
G1 X105.568 Y89.563 E8.23099
G1 X106.085 Y89.856 E8.30160
G1 X106.587 Y90.175 E8.37221
G1 X107.073 Y90.518 E8.44282
G1 X107.554 Y90.896 E8.51547
G1 X108.300 Y91.571 E8.63492
G1 X108.724 Y92.012 E8.70758
G1 X109.126 Y92.473 E8.78030
G1 X109.752 Y93.303 E8.90372
G1 X110.355 Y94.281 E9.04024
G1 X110.639 Y94.829 E9.11353
G1 X110.892 Y95.386 E9.18619
G1 X111.245 Y96.328 E9.30564
G1 X111.419 Y96.915 E9.37830
G1 X111.560 Y97.492 E9.44891
G1 X111.671 Y98.076 E9.51952
G1 X111.753 Y98.665 E9.59013
G1 X111.806 Y99.257 E9.66073
G1 X111.828 Y99.851 E9.73134
G1 X111.820 Y100.446 E9.80195
G1 X111.782 Y101.056 E9.87461
G1 X111.650 Y102.053 E9.99406
G1 X111.528 Y102.653 E10.06672
G1 X111.380 Y103.229 E10.13732
G1 X111.203 Y103.796 E10.20793
G1 X110.992 Y104.371 E10.28059
G1 X110.581 Y105.289 E10.40004
G1 X110.293 Y105.828 E10.47269
G1 X109.987 Y106.338 E10.54330
G1 X109.656 Y106.832 E10.61391
G1 X109.301 Y107.309 E10.68452
G1 X108.922 Y107.767 E10.75513
G1 X108.561 Y108.161 E10.81861
G1 X108.006 Y107.710 F7800.000
G1 F1800
G1 X107.608 Y108.102 E10.88496
G1 X107.192 Y108.474 E10.95130
G1 X106.757 Y108.825 E11.01765
G1 X106.305 Y109.153 E11.08399
G1 X105.837 Y109.458 E11.15033
G1 X105.354 Y109.740 E11.21668
G1 X104.858 Y109.996 E11.28302
G1 X104.340 Y110.232 E11.35062
G1 X103.445 Y110.568 E11.46420
G1 X102.899 Y110.730 E11.53180
G1 X102.356 Y110.862 E11.59814
G1 X101.808 Y110.967 E11.66448
G1 X101.254 Y111.044 E11.73083
G1 X100.698 Y111.093 E11.79717
G1 X100.140 Y111.114 E11.86352
G1 X99.581 Y111.107 E11.92983
G1 X99.024 Y111.072 E11.99617
G1 X98.469 Y111.009 E12.06252
G1 X97.918 Y110.918 E12.12886
G1 X97.372 Y110.799 E12.19521
G1 X96.832 Y110.654 E12.26155
G1 X96.301 Y110.481 E12.32790
G1 X95.779 Y110.282 E12.39424
G1 X95.268 Y110.057 E12.46059
G1 X94.769 Y109.806 E12.52694
G1 X94.282 Y109.531 E12.59328
G1 X93.811 Y109.232 E12.65963
G1 X93.355 Y108.909 E12.72597
G1 X92.907 Y108.557 E12.79357
G1 X92.198 Y107.916 E12.90715
G1 X91.803 Y107.506 E12.97475
G1 X91.429 Y107.077 E13.04234
G1 X90.853 Y106.314 E13.15593
G1 X90.542 Y105.837 E13.22352
G1 X90.260 Y105.355 E13.28987
G1 X90.004 Y104.858 E13.35621
G1 X89.772 Y104.350 E13.42256
G1 X89.566 Y103.831 E13.48890
G1 X89.387 Y103.302 E13.55525
G1 X89.235 Y102.764 E13.62159
G1 X89.107 Y102.209 E13.68923
G1 X88.954 Y101.240 E13.80570
G1 X88.886 Y100.153 E13.93505
G1 X88.893 Y99.581 E14.00303
G1 X88.928 Y99.024 E14.06938
G1 X88.992 Y98.469 E14.13572
G1 X89.082 Y97.917 E14.20207
G1 X89.201 Y97.371 E14.26841
G1 X89.347 Y96.832 E14.33476
G1 X89.519 Y96.301 E14.40110
G1 X89.718 Y95.779 E14.46745
G1 X89.943 Y95.268 E14.53379
G1 X90.194 Y94.768 E14.60014
G1 X90.469 Y94.282 E14.66648
G1 X90.774 Y93.801 E14.73412
G1 X91.356 Y93.012 E14.85059
G1 X92.082 Y92.200 E14.97994
G1 X92.494 Y91.803 E15.04792
G1 X92.915 Y91.436 E15.11426
G1 X93.355 Y91.091 E15.18061
G1 X93.820 Y90.762 E15.24823
G1 X94.658 Y90.253 E15.36471
G1 X95.637 Y89.777 E15.49405
G1 X96.170 Y89.566 E15.56203
G1 X96.699 Y89.387 E15.62838
G1 X97.236 Y89.235 E15.69472
G1 X97.780 Y89.109 E15.76107
G1 X98.330 Y89.012 E15.82741
G1 X98.895 Y88.940 E15.89504
G1 X99.875 Y88.885 E16.01151
G1 X100.963 Y88.927 E16.14086
G1 X101.532 Y88.992 E16.20884
G1 X102.083 Y89.082 E16.27518
G1 X102.629 Y89.201 E16.34153
G1 X103.168 Y89.347 E16.40787
G1 X103.699 Y89.519 E16.47421
G1 X104.221 Y89.718 E16.54056
G1 X104.732 Y89.943 E16.60690
G1 X105.232 Y90.194 E16.67325
G1 X105.718 Y90.469 E16.73959
G1 X106.189 Y90.768 E16.80594
G1 X106.645 Y91.091 E16.87228
G1 X107.093 Y91.443 E16.93987
G1 X107.802 Y92.084 E17.05346
G1 X108.197 Y92.494 E17.12105
G1 X108.571 Y92.924 E17.18868
G1 X109.162 Y93.706 E17.30515
G1 X109.733 Y94.633 E17.43450
G1 X109.996 Y95.142 E17.50248
G1 X110.232 Y95.660 E17.57007
G1 X110.568 Y96.555 E17.68366
G1 X110.730 Y97.101 E17.75125
G1 X110.862 Y97.644 E17.81759
G1 X110.967 Y98.192 E17.88394
G1 X111.044 Y98.746 E17.95028
G1 X111.093 Y99.302 E18.01663
G1 X111.114 Y99.860 E18.08297
G1 X111.107 Y100.419 E18.14931
G1 X111.071 Y100.987 E18.21691
G1 X110.945 Y101.935 E18.33049
G1 X110.831 Y102.493 E18.39809
G1 X110.692 Y103.034 E18.46443
G1 X110.527 Y103.567 E18.53077
G1 X110.330 Y104.101 E18.59837
G1 X109.940 Y104.974 E18.71195
G1 X109.672 Y105.476 E18.77954
G1 X109.384 Y105.955 E18.84589
G1 X109.073 Y106.419 E18.91223
G1 X108.739 Y106.867 E18.97858
G1 X108.383 Y107.298 E19.04492
G1 X108.046 Y107.665 E19.10414
G1 X107.491 Y107.214 F7800.000
G1 F1800
G1 X107.119 Y107.581 E19.16622
G1 X106.729 Y107.929 E19.22830
G1 X106.323 Y108.258 E19.29038
G1 X105.900 Y108.565 E19.35246
G1 X105.462 Y108.850 E19.41454
G1 X105.010 Y109.114 E19.47662
G1 X104.546 Y109.354 E19.53870
G1 X104.067 Y109.572 E19.60123
G1 X103.217 Y109.890 E19.70895
G1 X102.713 Y110.040 E19.77148
G1 X102.205 Y110.164 E19.83356
G1 X101.691 Y110.262 E19.89564
G1 X101.174 Y110.334 E19.95772
G1 X100.653 Y110.380 E20.01980
G1 X100.131 Y110.399 E20.08188
G1 X99.608 Y110.393 E20.14393
G1 X99.087 Y110.360 E20.20601
G1 X98.567 Y110.301 E20.26809
G1 X98.051 Y110.216 E20.33017
G1 X97.541 Y110.105 E20.39225
G1 X97.036 Y109.969 E20.45433
G1 X96.539 Y109.807 E20.51642
G1 X96.050 Y109.621 E20.57850
G1 X95.572 Y109.410 E20.64058
G1 X95.105 Y109.176 E20.70266
G1 X94.650 Y108.918 E20.76474
G1 X94.209 Y108.638 E20.82682
G1 X93.782 Y108.336 E20.88890
G1 X93.368 Y108.011 E20.95143
G1 X92.695 Y107.403 E21.05915
G1 X92.330 Y107.024 E21.12168
G1 X91.984 Y106.627 E21.18421
G1 X91.437 Y105.903 E21.29194
G1 X91.150 Y105.462 E21.35446
G1 X90.886 Y105.010 E21.41655
G1 X90.646 Y104.546 E21.47863
G1 X90.430 Y104.070 E21.54071
G1 X90.237 Y103.584 E21.60279
G1 X90.069 Y103.089 E21.66487
G1 X89.927 Y102.586 E21.72695
G1 X89.809 Y102.073 E21.78949
G1 X89.665 Y101.162 E21.89902
G1 X89.601 Y100.136 E22.02119
G1 X89.607 Y99.608 E22.08386
G1 X89.640 Y99.086 E22.14594
G1 X89.699 Y98.567 E22.20802
G1 X89.784 Y98.051 E22.27010
G1 X89.895 Y97.540 E22.33218
G1 X90.031 Y97.036 E22.39427
G1 X90.193 Y96.539 E22.45635
G1 X90.379 Y96.050 E22.51843
G1 X90.590 Y95.572 E22.58051
G1 X90.824 Y95.105 E22.64259
G1 X91.082 Y94.650 E22.70467
G1 X91.364 Y94.205 E22.76721
G1 X91.911 Y93.463 E22.87674
G1 X92.596 Y92.696 E22.99891
G1 X92.977 Y92.330 E23.06158
G1 X93.371 Y91.987 E23.12366
G1 X93.782 Y91.664 E23.18574
G1 X94.212 Y91.359 E23.24828
G1 X95.000 Y90.880 E23.35780
G1 X95.925 Y90.431 E23.47997
G1 X96.416 Y90.237 E23.54264
G1 X96.911 Y90.069 E23.60472
G1 X97.414 Y89.927 E23.66680
G1 X97.923 Y89.809 E23.72888
G1 X98.438 Y89.718 E23.79096
G1 X98.960 Y89.652 E23.85350
G1 X99.881 Y89.600 E23.96302
G1 X100.909 Y89.640 E24.08519
G1 X101.433 Y89.699 E24.14786
G1 X101.949 Y89.784 E24.20994
G1 X102.460 Y89.895 E24.27202
G1 X102.964 Y90.031 E24.33410
G1 X103.461 Y90.193 E24.39618
G1 X103.950 Y90.379 E24.45826
G1 X104.428 Y90.590 E24.52034
G1 X104.895 Y90.824 E24.58242
G1 X105.350 Y91.082 E24.64450
G1 X105.792 Y91.362 E24.70658
G1 X106.218 Y91.664 E24.76866
G1 X106.632 Y91.989 E24.83119
G1 X107.305 Y92.597 E24.93891
G1 X107.670 Y92.976 E25.00143
G1 X108.016 Y93.374 E25.06398
G1 X108.572 Y94.110 E25.17350
G1 X109.111 Y94.985 E25.29567
G1 X109.354 Y95.454 E25.35834
G1 X109.572 Y95.933 E25.42086
G1 X109.890 Y96.783 E25.52859
G1 X110.040 Y97.287 E25.59112
G1 X110.164 Y97.795 E25.65320
G1 X110.262 Y98.309 E25.71527
G1 X110.334 Y98.826 E25.77735
G1 X110.380 Y99.347 E25.83943
G1 X110.399 Y99.869 E25.90151
G1 X110.393 Y100.392 E25.96359
G1 X110.360 Y100.917 E26.02612
G1 X110.240 Y101.817 E26.13384
G1 X110.135 Y102.332 E26.19637
G1 X110.005 Y102.839 E26.25845
G1 X109.850 Y103.338 E26.32053
G1 X109.668 Y103.832 E26.38306
G1 X109.298 Y104.660 E26.49078
G1 X109.050 Y105.124 E26.55331
G1 X108.781 Y105.573 E26.61539
G1 X108.490 Y106.007 E26.67747
G1 X108.177 Y106.426 E26.73955
G1 X107.532 Y107.170 E26.85655
G1 X107.605 Y107.597 F7800.000
G1 E24.85655 F2400.00000
G92 E0
G1 X128.463 Y126.908 F7800.000
G1 E2.00000 F2400.00000
G1 F1800
G1 X127.524 Y127.872 E2.15986
G1 X126.815 Y128.555 E2.27677
G1 X125.346 Y129.866 E2.51060
G1 X123.814 Y131.102 E2.74442
G1 X122.221 Y132.259 E2.97824
G1 X120.572 Y133.335 E3.21206
G1 X118.871 Y134.326 E3.44591
G1 X118.043 Y134.768 E3.55733
G1 X116.673 Y135.446 E3.73893
G1 X115.782 Y135.851 E3.85509
G1 X113.961 Y136.599 E4.08892
G1 X112.105 Y137.254 E4.32274
G1 X110.218 Y137.815 E4.55656
G1 X108.305 Y138.281 E4.79038
G1 X106.371 Y138.650 E5.02420
G1 X104.421 Y138.921 E5.25802
G1 X102.460 Y139.094 E5.49184
G1 X100.492 Y139.168 E5.72567
G1 X98.525 Y139.144 E5.95937
G1 X96.560 Y139.020 E6.19319
G1 X94.603 Y138.798 E6.42702
G1 X92.661 Y138.478 E6.66084
G1 X90.737 Y138.061 E6.89467
G1 X88.836 Y137.547 E7.12852
G1 X87.940 Y137.269 E7.23993
G1 X86.495 Y136.770 E7.42154
G1 X85.581 Y136.421 E7.53771
G1 X83.769 Y135.651 E7.77153
G1 X81.998 Y134.790 E8.00536
G1 X80.273 Y133.842 E8.23918
G1 X78.597 Y132.808 E8.47301
G1 X77.785 Y132.263 E8.58925
G1 X76.575 Y131.395 E8.76599
G1 X75.798 Y130.801 E8.88223
G1 X74.281 Y129.546 E9.11605
G1 X72.829 Y128.216 E9.34988
G1 X71.446 Y126.815 E9.58370
G1 X70.134 Y125.347 E9.81753
G1 X68.898 Y123.814 E10.05135
G1 X67.741 Y122.221 E10.28520
G1 X67.218 Y121.442 E10.39662
G1 X66.406 Y120.146 E10.57823
G1 X65.914 Y119.301 E10.69439
G1 X64.987 Y117.564 E10.92822
G1 X64.149 Y115.783 E11.16204
G1 X63.401 Y113.961 E11.39587
G1 X62.746 Y112.105 E11.62969
G1 X62.185 Y110.218 E11.86352
G1 X61.719 Y108.305 E12.09734
G1 X61.350 Y106.371 E12.33117
G1 X61.079 Y104.421 E12.56499
G1 X60.906 Y102.460 E12.79882
G1 X60.832 Y100.492 E13.03264
G1 X60.856 Y98.524 E13.26647
G1 X60.980 Y96.559 E13.50029
