; generated by PrusaSlicer 2.1.1+ on 2021-05-03 at 10:00:41 UTC

; 

; external perimeters extrusion width = 0.45mm
; perimeters extrusion width = 0.45mm
; infill extrusion width = 0.45mm
; solid infill extrusion width = 0.45mm
; top infill extrusion width = 0.40mm
; first layer extrusion width = 0.80mm

M107
M190 S60 ; set bed temperature and wait for it to be reached
M104 S200 ; set temperature
G28 ; home all axes
G1 Z5 F5000 ; lift nozzle
M109 S200 ; set temperature and wait for it to be reached
G21 ; set units to millimeters
G90 ; use absolute coordinates
M82 ; use absolute distances for extrusion
G92 E0
; Filament gcode
G1 Z0.400 F7800.000
G1 E-2.00000 F2400.00000
G92 E0
G1 X16.939 Y69.398 F7800.000
G1 E2.00000 F2400.00000
G1 F1800
G1 X18.420 Y69.137 E2.17861
G1 X181.231 Y69.127 E21.51497
G1 X182.039 Y69.180 E21.61107
G1 X182.827 Y69.332 E21.70644
G1 X183.590 Y69.583 E21.80181
G1 X184.315 Y69.929 E21.89718
G1 X184.996 Y70.366 E21.99329
G1 X185.611 Y70.882 E22.08866
G1 X186.160 Y71.477 E22.18477
G1 X186.626 Y72.131 E22.28014
G1 X187.220 Y73.370 E22.44331
G1 X187.534 Y74.707 E22.60648
G1 X187.582 Y78.242 E23.02631
G1 X187.499 Y79.215 E23.14234
G1 X176.839 Y126.437 E28.89178
G1 X176.482 Y127.326 E29.00560
G1 X175.994 Y128.151 E29.11942
G1 X175.388 Y128.894 E29.23324
G1 X174.678 Y129.537 E29.34706
G1 X173.879 Y130.066 E29.46088
G1 X173.009 Y130.469 E29.57470
G1 X172.089 Y130.736 E29.68852
G1 X171.133 Y130.863 E29.80307
G1 X30.488 Y129.055 E46.50812
G1 X29.528 Y128.968 E46.62268
G1 X28.591 Y128.736 E46.73724
G1 X27.240 Y128.106 E46.91438
G1 X26.072 Y127.178 E47.09152
G1 X25.152 Y126.004 E47.26866
G1 X24.532 Y124.647 E47.44580
G1 X12.626 Y79.804 E52.95614
G1 X12.428 Y78.545 E53.10754
G1 X12.419 Y75.385 E53.48284
G1 X12.490 Y74.529 E53.58485
G1 X12.825 Y73.247 E53.74214
G1 X13.414 Y72.068 E53.89869
G1 X14.362 Y70.909 E54.07657
G1 X15.560 Y70.000 E54.25518
G1 X16.884 Y69.422 E54.42666
G1 E52.42666 F2400.00000
G92 E0
G1 X145.127 Y101.754 F7800.000
G1 E2.00000 F2400.00000
G1 F1800
G1 X145.128 Y77.792 E4.84582
G1 X177.213 Y77.792 E8.65643
G1 X171.810 Y101.754 E11.57373
G1 X145.187 Y101.754 E14.73554
G1 X144.736 Y101.838 F7800.000
G1 E12.73554 F2400.00000
G92 E0
G1 X169.206 Y119.792 F7800.000
G1 E2.00000 F2400.00000
G1 F1800
G1 X178.785 Y77.313 E7.17179
G1 X179.397 Y77.313 E7.24444
G1 X179.397 Y77.988 E7.32468
G1 X169.808 Y120.511 E12.50167
G1 X169.245 Y119.838 E12.60586
G1 E10.60586 F2400.00000
G92 E0
G1 X32.074 Y118.438 F7800.000
G1 E2.00000 F2400.00000
G1 F1800
G1 X31.505 Y119.044 E2.09869
G1 X20.603 Y77.953 E7.14771
G1 X20.603 Y77.313 E7.22381
G1 X21.163 Y77.313 E7.29024
G1 X32.058 Y118.380 E12.33641
G1 E10.33641 F2400.00000
G92 E0
G1 X172.218 Y103.188 F7800.000
G1 E2.00000 F2400.00000
G1 F1800
G1 X146.916 Y103.188 E5.00501
G1 X146.162 Y102.794 E5.10606
G1 X146.242 Y102.468 E5.14597
G1 X172.381 Y102.468 E8.25033
G1 X178.106 Y77.078 E11.34152
G1 X144.413 Y77.078 E15.34302
G1 X144.413 Y101.881 E18.28880
G1 X143.910 Y101.618 E18.35621
G1 X143.909 Y77.078 E21.27080
G1 X72.713 Y77.078 E29.72640
G1 X72.713 Y94.710 E31.82049
G1 X72.234 Y94.874 E31.88066
G1 X72.234 Y77.078 E33.99427
G1 X21.839 Y77.078 E39.97943
G1 X32.865 Y118.638 E45.08615
G1 X31.145 Y120.472 E45.38479
G1 X19.889 Y78.047 E50.59777
G1 X19.889 Y76.598 E50.76975
G1 X180.111 Y76.598 E69.79851
G1 X180.111 Y78.068 E69.97301
G1 X170.188 Y122.075 E75.33078
G1 X168.432 Y119.980 E75.65542
G1 X172.205 Y103.247 E77.69269
G1 E75.69269 F2400.00000
G92 E0
G1 X71.520 Y95.464 F7800.000
G1 E2.00000 F2400.00000
G1 F1800
G1 X27.456 Y95.464 E7.23325
G1 X22.768 Y77.792 E9.40475
G1 X71.520 Y77.792 E15.19484
G1 X71.520 Y95.404 E17.28660
G1 X71.679 Y95.832 F7800.000
G1 E15.28660 F2400.00000
G92 E0
G1 X171.325 Y103.902 F7800.000
G1 E2.00000 F2400.00000
G1 F1800
G1 X146.741 Y103.902 E4.91974
G1 X143.196 Y102.051 E5.39473
G1 X143.195 Y77.792 E8.27590
G1 X73.427 Y77.792 E16.56187
G1 X73.427 Y95.220 E18.63172
G1 X67.384 Y97.293 E19.39052
G1 X27.941 Y97.293 E24.07495
G1 X33.657 Y118.838 E26.72232
G1 X30.785 Y121.900 E27.22091
G1 X19.175 Y78.140 E32.59786
G1 X19.175 Y75.884 E32.86572
G1 X180.825 Y75.884 E52.06411
G1 X180.825 Y78.147 E52.33287
G1 X170.567 Y123.639 E57.87142
G1 X167.657 Y120.168 E58.40938
G1 X171.312 Y103.961 E60.38257
G1 X171.330 Y103.502 F7800.000
G1 E58.38257 F2400.00000
G92 E0
G1 X70.332 Y95.862 F7800.000
G1 E2.00000 F2400.00000
G1 F1800
G1 X69.889 Y95.935 E2.01079
G1 X69.446 Y96.009 E2.03244
G1 X69.003 Y96.083 E2.06495
G1 X68.560 Y96.157 E2.10832
G1 X68.118 Y96.231 E2.16256
G1 X67.675 Y96.305 E2.22765
G1 X67.232 Y96.378 E2.30361
G1 X27.329 Y96.378 E9.05284
G1 Z0.550 F7800.000
M140 S55 ; set bed temperature
G1 X71.345 Y95.289
G1 F1800
G1 X27.591 Y95.289 E10.19289
G1 X22.995 Y77.967 E10.65986
G1 X71.345 Y77.967 E11.91966
G1 X71.345 Y95.229 E12.36945
G1 X71.504 Y95.656 F7800.000
G1 E10.36945 F2400.00000
G92 E0
G1 X144.885 Y77.549 F7800.000
G1 E2.00000 F2400.00000
G1 F3600
G1 X177.516 Y77.549 E2.85024
G1 X172.004 Y101.997 E3.50324
G1 X144.884 Y101.996 E4.20985
G1 X144.885 Y77.609 E4.84529
G1 X145.303 Y77.967 F7800.000
G1 F1800
G1 X176.994 Y77.967 E5.67103
G1 X171.670 Y101.579 E6.30170
G1 X145.302 Y101.579 E6.98873
G1 X145.303 Y78.027 E7.60239
G1 X145.192 Y77.582 F7800.000
G1 E5.60239 F2400.00000
G92 E0
G1 X172.151 Y103.242 F7800.000
G1 E2.00000 F2400.00000
G1 F3600
G1 X146.903 Y103.241 E2.65786
G1 X145.684 Y102.605 E2.69369
G1 X145.731 Y102.414 E2.69881
G1 X172.338 Y102.414 E3.39207
G1 X178.039 Y77.131 E4.06738
G1 X144.467 Y77.131 E4.94213
G1 X144.466 Y101.969 E5.58930
G1 X143.856 Y101.651 E5.60724
G1 X143.856 Y77.131 E6.24612
G1 X72.767 Y77.131 E8.09840
G1 X72.767 Y94.748 E8.55742
G1 X72.181 Y94.949 E8.57357
G1 X72.181 Y77.131 E9.03783
G1 X21.909 Y77.131 E10.34770
G1 X26.948 Y96.125 E10.85972
G1 X68.106 Y96.125 E11.93213
G1 X68.141 Y96.334 E11.93767
G1 X67.274 Y96.632 E11.96156
G1 X27.082 Y96.632 E13.00878
G1 X32.925 Y118.653 E13.60241
G1 X31.118 Y120.579 E13.67122
G1 X19.836 Y78.053 E14.81759
G1 X19.836 Y76.545 E14.85689
G1 X180.164 Y76.545 E19.03438
G1 X180.164 Y78.074 E19.07422
G1 X170.216 Y122.192 E20.25262
G1 X168.374 Y119.994 E20.32736
G1 X172.138 Y103.300 E20.77326
G1 X171.629 Y103.659 F7800.000
G1 F3600
G1 X146.800 Y103.659 E21.42018
G1 X143.438 Y101.904 E21.51900
G1 X143.438 Y77.549 E22.15359
G1 X73.185 Y77.549 E23.98409
G1 X73.185 Y95.046 E24.44000
G1 X71.763 Y95.534 E24.47917
G1 X71.763 Y77.549 E24.94778
G1 X22.452 Y77.549 E26.23262
G1 X27.269 Y95.707 E26.72211
G1 X70.613 Y95.707 E27.85145
G1 X70.648 Y95.917 E27.85698
G1 X67.344 Y97.050 E27.94799
G1 X27.626 Y97.050 E28.98287
G1 X33.388 Y118.770 E29.56839
G1 X30.907 Y121.414 E29.66286
G1 X19.418 Y78.108 E30.83028
G1 X19.418 Y76.127 E30.88189
G1 X180.582 Y76.127 E35.08115
G1 X180.582 Y78.120 E35.13308
G1 X170.438 Y123.108 E36.33469
G1 X167.921 Y120.104 E36.43681
G1 X171.616 Y103.718 E36.87448
G1 X171.106 Y104.077 F7800.000
G1 F1800
G1 X146.698 Y104.077 E37.51046
G1 X143.021 Y102.157 E37.61855
G1 X143.020 Y77.967 E38.24885
G1 X73.602 Y77.967 E40.05758
G1 X73.602 Y95.345 E40.51038
G1 X67.413 Y97.468 E40.68086
G1 X28.169 Y97.468 E41.70341
G1 X33.851 Y118.887 E42.28082
G1 X30.697 Y122.249 E42.40095
G1 X19.000 Y78.162 E43.58941
G1 X19.000 Y75.709 E43.65333
G1 X181.000 Y75.709 E47.87436
G1 X181.000 Y78.167 E47.93839
G1 X170.660 Y124.023 E49.16321
G1 X167.468 Y120.214 E49.29270
G1 X171.093 Y104.136 E49.72215
G1 X171.109 Y103.677 F7800.000
G1 X172.057 Y104.231
G1 F1200
G1 X174.495 Y101.793 E49.81301
G1 X174.321 Y102.565 E49.83385
G1 X172.131 Y104.754 E49.91544
G1 X171.957 Y105.525 E49.93629
G1 X174.147 Y103.336 E50.01788
G1 X173.973 Y104.108 E50.03872
G1 X171.784 Y106.297 E50.12031
G1 X171.610 Y107.069 E50.14115
G1 X173.799 Y104.879 E50.22274
G1 X173.625 Y105.651 E50.24358
G1 X171.436 Y107.840 E50.32517
G1 X171.262 Y108.612 E50.34602
G1 X173.451 Y106.423 E50.42761
G1 X173.277 Y107.194 E50.44845
G1 X171.088 Y109.383 E50.53004
G1 X170.914 Y110.155 E50.55088
G1 X173.103 Y107.966 E50.63247
G1 X172.929 Y108.737 E50.65332
G1 X170.740 Y110.927 E50.73491
G1 X170.566 Y111.698 E50.75575
G1 X172.755 Y109.509 E50.83734
G1 X172.581 Y110.280 E50.85818
G1 X170.392 Y112.470 E50.93977
G1 X170.218 Y113.241 E50.96062
G1 X172.407 Y111.052 E51.04220
G1 X172.233 Y111.824 E51.06305
G1 X170.044 Y114.013 E51.14464
G1 X169.870 Y114.784 E51.16548
G1 X172.059 Y112.595 E51.24707
G1 X171.885 Y113.367 E51.26792
G1 X169.696 Y115.556 E51.34950
G1 X169.522 Y116.328 E51.37035
G1 X171.711 Y114.138 E51.45194
G1 X171.537 Y114.910 E51.47278
G1 X169.348 Y117.099 E51.55437
G1 X169.174 Y117.871 E51.57522
G1 X171.363 Y115.682 E51.65681
G1 X171.189 Y116.453 E51.67765
G1 X169.000 Y118.642 E51.75924
G1 X168.826 Y119.414 E51.78008
G1 X171.015 Y117.225 E51.86167
G1 X170.841 Y117.996 E51.88252
G1 X168.810 Y120.027 E51.95820
G1 X169.083 Y120.352 E51.96938
G1 X170.667 Y118.768 E52.02843
G1 X170.493 Y119.539 E52.04927
G1 X169.355 Y120.677 E52.09168
G1 X169.628 Y121.003 E52.10286
G1 X170.319 Y120.311 E52.12863
G1 X170.145 Y121.083 E52.14947
G1 X169.767 Y121.461 E52.16358
G1 X172.584 Y103.106 F7800.000
G1 F1200
G1 X174.669 Y101.021 E52.24127
G1 X174.843 Y100.250 E52.26211
G1 X172.772 Y102.321 E52.33928
G1 X172.772 Y102.294 E52.33999
G1 X172.686 Y102.294 E52.34225
G1 X172.827 Y101.668 E52.35917
G1 X175.017 Y99.478 E52.44076
G1 X175.191 Y98.707 E52.46160
G1 X173.001 Y100.896 E52.54319
G1 X173.175 Y100.124 E52.56403
G1 X175.365 Y97.935 E52.64562
G1 X175.539 Y97.164 E52.66647
G1 X173.349 Y99.353 E52.74806
G1 X173.523 Y98.581 E52.76890
G1 X175.713 Y96.392 E52.85049
G1 X175.887 Y95.620 E52.87133
G1 X173.697 Y97.810 E52.95293
G1 X173.871 Y97.038 E52.97377
G1 X176.061 Y94.849 E53.05536
G1 X176.235 Y94.077 E53.07620
G1 X174.045 Y96.266 E53.15779
G1 X174.219 Y95.495 E53.17864
G1 X176.409 Y93.306 E53.26023
G1 X176.583 Y92.534 E53.28107
G1 X174.393 Y94.723 E53.36266
G1 X174.567 Y93.952 E53.38350
G1 X176.757 Y91.762 E53.46509
G1 X176.930 Y90.991 E53.48594
G1 X174.741 Y93.180 E53.56753
G1 X174.915 Y92.409 E53.58837
G1 X177.104 Y90.219 E53.66996
G1 X177.278 Y89.448 E53.69080
G1 X175.089 Y91.637 E53.77239
G1 X175.263 Y90.865 E53.79324
G1 X177.452 Y88.676 E53.87483
G1 X177.626 Y87.905 E53.89567
G1 X175.437 Y90.094 E53.97726
G1 X175.611 Y89.322 E53.99810
G1 X177.800 Y87.133 E54.07969
G1 X177.974 Y86.361 E54.10054
G1 X175.785 Y88.551 E54.18213
G1 X175.959 Y87.779 E54.20297
G1 X178.148 Y85.590 E54.28456
G1 X178.322 Y84.818 E54.30540
G1 X176.133 Y87.007 E54.38699
G1 X176.307 Y86.236 E54.40784
G1 X178.496 Y84.047 E54.48943
G1 X178.670 Y83.275 E54.51027
G1 X176.481 Y85.464 E54.59186
G1 X176.655 Y84.693 E54.61270
G1 X178.844 Y82.503 E54.69429
G1 X179.018 Y81.732 E54.71513
G1 X176.829 Y83.921 E54.79672
G1 X177.003 Y83.150 E54.81757
G1 X179.192 Y80.960 E54.89916
G1 X179.366 Y80.189 E54.92000
G1 X177.177 Y82.378 E55.00159
G1 X177.351 Y81.606 E55.02243
G1 X179.540 Y79.417 E55.10402
G1 X179.714 Y78.645 E55.12487
G1 X177.525 Y80.835 E55.20646
G1 X177.699 Y80.063 E55.22730
G1 X179.851 Y77.911 E55.30750
G1 X179.851 Y77.313 E55.32325
G1 X177.873 Y79.292 E55.39697
G1 X178.047 Y78.520 E55.41781
G1 X179.709 Y76.858 E55.47974
G1 X179.111 Y76.858 E55.49549
G1 X177.972 Y77.997 E55.53794
G1 X178.319 Y76.838 F7800.000
G1 F1200
G1 X144.258 Y76.838 E55.89578
G1 X144.161 Y76.866 E55.89683
G1 X144.113 Y76.852 E55.89754
G1 X144.065 Y76.838 E55.89815
G1 X72.558 Y76.838 E56.64938
G1 X72.474 Y76.859 E56.65030
G1 X72.390 Y76.838 E56.65144
G1 X21.615 Y76.838 E57.18486
G1 X20.805 Y76.670 F7800.000
G1 F1200
G1 X20.149 Y77.327 E57.20905
G1 X20.149 Y77.918 E57.22445
G1 X21.208 Y76.858 E57.26348
G1 X21.302 Y76.858 E57.26591
G1 X21.302 Y77.252 E57.27617
G1 X21.406 Y77.252 E57.27888
G1 X20.253 Y78.404 E57.32136
G1 X20.377 Y78.871 E57.33395
G1 X21.696 Y77.552 E57.38257
G1 X21.820 Y78.019 E57.39515
G1 X20.501 Y79.338 E57.44377
G1 X20.625 Y79.805 E57.45636
G1 X21.944 Y78.486 E57.50498
G1 X22.068 Y78.953 E57.51757
G1 X20.748 Y80.272 E57.56619
G1 X20.872 Y80.739 E57.57878
G1 X22.192 Y79.420 E57.62740
G1 X22.316 Y79.887 E57.63999
G1 X20.996 Y81.206 E57.68861
G1 X21.120 Y81.673 E57.70120
G1 X22.440 Y80.354 E57.74982
G1 X22.564 Y80.821 E57.76241
G1 X21.244 Y82.140 E57.81103
G1 X21.368 Y82.607 E57.82362
G1 X22.687 Y81.288 E57.87224
G1 X22.811 Y81.755 E57.88483
G1 X21.492 Y83.074 E57.93345
G1 X21.616 Y83.541 E57.94604
G1 X22.935 Y82.222 E57.99466
G1 X23.059 Y82.689 E58.00724
G1 X21.740 Y84.008 E58.05586
G1 X21.864 Y84.475 E58.06845
G1 X23.183 Y83.156 E58.11707
G1 X23.307 Y83.623 E58.12966
G1 X21.987 Y84.942 E58.17828
G1 X22.111 Y85.409 E58.19087
G1 X23.431 Y84.090 E58.23949
G1 X23.555 Y84.557 E58.25208
G1 X22.235 Y85.876 E58.30070
G1 X22.359 Y86.343 E58.31329
G1 X23.679 Y85.024 E58.36191
G1 X23.802 Y85.491 E58.37450
G1 X22.483 Y86.810 E58.42312
G1 X22.607 Y87.277 E58.43571
G1 X23.926 Y85.958 E58.48433
G1 X24.050 Y86.425 E58.49691
G1 X22.731 Y87.744 E58.54554
G1 X22.855 Y88.211 E58.55812
G1 X24.174 Y86.892 E58.60674
G1 X24.298 Y87.359 E58.61933
G1 X22.979 Y88.678 E58.66795
G1 X23.102 Y89.145 E58.68054
G1 X24.422 Y87.826 E58.72916
G1 X24.546 Y88.293 E58.74175
G1 X23.226 Y89.612 E58.79037
G1 X23.350 Y90.079 E58.80296
G1 X24.670 Y88.760 E58.85158
G1 X24.794 Y89.227 E58.86417
G1 X23.474 Y90.546 E58.91279
G1 X23.598 Y91.013 E58.92538
G1 X24.917 Y89.694 E58.97400
G1 X25.041 Y90.161 E58.98659
G1 X23.722 Y91.480 E59.03521
G1 X23.846 Y91.947 E59.04779
G1 X25.165 Y90.628 E59.09641
G1 X25.289 Y91.094 E59.10900
G1 X23.970 Y92.414 E59.15762
G1 X24.094 Y92.881 E59.17021
G1 X25.413 Y91.561 E59.21883
G1 X25.537 Y92.028 E59.23142
G1 X24.218 Y93.348 E59.28004
G1 X24.341 Y93.815 E59.29263
G1 X25.661 Y92.495 E59.34125
G1 X25.785 Y92.962 E59.35384
G1 X24.465 Y94.282 E59.40246
G1 X24.589 Y94.749 E59.41505
G1 X25.909 Y93.429 E59.46367
G1 X26.033 Y93.896 E59.47625
G1 X24.713 Y95.216 E59.52487
G1 X24.837 Y95.683 E59.53746
G1 X26.156 Y94.363 E59.58608
G1 X26.280 Y94.830 E59.59867
G1 X24.961 Y96.150 E59.64729
G1 X25.085 Y96.617 E59.65988
G1 X26.404 Y95.297 E59.70850
G1 X26.528 Y95.764 E59.72109
G1 X25.209 Y97.084 E59.76971
G1 X25.333 Y97.551 E59.78230
G1 X26.486 Y96.398 E59.82479
G1 X26.486 Y96.753 E59.83404
G1 X26.722 Y96.753 E59.84019
G1 X25.456 Y98.018 E59.88681
G1 X25.580 Y98.485 E59.89940
G1 X26.900 Y97.165 E59.94802
G1 X27.024 Y97.632 E59.96061
G1 X25.704 Y98.952 E60.00923
G1 X25.828 Y99.419 E60.02182
G1 X27.148 Y98.099 E60.07044
G1 X27.271 Y98.566 E60.08302
G1 X25.952 Y99.886 E60.13164
G1 X26.076 Y100.353 E60.14423
G1 X27.395 Y99.033 E60.19285
G1 X27.519 Y99.500 E60.20544
G1 X26.200 Y100.820 E60.25406
G1 X26.324 Y101.287 E60.26665
G1 X27.643 Y99.967 E60.31527
G1 X27.767 Y100.434 E60.32786
G1 X26.448 Y101.754 E60.37648
G1 X26.571 Y102.221 E60.38907
G1 X27.891 Y100.901 E60.43769
G1 X28.015 Y101.368 E60.45027
G1 X26.695 Y102.688 E60.49889
G1 X26.819 Y103.155 E60.51148
G1 X28.139 Y101.835 E60.56010
G1 X28.263 Y102.302 E60.57269
G1 X26.943 Y103.622 E60.62131
G1 X27.067 Y104.089 E60.63390
G1 X28.387 Y102.769 E60.68252
G1 X28.510 Y103.236 E60.69511
G1 X27.191 Y104.555 E60.74373
G1 X27.315 Y105.022 E60.75632
G1 X28.634 Y103.703 E60.80494
G1 X28.758 Y104.170 E60.81753
G1 X27.439 Y105.489 E60.86615
G1 X27.563 Y105.956 E60.87873
G1 X28.882 Y104.637 E60.92735
G1 X29.006 Y105.104 E60.93994
G1 X27.687 Y106.423 E60.98856
G1 X27.810 Y106.890 E61.00115
G1 X29.130 Y105.571 E61.04977
G1 X29.254 Y106.038 E61.06236
G1 X27.934 Y107.357 E61.11098
G1 X28.058 Y107.824 E61.12357
G1 X29.378 Y106.505 E61.17219
G1 X29.502 Y106.972 E61.18478
G1 X28.182 Y108.291 E61.23340
G1 X28.306 Y108.758 E61.24598
G1 X29.625 Y107.439 E61.29460
G1 X29.749 Y107.906 E61.30719
G1 X28.430 Y109.225 E61.35581
G1 X28.554 Y109.692 E61.36840
G1 X29.873 Y108.373 E61.41702
G1 X29.997 Y108.840 E61.42961
G1 X28.678 Y110.159 E61.47823
G1 X28.802 Y110.626 E61.49082
G1 X30.121 Y109.307 E61.53944
G1 X30.245 Y109.774 E61.55203
G1 X28.925 Y111.093 E61.60065
G1 X29.049 Y111.560 E61.61323
G1 X30.369 Y110.241 E61.66185
G1 X30.493 Y110.708 E61.67444
G1 X29.173 Y112.027 E61.72306
G1 X29.297 Y112.494 E61.73565
G1 X30.617 Y111.175 E61.78427
G1 X30.740 Y111.642 E61.79686
G1 X29.421 Y112.961 E61.84548
